;FLAVOR:Marlin
;TIME:4327
;Filament used: 5.1484m
;Layer height: 0.2
;MINX:87.35
;MINY:87.35
;MINZ:0.2
;MAXX:122.65
;MAXY:122.65
;MAXZ:34.2
;Generated with Cura_SteamEngine 4.7.1
M140 S60
M105
M190 S60
M104 S200
M105
M109 S200
M82 ;absolute extrusion mode
G21 ;metric values
G90 ;absolute positioning
M82 ;set extruder to absolute mode
M107 ;start with the fan off
G28 X0 Y0 ;move X/Y to min endstops
G28 Z0 ;move Z to min endstops
G1 Z15.0 F100 ;move the platform down 15mm
G92 E0 ;zero the extruded length
G1 F200 E3 ;extrude 3mm of feed stock
G92 E0 ;zero the extruded length again
G1 F100
G0 Y20 F100
M117 Printing...
G5
G92 E0
G92 E0
G1 F2400 E-6
;LAYER_COUNT:175
;LAYER:0
M106 S255
M204 S3000
M205 X10 Y10
G1 F600 Z0.275
G0 F3000 X89.283 Y89.185 Z0.275
M204 S1800
M205 X8 Y8
;TYPE:SKIRT
G1 F600 Z0.2
G1 F2400 E0
G1 X89.821 Y88.714 E0.0333
G1 X90.409 Y88.306 E0.06662
G1 X91.038 Y87.966 E0.09991
G1 X91.702 Y87.699 E0.13324
G1 X92.391 Y87.507 E0.16654
G1 X93.097 Y87.393 E0.19984
G1 X93.901 Y87.353 E0.23733
G1 X94.08 Y87.35 E0.24566
G1 X115.543 Y87.35 E1.24507
G1 X116.333 Y87.361 E1.28186
G1 X117.046 Y87.411 E1.31514
G1 X117.75 Y87.54 E1.34847
G1 X118.434 Y87.748 E1.38176
G1 X119.091 Y88.03 E1.41505
G1 X119.713 Y88.384 E1.44838
G1 X120.291 Y88.805 E1.48167
G1 X120.819 Y89.288 E1.51499
G1 X121.289 Y89.826 E1.54826
G1 X121.697 Y90.414 E1.58158
G1 X122.036 Y91.044 E1.6149
G1 X122.303 Y91.707 E1.64818
G1 X122.494 Y92.397 E1.68152
G1 X122.607 Y93.103 E1.71481
G1 X122.647 Y93.9 E1.75197
G1 X122.65 Y94.08 E1.76035
G1 X122.65 Y115.593 E2.76209
G1 X122.641 Y116.32 E2.79594
G1 X122.592 Y117.034 E2.82927
G1 X122.464 Y117.738 E2.86258
G1 X122.258 Y118.423 E2.89589
G1 X121.977 Y119.08 E2.92916
G1 X121.624 Y119.703 E2.96251
G1 X121.204 Y120.282 E2.99581
G1 X120.722 Y120.81 E3.0291
G1 X120.185 Y121.282 E3.06239
G1 X119.597 Y121.69 E3.09572
G1 X118.968 Y122.031 E3.12904
G1 X118.305 Y122.299 E3.16234
G1 X117.616 Y122.491 E3.19564
G1 X116.91 Y122.606 E3.22895
G1 X116.099 Y122.647 E3.26676
G1 X115.92 Y122.65 E3.2751
G1 X94.374 Y122.649 E4.27837
G1 X93.676 Y122.64 E4.31087
G1 X92.963 Y122.591 E4.34415
G1 X92.259 Y122.463 E4.37747
G1 X91.574 Y122.257 E4.41078
G1 X90.917 Y121.975 E4.44407
G1 X90.295 Y121.622 E4.47737
G1 X89.716 Y121.202 E4.51068
G1 X89.187 Y120.72 E4.544
G1 X88.716 Y120.182 E4.5773
G1 X88.308 Y119.595 E4.61058
G1 X87.968 Y118.965 E4.64392
G1 X87.7 Y118.302 E4.67722
G1 X87.508 Y117.613 E4.71052
G1 X87.394 Y116.907 E4.74382
G1 X87.352 Y116.081 E4.78234
G1 X87.35 Y115.908 E4.79039
G1 X87.351 Y94.337 E5.79483
G1 X87.36 Y93.672 E5.8258
G1 X87.409 Y92.959 E5.85907
G1 X87.538 Y92.255 E5.8924
G1 X87.745 Y91.571 E5.92568
G1 X88.027 Y90.913 E5.95901
G1 X88.38 Y90.291 E5.99231
G1 X88.8 Y89.713 E6.02558
G1 X89.283 Y89.185 E6.0589
M204 S3000
M205 X10 Y10
G0 F3000 X89.83 Y89.438
M204 S1800
M205 X8 Y8
G1 F2400 X90.362 Y89.009 E6.09073
G1 X90.94 Y88.644 E6.12256
G1 X91.557 Y88.35 E6.15438
G1 X92.203 Y88.13 E6.18616
G1 X92.871 Y87.987 E6.21797
G1 X93.595 Y87.921 E6.25182
G1 X94.08 Y87.91 E6.27441
G1 X115.543 Y87.91 E7.27382
G1 X116.325 Y87.921 E7.31024
G1 X117.006 Y87.97 E7.34203
G1 X117.677 Y88.099 E7.37384
G1 X118.328 Y88.306 E7.40565
G1 X118.951 Y88.587 E7.43748
G1 X119.537 Y88.939 E7.46931
G1 X120.077 Y89.357 E7.50111
G1 X120.565 Y89.835 E7.53291
G1 X120.994 Y90.367 E7.56474
G1 X121.358 Y90.945 E7.59654
G1 X121.652 Y91.562 E7.62837
G1 X121.871 Y92.209 E7.66017
G1 X122.014 Y92.877 E7.69198
G1 X122.079 Y93.596 E7.7256
G1 X122.09 Y94.08 E7.74814
G1 X122.09 Y115.586 E8.74955
G1 X122.081 Y116.313 E8.78341
G1 X122.032 Y116.995 E8.81525
G1 X121.904 Y117.666 E8.84705
G1 X121.699 Y118.318 E8.87888
G1 X121.419 Y118.941 E8.91068
G1 X121.069 Y119.527 E8.94247
G1 X120.652 Y120.069 E8.97431
G1 X120.175 Y120.558 E9.00612
G1 X119.644 Y120.987 E9.03791
G1 X119.066 Y121.352 E9.06974
G1 X118.45 Y121.647 E9.10154
G1 X117.803 Y121.868 E9.13338
G1 X117.135 Y122.012 E9.1652
G1 X116.405 Y122.079 E9.19933
G1 X115.92 Y122.09 E9.22192
G1 X94.382 Y122.09 E10.22482
G1 X93.684 Y122.081 E10.25732
G1 X93.002 Y122.032 E10.28916
G1 X92.331 Y121.904 E10.32097
G1 X91.68 Y121.698 E10.35277
G1 X91.056 Y121.418 E10.38461
G1 X90.47 Y121.067 E10.41642
G1 X89.929 Y120.65 E10.44823
G1 X89.44 Y120.172 E10.48007
G1 X89.011 Y119.641 E10.51185
G1 X88.646 Y119.063 E10.54368
G1 X88.352 Y118.447 E10.57547
G1 X88.131 Y117.8 E10.6073
G1 X87.987 Y117.132 E10.63912
G1 X87.921 Y116.399 E10.67339
G1 X87.91 Y115.908 E10.69626
G1 X87.911 Y94.345 E11.70033
G1 X87.92 Y93.68 E11.73129
G1 X87.969 Y92.999 E11.76309
G1 X88.097 Y92.327 E11.79494
G1 X88.303 Y91.676 E11.82673
G1 X88.584 Y91.053 E11.85856
G1 X88.935 Y90.467 E11.89036
G1 X89.353 Y89.926 E11.9222
G1 X89.83 Y89.438 E11.95397
M204 S3000
M205 X10 Y10
G0 F3000 X89.904 Y90.151
M204 S1800
M205 X8 Y8
G1 F2400 X90.376 Y89.705 E11.98421
G1 X90.899 Y89.321 E12.01443
G1 X91.466 Y89.003 E12.0447
G1 X92.067 Y88.757 E12.07493
G1 X92.694 Y88.587 E12.10518
G1 X93.611 Y88.481 E12.14817
G1 X94.08 Y88.47 E12.17001
G1 X115.543 Y88.47 E13.16942
G1 X116.317 Y88.481 E13.20546
G1 X116.964 Y88.53 E13.23568
G1 X117.601 Y88.658 E13.26593
G1 X118.217 Y88.864 E13.29618
G1 X118.804 Y89.144 E13.32646
G1 X119.351 Y89.493 E13.35667
G1 X119.852 Y89.907 E13.38694
G1 X120.297 Y90.38 E13.41718
G1 X120.682 Y90.904 E13.44745
G1 X120.999 Y91.471 E13.4777
G1 X121.244 Y92.072 E13.50792
G1 X121.413 Y92.699 E13.53816
G1 X121.519 Y93.612 E13.58096
G1 X121.53 Y94.08 E13.60276
G1 X121.53 Y115.579 E14.60384
G1 X121.521 Y116.306 E14.6377
G1 X121.473 Y116.954 E14.66795
G1 X121.345 Y117.591 E14.69821
G1 X121.141 Y118.208 E14.72847
G1 X120.862 Y118.795 E14.75873
G1 X120.514 Y119.343 E14.78896
G1 X120.101 Y119.844 E14.81919
G1 X119.629 Y120.291 E14.84946
G1 X119.106 Y120.676 E14.8797
G1 X118.54 Y120.994 E14.90993
G1 X117.938 Y121.241 E14.94023
G1 X117.312 Y121.411 E14.97044
G1 X116.389 Y121.519 E15.01371
G1 X115.92 Y121.53 E15.03555
G1 X94.389 Y121.53 E16.03813
G1 X93.691 Y121.521 E16.07063
G1 X93.043 Y121.472 E16.10089
G1 X92.406 Y121.345 E16.13113
G1 X91.79 Y121.14 E16.16137
G1 X91.203 Y120.861 E16.19163
G1 X90.655 Y120.512 E16.22188
G1 X90.154 Y120.099 E16.25211
G1 X89.707 Y119.627 E16.28238
G1 X89.322 Y119.104 E16.31262
G1 X89.004 Y118.537 E16.3429
G1 X88.758 Y117.936 E16.37313
G1 X88.588 Y117.309 E16.40338
G1 X88.481 Y116.384 E16.44674
G1 X88.47 Y115.908 E16.46891
G1 X88.47 Y94.353 E17.4726
G1 X88.479 Y93.688 E17.50357
G1 X88.528 Y93.04 E17.53383
G1 X88.656 Y92.403 E17.56409
G1 X88.861 Y91.786 E17.59436
G1 X89.141 Y91.2 E17.6246
G1 X89.49 Y90.652 E17.65486
G1 X89.904 Y90.151 E17.68512
M204 S3000
M205 X10 Y10
G1 F2400 E11.68512
G1 F600 Z0.275
G0 F3000 X101.229 Y101.321 Z0.275
M204 S1800
M205 X8 Y8
;TYPE:SUPPORT
G1 F600 Z0.2
G1 F2400 E17.68512
G1 F1500 X101.607 Y100.968 E17.7092
G1 X101.994 Y100.672 E17.73189
G1 X102.431 Y100.401 E17.75583
G1 X102.894 Y100.171 E17.7799
G1 X103.366 Y99.993 E17.80339
G1 X103.872 Y99.853 E17.82784
G1 X104.359 Y99.771 E17.85084
G1 X104.863 Y99.733 E17.87437
G1 X105.379 Y99.745 E17.89841
G1 X105.891 Y99.807 E17.92242
G1 X106.385 Y99.917 E17.94599
G1 X106.853 Y100.068 E17.96888
G1 X107.329 Y100.274 E17.99304
G1 X107.77 Y100.519 E18.01653
G1 X108.198 Y100.813 E18.0407
G1 X108.59 Y101.145 E18.06462
G1 X108.94 Y101.502 E18.0879
G1 X109.255 Y101.894 E18.11132
G1 X109.537 Y102.326 E18.13534
G1 X109.786 Y102.798 E18.16019
G1 X109.967 Y103.245 E18.18265
G1 X110.112 Y103.726 E18.20604
G1 X110.212 Y104.236 E18.23024
G1 X110.263 Y104.745 E18.25406
G1 X110.263 Y105.236 E18.27692
G1 X110.21 Y105.77 E18.30191
G1 X110.115 Y106.264 E18.32534
G1 X109.972 Y106.744 E18.34866
G1 X109.783 Y107.209 E18.37203
G1 X109.548 Y107.656 E18.39554
G1 X109.252 Y108.113 E18.4209
G1 X108.955 Y108.482 E18.44295
G1 X108.591 Y108.856 E18.46726
G1 X108.198 Y109.188 E18.49121
G1 X107.785 Y109.472 E18.51455
G1 X107.352 Y109.714 E18.53765
G1 X106.858 Y109.93 E18.56275
G1 X106.385 Y110.083 E18.5859
G1 X105.902 Y110.191 E18.60895
G1 X105.387 Y110.254 E18.63311
G1 X104.867 Y110.267 E18.65733
G1 X104.377 Y110.231 E18.68021
G1 X103.859 Y110.144 E18.70466
G1 X103.39 Y110.017 E18.72729
G1 X102.898 Y109.83 E18.7518
G1 X102.44 Y109.604 E18.77558
G1 X102.003 Y109.335 E18.79947
G1 X101.614 Y109.038 E18.82226
G1 X101.232 Y108.682 E18.84658
G1 X100.901 Y108.31 E18.86976
G1 X100.586 Y107.876 E18.89474
G1 X100.337 Y107.454 E18.91755
G1 X100.119 Y106.987 E18.94155
G1 X99.956 Y106.524 E18.96441
G1 X99.83 Y106.01 E18.98905
G1 X99.758 Y105.518 E19.0122
G1 X99.733 Y105.002 E19.03626
G1 X99.757 Y104.485 E19.06036
G1 X99.828 Y103.996 E19.08337
G1 X99.951 Y103.493 E19.10748
G1 X100.117 Y103.021 E19.13077
G1 X100.335 Y102.553 E19.15482
G1 X100.593 Y102.114 E19.17853
G1 X100.887 Y101.708 E19.20187
G1 X101.229 Y101.321 E19.22592
M204 S3000
M205 X10 Y10
G0 F3000 X100.063 Y103.959
M204 S1800
M205 X8 Y8
G1 F1500 X108.368 Y108.754 E19.67246
M204 S3000
M205 X10 Y10
G0 F3000 X104 Y109.944
M204 S1800
M205 X8 Y8
G1 F1500 X104 Y100.054 E20.13298
M204 S3000
M205 X10 Y10
G0 F3000 X109.623 Y102.985
M204 S1800
M205 X8 Y8
G1 F1500 X100.944 Y107.996 E20.59963
M204 S3000
M205 X10 Y10
G1 F2400 E14.59963
;MESH:handle10.stl
G0 F3000 X99.292 Y109.195
G0 X99.038 Y109.798
M204 S1800
M205 X8 Y8
;TYPE:WALL-INNER
G1 F2400 E20.59963
G1 F1500 X99.531 Y110.349 E20.63406
G1 X100.069 Y110.85 E20.66829
G1 X100.659 Y111.302 E20.7029
G1 X101.287 Y111.689 E20.73725
G1 X101.949 Y112.017 E20.77165
G1 X102.642 Y112.278 E20.80613
G1 X103.356 Y112.474 E20.84061
G1 X104.086 Y112.596 E20.87507
G1 X104.819 Y112.648 E20.90929
G1 X105.56 Y112.631 E20.9438
G1 X106.294 Y112.542 E20.97823
G1 X107.017 Y112.381 E21.01272
G1 X107.718 Y112.152 E21.04706
G1 X108.396 Y111.856 E21.08151
G1 X109.042 Y111.496 E21.11595
G1 X109.651 Y111.076 E21.15039
G1 X110.214 Y110.599 E21.18475
G1 X110.731 Y110.071 E21.21916
G1 X111.194 Y109.493 E21.25365
G1 X111.598 Y108.874 E21.28807
G1 X111.942 Y108.22 E21.32247
G1 X112.22 Y107.532 E21.35703
G1 X112.431 Y106.824 E21.39143
G1 X112.571 Y106.1 E21.42576
G1 X112.643 Y105.367 E21.46006
G1 X112.643 Y104.623 E21.4947
G1 X112.57 Y103.887 E21.52914
G1 X112.427 Y103.162 E21.56355
G1 X112.216 Y102.457 E21.59782
G1 X111.936 Y101.77 E21.63236
G1 X111.591 Y101.118 E21.66671
G1 X111.188 Y100.499 E21.7011
G1 X110.723 Y99.922 E21.73561
G1 X110.206 Y99.393 E21.77005
G1 X109.641 Y98.916 E21.80448
G1 X109.032 Y98.499 E21.83885
G1 X108.386 Y98.138 E21.87331
G1 X107.711 Y97.846 E21.90756
G1 X107.005 Y97.617 E21.94212
G1 X106.284 Y97.456 E21.97652
G1 X105.548 Y97.368 E22.01103
G1 X104.808 Y97.352 E22.0455
G1 X104.072 Y97.405 E22.07986
G1 X103.342 Y97.53 E22.11435
G1 X102.629 Y97.726 E22.14878
G1 X101.94 Y97.987 E22.18308
G1 X101.277 Y98.316 E22.21755
G1 X100.651 Y98.705 E22.25187
G1 X100.061 Y99.156 E22.28645
G1 X99.522 Y99.66 E22.32081
G1 X99.031 Y100.213 E22.35524
G1 X98.597 Y100.812 E22.38969
G1 X98.224 Y101.448 E22.42402
G1 X97.911 Y102.121 E22.45858
G1 X97.667 Y102.818 E22.49297
G1 X97.49 Y103.534 E22.52731
G1 X97.384 Y104.262 E22.56157
G1 X97.348 Y105.007 E22.5963
G1 X97.385 Y105.743 E22.63061
G1 X97.492 Y106.476 E22.66511
G1 X97.67 Y107.194 E22.69955
G1 X97.915 Y107.891 E22.73395
G1 X98.228 Y108.562 E22.76843
G1 X98.603 Y109.198 E22.80281
G1 X99.038 Y109.798 E22.83732
M204 S3000
M205 X10 Y10
G0 F3000 X102.158 Y111.539
G0 X114.85 Y114.85
M204 S1800
M205 X8 Y8
G1 F1500 X95.15 Y114.85 E23.75463
G1 X95.15 Y95.15 E24.67195
G1 X114.85 Y95.15 E25.58926
G1 X114.85 Y114.85 E26.50657
M204 S3000
M205 X10 Y10
G0 F3000 X115.41 Y115.41
M204 S1800
M205 X8 Y8
G1 F1500 X94.59 Y115.41 E27.47604
G1 X94.59 Y94.59 E28.44551
G1 X115.41 Y94.59 E29.41497
G1 X115.41 Y115.41 E30.38444
M204 S3000
M205 X10 Y10
G0 F3000 X115.34 Y115.34
G0 X103.455 Y112.023
G0 X103.476 Y111.926
M204 S1800
M205 X8 Y8
G1 F1500 X104.152 Y112.039 E30.41635
G1 X104.833 Y112.088 E30.44815
G1 X105.519 Y112.072 E30.4801
G1 X106.199 Y111.989 E30.512
G1 X106.869 Y111.84 E30.54396
G1 X107.519 Y111.628 E30.57579
G1 X108.147 Y111.354 E30.6077
G1 X108.746 Y111.02 E30.63963
G1 X109.31 Y110.631 E30.67154
G1 X109.832 Y110.189 E30.70339
G1 X110.311 Y109.699 E30.73529
G1 X110.74 Y109.164 E30.76722
G1 X111.115 Y108.59 E30.79915
G1 X111.433 Y107.984 E30.83102
G1 X111.691 Y107.347 E30.86302
G1 X111.886 Y106.691 E30.89489
G1 X112.016 Y106.019 E30.92676
G1 X112.083 Y105.339 E30.95857
G1 X112.083 Y104.651 E30.99061
G1 X112.015 Y103.969 E31.02253
G1 X111.883 Y103.297 E31.05441
G1 X111.687 Y102.643 E31.08621
G1 X111.428 Y102.007 E31.11818
G1 X111.108 Y101.402 E31.15005
G1 X110.734 Y100.828 E31.18195
G1 X110.304 Y100.294 E31.21388
G1 X109.824 Y99.804 E31.24582
G1 X109.301 Y99.362 E31.2777
G1 X108.737 Y98.975 E31.30955
G1 X108.138 Y98.641 E31.34149
G1 X107.513 Y98.37 E31.37321
G1 X106.858 Y98.158 E31.40526
G1 X106.189 Y98.009 E31.43718
G1 X105.508 Y97.927 E31.46912
G1 X104.822 Y97.912 E31.50107
G1 X104.14 Y97.962 E31.53291
G1 X103.464 Y98.077 E31.56484
G1 X102.803 Y98.259 E31.59677
G1 X102.164 Y98.501 E31.62858
G1 X101.55 Y98.806 E31.66051
G1 X100.969 Y99.166 E31.69233
G1 X100.423 Y99.584 E31.72435
G1 X99.923 Y100.051 E31.75621
G1 X99.468 Y100.564 E31.78814
G1 X99.066 Y101.119 E31.82005
G1 X98.72 Y101.708 E31.85186
G1 X98.43 Y102.332 E31.8839
G1 X98.204 Y102.978 E31.91577
G1 X98.04 Y103.642 E31.94761
G1 X97.942 Y104.316 E31.97933
G1 X97.909 Y105.006 E32.01149
G1 X97.943 Y105.689 E32.04334
G1 X98.042 Y106.368 E32.07529
G1 X98.207 Y107.033 E32.10719
G1 X98.434 Y107.679 E32.13908
G1 X98.724 Y108.301 E32.17103
G1 X99.072 Y108.891 E32.20293
G1 X99.475 Y109.446 E32.23486
G1 X99.931 Y109.957 E32.26676
G1 X100.431 Y110.422 E32.29855
G1 X100.977 Y110.84 E32.33057
G1 X101.559 Y111.199 E32.36241
G1 X102.173 Y111.503 E32.39431
G1 X102.815 Y111.745 E32.42626
G1 X103.476 Y111.926 E32.45817
M204 S3000
M205 X10 Y10
G0 F3000 X103.455 Y112.023
G0 X115.34 Y115.34
G0 X115.97 Y115.97
M204 S1800
M205 X8 Y8
;TYPE:WALL-OUTER
G1 F1500 X94.03 Y115.97 E33.47979
G1 X94.03 Y94.03 E34.50141
G1 X115.97 Y94.03 E35.52303
G1 X115.97 Y115.97 E36.54465
M204 S3000
M205 X10 Y10
G0 F3000 X115.77 Y115.97
G0 X115.34 Y115.34
G0 X111.724 Y102.63
G0 X111.142 Y101.382
G0 X110.333 Y100.268
G0 X109.325 Y99.331
G0 X108.155 Y98.606
G0 X106.868 Y98.12
G0 X105.51 Y97.888
G0 X103.476 Y97.974
G0 X103.585 Y98.624
M204 S1800
M205 X8 Y8
G1 F1500 X102.977 Y98.792 E36.57402
G1 X102.388 Y99.015 E36.60334
G1 X101.823 Y99.296 E36.63273
G1 X101.287 Y99.628 E36.66209
G1 X100.785 Y100.012 E36.69152
G1 X100.324 Y100.442 E36.72087
G1 X99.905 Y100.915 E36.75029
G1 X99.535 Y101.426 E36.77967
G1 X99.216 Y101.969 E36.809
G1 X98.949 Y102.543 E36.83847
G1 X98.741 Y103.138 E36.86782
G1 X98.59 Y103.75 E36.89717
G1 X98.5 Y104.37 E36.92635
G1 X98.47 Y105.005 E36.95595
G1 X98.501 Y105.635 E36.98532
G1 X98.592 Y106.26 E37.01473
G1 X98.744 Y106.872 E37.04409
G1 X98.953 Y107.467 E37.07346
G1 X99.22 Y108.04 E37.10289
G1 X99.541 Y108.583 E37.13226
G1 X99.912 Y109.094 E37.16167
G1 X100.332 Y109.565 E37.19105
G1 X100.793 Y109.994 E37.22038
G1 X101.295 Y110.378 E37.24981
G1 X101.831 Y110.709 E37.27914
G1 X102.397 Y110.989 E37.30854
G1 X102.988 Y111.212 E37.33796
G1 X103.596 Y111.378 E37.36731
G1 X104.219 Y111.482 E37.39672
G1 X104.847 Y111.528 E37.42604
G1 X105.478 Y111.513 E37.45543
G1 X106.104 Y111.436 E37.4848
G1 X106.721 Y111.299 E37.51423
G1 X107.32 Y111.104 E37.54356
G1 X107.898 Y110.852 E37.57292
G1 X108.45 Y110.544 E37.60235
G1 X108.969 Y110.186 E37.63171
G1 X109.45 Y109.779 E37.66105
G1 X109.891 Y109.327 E37.69046
G1 X110.286 Y108.835 E37.71984
G1 X110.631 Y108.306 E37.74924
G1 X110.924 Y107.748 E37.77859
G1 X111.162 Y107.162 E37.80804
G1 X111.341 Y106.558 E37.83738
G1 X111.461 Y105.938 E37.86678
G1 X111.523 Y105.311 E37.89612
G1 X111.523 Y104.679 E37.92555
G1 X111.46 Y104.051 E37.95494
G1 X111.339 Y103.432 E37.98431
G1 X111.158 Y102.829 E38.01362
G1 X110.92 Y102.244 E38.04303
G1 X110.625 Y101.686 E38.07242
G1 X110.28 Y101.157 E38.10183
G1 X109.885 Y100.666 E38.13117
G1 X109.443 Y100.215 E38.16058
G1 X108.961 Y99.808 E38.18995
G1 X108.442 Y99.451 E38.21928
G1 X107.89 Y99.144 E38.24869
G1 X107.315 Y98.894 E38.27789
G1 X106.711 Y98.699 E38.30744
G1 X106.094 Y98.562 E38.33687
