;FLAVOR:Marlin
;TIME:9053
;Filament used: 8.9333m
;Layer height: 0.2
;MINX:63.791
;MINY:30.878
;MINZ:0.2
;MAXX:147.403
;MAXY:132.369
;MAXZ:20.6
;Generated with Cura_SteamEngine 4.7.1
M140 S60
M105
M190 S60
M104 S200
M105
M109 S200
M82 ;absolute extrusion mode
G21 ;metric values
G90 ;absolute positioning
M82 ;set extruder to absolute mode
M107 ;start with the fan off
G28 X0 Y0 ;move X/Y to min endstops
G28 Z0 ;move Z to min endstops
G1 Z15.0 F100 ;move the platform down 15mm
G92 E0 ;zero the extruded length
G1 F200 E3 ;extrude 3mm of feed stock
G92 E0 ;zero the extruded length again
G1 F100
G0 Y20 F100
M117 Printing...
G5
G92 E0
G92 E0
G1 F2400 E-6
;LAYER_COUNT:103
;LAYER:0
M106 S255
M204 S3000
M205 X10 Y10
G1 F600 Z0.275
G0 F3000 X102.148 Y104.889 Z0.275
M204 S1800
M205 X8 Y8
;TYPE:SKIRT
G1 F600 Z0.2
G1 F2400 E0
G1 X105.597 Y115.237 E0.50791
G1 X109.046 Y104.89 E1.01577
G1 X107.801 Y105.051 E1.07422
G1 X107.441 Y105.082 E1.09105
G1 X105.762 Y105.153 E1.1693
G1 X105.402 Y105.153 E1.18606
G1 X103.731 Y105.08 E1.26394
G1 X103.37 Y105.049 E1.28082
G1 X102.148 Y104.889 E1.3382
M204 S3000
M205 X10 Y10
G0 F3000 X101.781 Y104.276
M204 S1800
M205 X8 Y8
G1 F2400 X101.324 Y104.19 E1.35986
G1 X105.597 Y117.007 E1.98896
G1 X109.869 Y104.191 E2.61801
G1 X109.381 Y104.283 E2.64113
G1 X107.73 Y104.496 E2.71865
G1 X107.418 Y104.523 E2.73323
G1 X105.739 Y104.594 E2.81148
G1 X105.426 Y104.594 E2.82606
G1 X103.755 Y104.521 E2.90394
G1 X103.443 Y104.493 E2.91853
G1 X101.781 Y104.276 E2.99657
M204 S3000
M205 X10 Y10
G0 F3000 X101.853 Y103.721
M204 S1800
M205 X8 Y8
G1 F2400 X101.59 Y103.675 E3.009
G1 X100.481 Y103.431 E3.06188
G1 X105.597 Y118.777 E3.81512
G1 X110.711 Y103.433 E4.56824
G1 X109.574 Y103.682 E4.62243
G1 X109.309 Y103.728 E4.63496
G1 X107.658 Y103.941 E4.71247
G1 X107.394 Y103.963 E4.72481
G1 X105.715 Y104.034 E4.80306
G1 X105.451 Y104.034 E4.81535
G1 X103.78 Y103.961 E4.89323
G1 X103.515 Y103.938 E4.90562
G1 X101.853 Y103.721 E4.98367
M204 S3000
M205 X10 Y10
G0 F3000 X101.926 Y103.166
M204 S1800
M205 X8 Y8
G1 F2400 X101.71 Y103.128 E4.99388
G1 X100.061 Y102.765 E5.0725
G1 X99.628 Y102.639 E5.0935
G1 X105.597 Y120.547 E5.97247
G1 X111.565 Y102.641 E6.85134
G1 X111.107 Y102.773 E6.87354
G1 X109.454 Y103.135 E6.95233
G1 X109.237 Y103.172 E6.96258
G1 X107.586 Y103.385 E7.0401
G1 X107.37 Y103.404 E7.05019
G1 X105.691 Y103.475 E7.12845
G1 X105.475 Y103.475 E7.1385
G1 X103.804 Y103.402 E7.21639
G1 X103.588 Y103.383 E7.22648
G1 X101.926 Y103.166 E7.30453
M204 S3000
M205 X10 Y10
G0 F3000 X101.998 Y102.611
M204 S1800
M205 X8 Y8
G1 F2400 X101.831 Y102.581 E7.31243
G1 X100.182 Y102.218 E7.39105
G1 X100.02 Y102.175 E7.39886
G1 X98.75 Y101.779 E7.4608
G1 X105.597 Y122.32 E8.46902
G1 X112.442 Y101.784 E9.47698
G1 X111.146 Y102.184 E9.54013
G1 X110.987 Y102.226 E9.54779
G1 X109.334 Y102.588 E9.62659
G1 X109.166 Y102.617 E9.63453
G1 X107.515 Y102.83 E9.71204
G1 X107.347 Y102.844 E9.71989
G1 X105.668 Y102.915 E9.79814
G1 X105.499 Y102.915 E9.80601
G1 X103.828 Y102.842 E9.88389
G1 X103.66 Y102.828 E9.89174
G1 X101.998 Y102.611 E9.96979
M204 S3000
M205 X10 Y10
G0 F3000 X102.071 Y102.055
M204 S1800
M205 X8 Y8
G1 F2400 X101.951 Y102.034 E9.97546
G1 X100.302 Y101.671 E10.05409
G1 X100.187 Y101.641 E10.05962
G1 X98.601 Y101.147 E10.13697
G1 X98.487 Y101.106 E10.14261
G1 X97.848 Y100.845 E10.17475
G1 X105.597 Y124.09 E11.31569
G1 X113.344 Y100.847 E12.45652
G1 X112.681 Y101.118 E12.48987
G1 X112.564 Y101.16 E12.49566
G1 X110.981 Y101.649 E12.57281
G1 X110.867 Y101.679 E12.5783
G1 X109.214 Y102.041 E12.65709
G1 X109.094 Y102.061 E12.66276
G1 X107.443 Y102.274 E12.74027
G1 X107.323 Y102.285 E12.74588
G1 X105.644 Y102.356 E12.82413
G1 X105.524 Y102.356 E12.82972
G1 X103.853 Y102.283 E12.9076
G1 X103.733 Y102.272 E12.91322
G1 X102.071 Y102.055 E12.99126
M204 S3000
M205 X10 Y10
G0 F3000 X102.143 Y101.5
M204 S1800
M205 X8 Y8
G1 F2400 X102.071 Y101.487 E12.99467
G1 X100.422 Y101.124 E13.07329
G1 X100.353 Y101.106 E13.07661
G1 X98.767 Y100.612 E13.15396
G1 X98.699 Y100.588 E13.15732
G1 X97.146 Y99.953 E13.23545
G1 X96.854 Y99.806 E13.25067
G1 X97.003 Y100.079 E13.26515
G1 X105.597 Y125.86 E14.53056
G1 X114.19 Y100.08 E15.79592
G1 X114.34 Y99.806 E15.81046
G1 X114.022 Y99.965 E15.82702
G1 X112.469 Y100.6 E15.90514
G1 X112.399 Y100.625 E15.9086
G1 X110.816 Y101.114 E15.98575
G1 X110.748 Y101.132 E15.98903
G1 X109.095 Y101.494 E16.06782
G1 X109.022 Y101.506 E16.07127
G1 X107.371 Y101.719 E16.14878
G1 X107.299 Y101.725 E16.15215
G1 X105.62 Y101.796 E16.2304
G1 X105.548 Y101.796 E16.23375
G1 X103.877 Y101.723 E16.31163
G1 X103.805 Y101.717 E16.315
G1 X102.143 Y101.5 E16.39304
M204 S3000
M205 X10 Y10
G0 F3000 X102.216 Y100.945
M204 S1800
M205 X8 Y8
G1 F2400 X100.52 Y100.571 E16.47391
G1 X98.911 Y100.069 E16.5524
G1 X97.336 Y99.424 E16.63165
G1 X95.844 Y98.657 E16.70976
G1 X94.399 Y97.752 E16.78916
G1 X93.039 Y96.726 E16.86848
G1 X91.793 Y95.604 E16.94656
G1 X91.707 Y95.513 E16.95239
G1 X92.136 Y96.065 E16.98494
G1 X93.062 Y97.118 E17.05024
G1 X94.102 Y98.164 E17.11892
G1 X95.196 Y99.149 E17.18747
G1 X96.338 Y100.066 E17.25566
G1 X96.472 Y100.256 E17.26649
G1 X105.597 Y127.63 E18.61009
G1 X114.721 Y100.257 E19.95364
G1 X114.854 Y100.067 E19.96444
G1 X116.007 Y99.14 E20.03332
G1 X117.092 Y98.164 E20.10128
G1 X118.132 Y97.118 E20.16996
G1 X119.058 Y96.065 E20.23526
G1 X119.485 Y95.515 E20.26768
G1 X119.39 Y95.615 E20.2741
G1 X118.132 Y96.744 E20.35281
G1 X116.775 Y97.766 E20.43191
G1 X115.363 Y98.651 E20.50951
G1 X115.342 Y98.663 E20.51064
G1 X113.832 Y99.436 E20.58963
G1 X112.234 Y100.09 E20.67003
G1 X110.651 Y100.579 E20.74717
G1 X108.975 Y100.947 E20.82707
G1 X107.3 Y101.164 E20.90572
G1 X105.597 Y101.237 E20.98509
G1 X105.573 Y101.237 E20.98621
G1 X103.878 Y101.162 E21.06521
G1 X102.216 Y100.945 E21.14326
M204 S3000
M205 X10 Y10
G1 F2400 E15.14326
G1 F600 Z0.275
G0 F3000 X91.313 Y118.445 Z0.275
M204 S1800
M205 X8 Y8
G1 F600 Z0.2
G1 F2400 E21.14326
G1 X89.544 Y116.976 E21.25033
G1 X87.837 Y115.503 E21.35532
G1 X86.189 Y114.027 E21.45833
G1 X84.607 Y112.554 E21.55899
G1 X83.092 Y111.08 E21.65741
G1 X81.642 Y109.607 E21.75366
G1 X80.262 Y108.136 E21.84758
G1 X78.941 Y106.656 E21.93995
G1 X77.692 Y105.181 E22.02995
G1 X76.512 Y103.705 E22.11794
G1 X75.401 Y102.229 E22.20396
G1 X74.362 Y100.751 E22.28809
G1 X73.393 Y99.273 E22.37038
G1 X72.504 Y97.804 E22.45034
G1 X71.677 Y96.316 E22.52961
G1 X70.931 Y94.835 E22.60682
G1 X70.26 Y93.352 E22.68262
G1 X69.667 Y91.872 E22.75686
G1 X69.149 Y90.391 E22.82992
G1 X68.712 Y88.916 E22.90155
G1 X68.35 Y87.424 E22.97304
G1 X68.069 Y85.938 E23.04346
G1 X67.87 Y84.46 E23.1129
G1 X67.749 Y82.98 E23.18205
G1 X67.709 Y81.493 E23.25131
G1 X67.749 Y80.03 E23.31946
G1 X67.873 Y78.521 E23.38996
G1 X68.067 Y77.079 E23.45771
G1 X68.353 Y75.567 E23.52937
G1 X68.719 Y74.071 E23.60108
G1 X69.155 Y72.604 E23.67234
G1 X69.673 Y71.122 E23.74545
G1 X70.268 Y69.642 E23.81972
G1 X70.939 Y68.16 E23.89547
G1 X71.685 Y66.682 E23.97257
G1 X72.513 Y65.194 E24.05186
G1 X73.402 Y63.727 E24.13173
G1 X74.37 Y62.249 E24.214
G1 X75.409 Y60.772 E24.29809
G1 X76.519 Y59.297 E24.38405
G1 X77.698 Y57.823 E24.47194
G1 X78.948 Y56.347 E24.562
G1 X80.265 Y54.874 E24.65401
G1 X81.648 Y53.399 E24.74816
G1 X83.099 Y51.925 E24.84447
G1 X84.614 Y50.453 E24.94283
G1 X86.195 Y48.979 E25.04348
G1 X87.843 Y47.504 E25.14646
G1 X89.552 Y46.031 E25.25152
G1 X91.319 Y44.562 E25.35852
G1 X93.152 Y43.091 E25.46796
G1 X95.048 Y41.618 E25.57976
G1 X97.004 Y40.146 E25.69375
G1 X99.023 Y38.675 E25.81006
G1 X101.103 Y37.204 E25.92869
G1 X103.243 Y35.733 E26.04961
G1 X104.573 Y34.842 E26.12415
G1 X104.714 Y34.795 E26.13107
G1 X104.923 Y34.873 E26.14146
G1 X105.248 Y35.185 E26.16244
G1 X105.324 Y35.312 E26.16933
G1 X105.293 Y35.533 E26.17972
G1 X103.701 Y38.15 E26.32236
G1 X101.686 Y41.581 E26.50763
G1 X99.767 Y44.976 E26.68923
G1 X99.174 Y46.074 E26.74733
G1 X99.704 Y45.619 E26.77986
G1 X99.729 Y45.6 E26.78132
G1 X100.621 Y44.997 E26.83146
G1 X100.648 Y44.981 E26.83292
G1 X101.571 Y44.496 E26.88147
G1 X101.6 Y44.483 E26.88295
G1 X102.598 Y44.096 E26.93279
G1 X102.628 Y44.086 E26.93426
G1 X103.427 Y43.875 E26.97274
G1 X103.575 Y43.877 E26.97964
G1 X103.887 Y44.092 E26.99728
G1 X103.977 Y44.21 E27.00419
G1 X103.997 Y44.314 E27.00912
G1 X103.997 Y61.847 E27.82553
G1 X104.974 Y61.783 E27.87112
G1 X106.253 Y61.785 E27.93068
G1 X107.197 Y61.847 E27.97473
G1 X107.197 Y44.314 E28.79114
G1 X107.236 Y44.171 E28.79804
G1 X107.526 Y43.924 E28.81578
G1 X107.663 Y43.868 E28.82267
G1 X107.768 Y43.875 E28.82757
G1 X108.582 Y44.091 E28.86679
G1 X108.611 Y44.101 E28.86821
G1 X109.594 Y44.483 E28.91732
G1 X109.623 Y44.496 E28.9188
G1 X110.546 Y44.981 E28.96735
G1 X110.573 Y44.997 E28.96881
G1 X111.465 Y45.6 E29.01895
G1 X111.49 Y45.619 E29.02041
G1 X112.019 Y46.073 E29.05287
G1 X111.419 Y44.965 E29.11154
G1 X109.508 Y41.581 E29.29251
G1 X107.488 Y38.142 E29.47822
G1 X105.9 Y35.533 E29.62044
G1 X105.859 Y35.39 E29.62737
G1 X105.945 Y35.185 E29.63772
G1 X106.27 Y34.874 E29.65867
G1 X106.401 Y34.803 E29.6656
G1 X106.62 Y34.843 E29.67597
G1 X107.953 Y35.734 E29.75063
G1 X110.093 Y37.205 E29.87155
G1 X112.176 Y38.678 E29.99034
G1 X114.19 Y40.146 E30.10639
G1 X116.148 Y41.619 E30.22048
G1 X118.046 Y43.095 E30.33244
G1 X119.877 Y44.564 E30.44175
G1 X121.649 Y46.035 E30.54899
G1 X123.357 Y47.509 E30.65404
G1 X125.001 Y48.981 E30.75679
G1 X126.582 Y50.453 E30.85738
G1 X128.097 Y51.927 E30.9558
G1 X129.548 Y53.401 E31.05211
G1 X130.931 Y54.875 E31.14623
G1 X132.248 Y56.35 E31.23831
G1 X133.496 Y57.824 E31.32824
G1 X134.682 Y59.307 E31.41666
G1 X135.788 Y60.776 E31.50228
G1 X136.832 Y62.261 E31.58681
G1 X137.795 Y63.729 E31.66856
G1 X138.69 Y65.208 E31.74906
G1 X139.516 Y66.695 E31.82826
G1 X140.258 Y68.166 E31.90498
G1 X140.928 Y69.646 E31.98063
G1 X141.527 Y71.138 E32.05549
G1 X142.041 Y72.608 E32.128
G1 X142.48 Y74.091 E32.20002
G1 X142.84 Y75.573 E32.27104
G1 X143.125 Y77.073 E32.34213
G1 X143.324 Y78.551 E32.41158
G1 X143.445 Y80.025 E32.48044
G1 X143.485 Y81.517 E32.54994
G1 X143.445 Y82.976 E32.6179
G1 X143.321 Y84.491 E32.68868
G1 X143.127 Y85.933 E32.75643
G1 X142.841 Y87.446 E32.82813
G1 X142.476 Y88.937 E32.89961
G1 X142.042 Y90.403 E32.9708
G1 X141.521 Y91.89 E33.04417
G1 X140.926 Y93.37 E33.11845
G1 X140.255 Y94.852 E33.1942
G1 X139.509 Y96.33 E33.27129
G1 X138.681 Y97.818 E33.35058
G1 X137.792 Y99.285 E33.43046
G1 X136.824 Y100.763 E33.51272
G1 X135.785 Y102.24 E33.59681
G1 X134.675 Y103.715 E33.68277
G1 X133.496 Y105.189 E33.77066
G1 X132.246 Y106.665 E33.86072
G1 X130.929 Y108.138 E33.95273
G1 X129.546 Y109.613 E34.04688
G1 X128.095 Y111.087 E34.14319
G1 X126.58 Y112.559 E34.24155
G1 X124.999 Y114.033 E34.3422
G1 X123.351 Y115.508 E34.44519
G1 X121.642 Y116.981 E34.55024
G1 X119.875 Y118.45 E34.65724
G1 X118.042 Y119.922 E34.76671
G1 X116.146 Y121.394 E34.87848
G1 X114.19 Y122.866 E34.99247
G1 X112.171 Y124.337 E35.10879
G1 X110.091 Y125.808 E35.22742
G1 X107.951 Y127.279 E35.34833
G1 X106.268 Y128.405 E35.44262
G1 X106.127 Y128.452 E35.44954
G1 X105.942 Y128.395 E35.45856
G1 X105.594 Y128.115 E35.47936
G1 X105.253 Y128.394 E35.49987
G1 X105.116 Y128.45 E35.50676
G1 X104.927 Y128.405 E35.51581
G1 X103.238 Y127.276 E35.61041
G1 X101.098 Y125.805 E35.73133
G1 X99.018 Y124.334 E35.84996
G1 X97 Y122.863 E35.96624
G1 X95.042 Y121.39 E36.08033
G1 X93.148 Y119.918 E36.19202
G1 X91.313 Y118.445 E36.30159
M204 S3000
M205 X10 Y10
G0 F3000 X90.955 Y118.876
M204 S1800
M205 X8 Y8
G1 F2400 X89.178 Y117.4 E36.40916
G1 X87.464 Y115.92 E36.51461
G1 X85.808 Y114.437 E36.61812
G1 X84.216 Y112.955 E36.7194
G1 X82.693 Y111.473 E36.81835
G1 X81.234 Y109.99 E36.91522
G1 X79.844 Y108.509 E37.0098
G1 X78.514 Y107.018 E37.10283
G1 X77.255 Y105.531 E37.19356
G1 X76.065 Y104.042 E37.28231
G1 X74.943 Y102.551 E37.3692
G1 X73.893 Y101.058 E37.45419
G1 X72.914 Y99.563 E37.5374
G1 X72.03 Y98.103 E37.61688
G1 X71.177 Y96.568 E37.69865
G1 X70.421 Y95.066 E37.77695
G1 X69.74 Y93.561 E37.85387
G1 X69.151 Y92.093 E37.92752
G1 X68.624 Y90.588 E38.00177
G1 X68.179 Y89.089 E38.07458
G1 X67.809 Y87.57 E38.14738
G1 X67.8 Y87.529 E38.14934
G1 X67.521 Y86.058 E38.21905
G1 X67.317 Y84.549 E38.28996
G1 X67.312 Y84.506 E38.29197
G1 X67.189 Y82.995 E38.36256
G1 X67.149 Y81.524 E38.43109
G1 X67.149 Y81.478 E38.43323
G1 X67.188 Y80.03 E38.50068
G1 X67.313 Y78.49 E38.57262
G1 X67.51 Y77.019 E38.64173
G1 X67.517 Y76.975 E38.6438
G1 X67.809 Y75.434 E38.71684
G1 X68.171 Y73.952 E38.78787
G1 X68.614 Y72.457 E38.86048
G1 X68.626 Y72.419 E38.86233
G1 X69.14 Y70.949 E38.93485
G1 X69.758 Y69.411 E39.01203
G1 X70.439 Y67.907 E39.08891
G1 X71.18 Y66.439 E39.16548
G1 X72.034 Y64.904 E39.24727
G1 X72.933 Y63.42 E39.32806
G1 X73.912 Y61.927 E39.4112
G1 X74.962 Y60.435 E39.49615
G1 X76.082 Y58.947 E39.58287
G1 X77.271 Y57.461 E39.67149
G1 X78.531 Y55.974 E39.76224
G1 X79.861 Y54.487 E39.85514
G1 X81.249 Y53.006 E39.94965
G1 X82.709 Y51.524 E40.04652
G1 X84.232 Y50.044 E40.14541
G1 X85.822 Y48.562 E40.24662
G1 X87.477 Y47.08 E40.35007
G1 X89.194 Y45.6 E40.45562
G1 X90.968 Y44.125 E40.56305
G1 X92.809 Y42.649 E40.67292
G1 X94.711 Y41.171 E40.78508
G1 X96.675 Y39.693 E40.89954
G1 X98.7 Y38.218 E41.01619
G1 X100.786 Y36.743 E41.13516
G1 X102.931 Y35.268 E41.25637
G1 X104.261 Y34.377 E41.33091
G1 X104.496 Y34.268 E41.34298
G1 X104.752 Y34.235 E41.355
G1 X105.006 Y34.282 E41.36702
G1 X105.311 Y34.469 E41.38368
G1 X105.597 Y34.743 E41.40213
G1 X106.095 Y34.321 E41.43252
G1 X106.342 Y34.245 E41.44455
G1 X106.601 Y34.247 E41.45661
G1 X106.931 Y34.378 E41.47315
G1 X108.27 Y35.273 E41.54814
G1 X110.416 Y36.748 E41.6694
G1 X112.506 Y38.225 E41.78856
G1 X114.527 Y39.699 E41.90504
G1 X116.492 Y41.177 E42.01953
G1 X118.397 Y42.658 E42.13189
G1 X120.235 Y44.133 E42.24163
G1 X122.015 Y45.611 E42.34936
G1 X123.73 Y47.092 E42.45487
G1 X125.382 Y48.571 E42.55812
G1 X126.973 Y50.052 E42.65933
G1 X128.496 Y51.534 E42.75828
G1 X129.956 Y53.018 E42.85522
G1 X131.349 Y54.502 E42.95
G1 X132.675 Y55.988 E43.04273
G1 X133.933 Y57.474 E43.13339
G1 X135.129 Y58.97 E43.22258
G1 X136.246 Y60.454 E43.30907
G1 X137.301 Y61.954 E43.39446
G1 X138.274 Y63.439 E43.47713
G1 X139.164 Y64.909 E43.55715
G1 X140.016 Y66.443 E43.63885
G1 X140.768 Y67.935 E43.71665
G1 X141.433 Y69.403 E43.7917
G1 X142.056 Y70.953 E43.86948
G1 X142.566 Y72.41 E43.94136
G1 X143.013 Y73.918 E44.0146
G1 X143.381 Y75.427 E44.08692
G1 X143.39 Y75.468 E44.08888
G1 X143.673 Y76.953 E44.15927
G1 X143.877 Y78.462 E44.23018
G1 X143.882 Y78.505 E44.23219
G1 X144.005 Y80.01 E44.3025
G1 X144.045 Y81.486 E44.37126
G1 X144.045 Y81.532 E44.3734
G1 X144.006 Y82.976 E44.44066
G1 X143.881 Y84.522 E44.51289
G1 X143.684 Y85.993 E44.58199
G1 X143.677 Y86.037 E44.58407
G1 X143.385 Y87.579 E44.65715
G1 X143.013 Y89.096 E44.72988
G1 X142.584 Y90.548 E44.80038
G1 X142.054 Y92.064 E44.87516
G1 X141.436 Y93.601 E44.9523
G1 X140.755 Y95.105 E45.02917
G1 X140.014 Y96.573 E45.10575
G1 X139.16 Y98.108 E45.18754
G1 X138.261 Y99.592 E45.26833
G1 X137.282 Y101.085 E45.35146
G1 X136.232 Y102.577 E45.43642
G1 X135.112 Y104.065 E45.52314
G1 X133.923 Y105.551 E45.61176
G1 X132.663 Y107.038 E45.70251
G1 X131.333 Y108.525 E45.79541
G1 X129.945 Y110.006 E45.88992
G1 X128.485 Y111.488 E45.98679
G1 X126.962 Y112.968 E46.08568
G1 X125.372 Y114.45 E46.18689
G1 X123.717 Y115.932 E46.29034
G1 X122 Y117.412 E46.39589
G1 X120.226 Y118.887 E46.50332
G1 X118.385 Y120.364 E46.61322
G1 X116.483 Y121.841 E46.72535
G1 X114.519 Y123.319 E46.83981
G1 X112.494 Y124.794 E46.95646
G1 X110.408 Y126.269 E47.07542
G1 X108.262 Y127.744 E47.19668
G1 X106.579 Y128.87 E47.29097
G1 X106.345 Y128.979 E47.30299
G1 X106.088 Y129.012 E47.31505
G1 X105.834 Y128.965 E47.32708
G1 X105.593 Y128.839 E47.33974
G1 X105.366 Y128.963 E47.35179
G1 X105.112 Y129.011 E47.36383
G1 X104.856 Y128.981 E47.37583
G1 X104.616 Y128.87 E47.38814
G1 X102.921 Y127.737 E47.48308
G1 X100.775 Y126.262 E47.60433
G1 X98.688 Y124.787 E47.72333
G1 X96.663 Y123.31 E47.84004
G1 X94.699 Y121.832 E47.95449
G1 X92.797 Y120.355 E48.06663
G1 X90.955 Y118.876 E48.17663
M204 S3000
M205 X10 Y10
