;FLAVOR:Marlin
;TIME:3975
;Filament used: 3.66521m
;Layer height: 0.2
;MINX:79.455
;MINY:85.802
;MINZ:0.2
;MAXX:130.537
;MAXY:124.198
;MAXZ:45
;Generated with Cura_SteamEngine 4.7.1
M140 S60
M105
M190 S60
M104 S200
M105
M109 S200
M82 ;absolute extrusion mode
G21 ;metric values
G90 ;absolute positioning
M82 ;set extruder to absolute mode
M107 ;start with the fan off
G28 X0 Y0 ;move X/Y to min endstops
G28 Z0 ;move Z to min endstops
G1 Z15.0 F100 ;move the platform down 15mm
G92 E0 ;zero the extruded length
G1 F200 E3 ;extrude 3mm of feed stock
G92 E0 ;zero the extruded length again
G1 F100
G0 Y20 F100
M117 Printing...
G5
G92 E0
G92 E0
G1 F2400 E-6
;LAYER_COUNT:225
;LAYER:0
M106 S255
M204 S3000
M205 X10 Y10
G1 F600 Z0.275
G0 F3000 X85.727 Y90.804 Z0.275
M204 S1800
M205 X8 Y8
;TYPE:SKIRT
G1 F600 Z0.2
G1 F2400 E0
G1 X86.694 Y89.985 E0.05901
G1 X86.905 Y89.818 E0.07154
G1 X87.614 Y89.292 E0.11264
G1 X87.836 Y89.138 E0.12523
G1 X88.656 Y88.608 E0.17069
G1 X88.894 Y88.465 E0.18362
G1 X89.604 Y88.07 E0.22145
G1 X89.798 Y87.968 E0.23166
G1 X90.651 Y87.55 E0.27589
G1 X90.899 Y87.439 E0.28854
G1 X91.746 Y87.09 E0.3312
G1 X92.053 Y86.977 E0.34643
G1 X93.184 Y86.611 E0.40178
G1 X93.341 Y86.564 E0.40941
G1 X94.003 Y86.378 E0.44143
G1 X94.284 Y86.309 E0.45491
G1 X95.058 Y86.148 E0.49172
G1 X95.25 Y86.113 E0.50081
G1 X96.12 Y85.974 E0.54183
G1 X96.405 Y85.938 E0.55521
G1 X97.457 Y85.843 E0.60439
G1 X97.699 Y85.828 E0.61568
G1 X98.502 Y85.802 E0.65309
G1 X98.771 Y85.802 E0.66562
G1 X99.658 Y85.83 E0.70694
G1 X99.915 Y85.846 E0.71893
G1 X100.836 Y85.932 E0.762
G1 X101.084 Y85.963 E0.77364
G1 X102.073 Y86.115 E0.82023
G1 X102.314 Y86.159 E0.83164
G1 X103.057 Y86.318 E0.86702
G1 X103.393 Y86.392 E0.88304
G1 X104.23 Y86.629 E0.92355
G1 X104.473 Y86.706 E0.93542
G1 X105.473 Y87.056 E0.98475
G1 X105.666 Y87.128 E0.99434
G1 X106.341 Y87.402 E1.02827
G1 X106.626 Y87.531 E1.04283
G1 X107.516 Y87.972 E1.08908
G1 X107.7 Y88.069 E1.09877
G1 X108.405 Y88.463 E1.13638
G1 X108.627 Y88.596 E1.14843
G1 X109.506 Y89.161 E1.19708
G1 X109.74 Y89.323 E1.21033
G1 X110.413 Y89.823 E1.24937
G1 X110.586 Y89.959 E1.25962
G1 X111.277 Y90.531 E1.30139
G1 X111.499 Y90.727 E1.31518
G1 X112.133 Y91.332 E1.35599
G1 X112.268 Y91.467 E1.36488
G1 X112.933 Y92.162 E1.40967
G1 X113.139 Y92.394 E1.42411
G1 X113.684 Y93.055 E1.46401
G1 X113.882 Y93.315 E1.47922
G1 X114.221 Y93.799 E1.50674
G1 X114.569 Y94.272 E1.53408
G1 X115.719 Y94.856 E1.59414
G1 X116.457 Y94.677 E1.6295
G1 X116.965 Y94.584 E1.65355
G1 X117.355 Y94.531 E1.67188
G1 X118.314 Y94.447 E1.7167
G1 X118.874 Y94.43 E1.74279
G1 X119.281 Y94.448 E1.76176
G1 X120.547 Y94.565 E1.82096
G1 X121.05 Y94.636 E1.84462
G1 X121.472 Y94.726 E1.86471
G1 X122.154 Y94.909 E1.89759
G1 X122.452 Y95.001 E1.91211
G1 X123.07 Y95.217 E1.94259
G1 X123.421 Y95.358 E1.96021
G1 X123.958 Y95.602 E1.98767
G1 X124.251 Y95.749 E2.00294
G1 X124.789 Y96.046 E2.03155
G1 X125.107 Y96.241 E2.04892
G1 X125.761 Y96.682 E2.08565
G1 X126.503 Y97.281 E2.13005
G1 X126.657 Y97.419 E2.13968
G1 X127.16 Y97.895 E2.17193
G1 X127.451 Y98.2 E2.19156
G1 X127.826 Y98.634 E2.21827
G1 X128.053 Y98.922 E2.23534
G1 X128.655 Y99.756 E2.28324
G1 X128.959 Y100.227 E2.30934
G1 X129.155 Y100.585 E2.32835
G1 X129.422 Y101.132 E2.35669
G1 X129.549 Y101.417 E2.37122
G1 X129.844 Y102.156 E2.40827
G1 X129.968 Y102.512 E2.42582
G1 X130.13 Y103.055 E2.45221
G1 X130.204 Y103.342 E2.46601
G1 X130.324 Y103.88 E2.49168
G1 X130.393 Y104.275 E2.51035
G1 X130.483 Y104.998 E2.54427
G1 X130.512 Y105.354 E2.5609
G1 X130.537 Y105.997 E2.59087
G1 X130.533 Y106.402 E2.60973
G1 X130.487 Y107.198 E2.64685
G1 X130.402 Y107.912 E2.68034
G1 X130.326 Y108.382 E2.70251
G1 X130.171 Y109.039 E2.73394
G1 X130.107 Y109.279 E2.7455
G1 X129.926 Y109.884 E2.77491
G1 X129.753 Y110.357 E2.79836
G1 X129.462 Y111.025 E2.83229
G1 X129.36 Y111.242 E2.84345
G1 X129.124 Y111.709 E2.86782
G1 X128.931 Y112.05 E2.88606
G1 X128.542 Y112.669 E2.92011
G1 X128.294 Y113.022 E2.94019
G1 X127.931 Y113.486 E2.96763
G1 X127.736 Y113.717 E2.9817
G1 X127.246 Y114.258 E3.01569
G1 X127.016 Y114.493 E3.031
G1 X126.569 Y114.915 E3.05963
G1 X126.256 Y115.183 E3.07881
G1 X125.819 Y115.521 E3.10454
G1 X125.521 Y115.732 E3.12154
G1 X124.913 Y116.123 E3.1552
G1 X124.635 Y116.286 E3.17021
G1 X124.066 Y116.593 E3.20031
G1 X123.674 Y116.779 E3.22052
G1 X123.027 Y117.046 E3.25311
G1 X122.74 Y117.153 E3.26737
G1 X122.212 Y117.327 E3.29326
G1 X121.829 Y117.433 E3.31176
G1 X121.139 Y117.59 E3.34471
G1 X120.326 Y117.715 E3.38301
G1 X120.014 Y117.744 E3.3976
G1 X119.028 Y117.798 E3.44358
G1 X118.163 Y117.783 E3.48387
G1 X117.92 Y117.767 E3.49521
G1 X117.307 Y117.708 E3.52388
G1 X116.892 Y117.647 E3.54342
G1 X116.166 Y117.503 E3.57788
G1 X115.848 Y117.427 E3.5931
G1 X115.328 Y117.281 E3.61825
G1 X114.944 Y117.153 E3.6371
G1 X114.426 Y116.952 E3.66297
G1 X113.873 Y116.704 E3.6912
G1 X113.715 Y116.905 E3.7031
G1 X113.064 Y117.685 E3.75041
G1 X112.882 Y117.89 E3.76317
G1 X112.326 Y118.474 E3.80072
G1 X112.162 Y118.637 E3.81149
G1 X111.467 Y119.291 E3.85592
G1 X111.302 Y119.438 E3.86621
G1 X110.665 Y119.977 E3.90507
G1 X110.443 Y120.152 E3.91823
G1 X109.645 Y120.74 E3.96439
G1 X109.429 Y120.889 E3.97661
G1 X108.65 Y121.391 E4.01976
G1 X108.441 Y121.518 E4.03115
G1 X107.68 Y121.948 E4.07185
G1 X107.439 Y122.074 E4.08451
G1 X106.641 Y122.459 E4.12577
G1 X106.418 Y122.558 E4.13713
G1 X105.599 Y122.896 E4.17839
G1 X105.383 Y122.979 E4.18916
G1 X104.536 Y123.275 E4.23094
G1 X104.28 Y123.355 E4.24343
G1 X103.346 Y123.616 E4.28858
G1 X103.08 Y123.681 E4.30134
G1 X102.181 Y123.87 E4.34411
G1 X101.969 Y123.909 E4.35415
G1 X101.11 Y124.044 E4.39464
G1 X100.836 Y124.078 E4.40749
G1 X99.972 Y124.156 E4.44789
G1 X99.723 Y124.171 E4.45951
G1 X98.841 Y124.198 E4.50059
G1 X98.539 Y124.198 E4.51466
G1 X97.682 Y124.17 E4.55458
G1 X97.441 Y124.155 E4.56583
G1 X96.435 Y124.064 E4.61286
G1 X96.176 Y124.032 E4.62501
G1 X95.238 Y123.888 E4.6692
G1 X94.987 Y123.842 E4.68109
G1 X94.201 Y123.672 E4.71853
G1 X93.986 Y123.62 E4.72883
G1 X93.097 Y123.378 E4.77173
G1 X92.816 Y123.29 E4.78544
G1 X91.908 Y122.973 E4.83023
G1 X91.678 Y122.885 E4.84169
G1 X90.931 Y122.574 E4.87937
G1 X90.709 Y122.474 E4.89071
G1 X89.777 Y122.021 E4.93896
G1 X89.54 Y121.897 E4.95142
G1 X88.851 Y121.506 E4.9883
G1 X88.6 Y121.352 E5.00202
G1 X87.543 Y120.65 E5.0611
G1 X87.383 Y120.537 E5.07022
G1 X86.91 Y120.19 E5.09754
G1 X86.705 Y120.03 E5.10965
G1 X85.996 Y119.439 E5.15263
G1 X85.778 Y119.244 E5.16625
G1 X85.119 Y118.612 E5.20876
G1 X84.967 Y118.458 E5.21884
G1 X84.398 Y117.853 E5.25751
G1 X84.228 Y117.661 E5.26945
G1 X83.606 Y116.913 E5.31475
G1 X83.453 Y116.719 E5.32626
G1 X82.908 Y115.979 E5.36905
G1 X82.758 Y115.761 E5.38137
G1 X82.283 Y115.023 E5.42224
G1 X82.156 Y114.812 E5.43371
G1 X81.659 Y113.93 E5.48085
G1 X81.537 Y113.697 E5.49309
G1 X81.208 Y113.017 E5.52827
G1 X81.101 Y112.777 E5.54051
G1 X80.738 Y111.889 E5.58518
G1 X80.635 Y111.608 E5.59911
G1 X80.235 Y110.387 E5.65894
G1 X80.168 Y110.163 E5.66983
G1 X80.032 Y109.654 E5.69436
G1 X79.98 Y109.435 E5.70484
G1 X79.776 Y108.466 E5.75095
G1 X79.735 Y108.243 E5.76151
G1 X79.601 Y107.377 E5.80231
G1 X79.572 Y107.146 E5.81315
G1 X79.486 Y106.271 E5.85409
G1 X79.467 Y105.946 E5.86925
G1 X79.455 Y105.323 E5.89827
G1 X79.457 Y104.844 E5.92057
G1 X79.485 Y103.979 E5.96087
G1 X79.502 Y103.714 E5.97324
G1 X79.599 Y102.702 E6.02057
G1 X79.628 Y102.467 E6.0316
G1 X79.747 Y101.69 E6.0682
G1 X79.793 Y101.443 E6.0799
G1 X79.986 Y100.545 E6.12267
G1 X80.05 Y100.288 E6.135
G1 X80.352 Y99.217 E6.18682
G1 X80.435 Y98.956 E6.19957
G1 X80.705 Y98.193 E6.23726
G1 X80.795 Y97.959 E6.24893
G1 X81.156 Y97.105 E6.29211
G1 X81.248 Y96.903 E6.30244
G1 X81.607 Y96.165 E6.34066
G1 X81.737 Y95.919 E6.35361
G1 X82.171 Y95.159 E6.39436
G1 X82.29 Y94.963 E6.40504
G1 X82.783 Y94.2 E6.44734
G1 X82.924 Y93.996 E6.45889
G1 X83.473 Y93.247 E6.50213
G1 X83.637 Y93.037 E6.51454
G1 X84.18 Y92.387 E6.55398
G1 X84.361 Y92.184 E6.56664
G1 X85.057 Y91.453 E6.61364
G1 X85.192 Y91.317 E6.62256
G1 X85.727 Y90.804 E6.65708
M204 S3000
M205 X10 Y10
G0 F3000 X86.115 Y91.209
M204 S1800
M205 X8 Y8
G1 F2400 X87.056 Y90.412 E6.7145
G1 X87.238 Y90.268 E6.7253
G1 X87.947 Y89.742 E6.76641
G1 X88.14 Y89.608 E6.77735
G1 X88.96 Y89.078 E6.82282
G1 X89.166 Y88.954 E6.83401
G1 X89.876 Y88.559 E6.87184
G1 X90.044 Y88.471 E6.88068
G1 X90.897 Y88.053 E6.92491
G1 X91.112 Y87.957 E6.93587
G1 X91.959 Y87.608 E6.97853
G1 X92.225 Y87.51 E6.99173
G1 X93.356 Y87.144 E7.04708
G1 X93.492 Y87.103 E7.05369
G1 X94.154 Y86.917 E7.08571
G1 X94.398 Y86.857 E7.09741
G1 X95.172 Y86.696 E7.13423
G1 X95.339 Y86.666 E7.14213
G1 X96.209 Y86.527 E7.18315
G1 X96.456 Y86.496 E7.19474
G1 X97.508 Y86.401 E7.24393
G1 X97.717 Y86.388 E7.25368
G1 X98.52 Y86.362 E7.29109
G1 X98.753 Y86.362 E7.30194
G1 X99.64 Y86.39 E7.34326
G1 X99.863 Y86.404 E7.35367
G1 X100.784 Y86.49 E7.39674
G1 X100.999 Y86.516 E7.40682
G1 X101.988 Y86.668 E7.45342
G1 X102.197 Y86.707 E7.46331
G1 X102.94 Y86.866 E7.4987
G1 X103.241 Y86.931 E7.51303
G1 X104.078 Y87.168 E7.55354
G1 X104.288 Y87.234 E7.56379
G1 X105.288 Y87.584 E7.61312
G1 X105.455 Y87.647 E7.62144
G1 X106.13 Y87.921 E7.65536
G1 X106.377 Y88.032 E7.66797
G1 X107.267 Y88.473 E7.71422
G1 X107.427 Y88.558 E7.72265
G1 X108.132 Y88.952 E7.76026
G1 X108.324 Y89.067 E7.77068
G1 X109.203 Y89.632 E7.81934
G1 X109.406 Y89.772 E7.83082
G1 X110.079 Y90.272 E7.86986
G1 X110.229 Y90.39 E7.87875
G1 X110.92 Y90.962 E7.92052
G1 X111.112 Y91.133 E7.93249
G1 X111.746 Y91.738 E7.97329
G1 X111.863 Y91.855 E7.981
G1 X112.528 Y92.55 E8.02579
G1 X112.706 Y92.75 E8.03826
G1 X113.251 Y93.411 E8.07815
G1 X113.423 Y93.637 E8.09137
G1 X113.758 Y94.114 E8.11851
G1 X114.148 Y94.646 E8.14923
G1 X114.187 Y94.707 E8.1526
G1 X115.658 Y95.453 E8.2294
G1 X115.699 Y95.44 E8.2314
G1 X116.303 Y95.284 E8.26045
G1 X116.558 Y95.228 E8.27261
G1 X117.066 Y95.135 E8.29666
G1 X117.403 Y95.089 E8.31249
G1 X118.362 Y95.005 E8.35732
G1 X118.877 Y94.99 E8.38131
G1 X119.229 Y95.005 E8.39772
G1 X120.495 Y95.122 E8.45692
G1 X121.327 Y95.267 E8.49624
G1 X122.009 Y95.45 E8.52912
G1 X122.267 Y95.53 E8.5417
G1 X122.885 Y95.746 E8.57219
G1 X123.19 Y95.868 E8.58748
G1 X123.727 Y96.112 E8.61495
G1 X123.98 Y96.239 E8.62813
G1 X124.518 Y96.536 E8.65674
G1 X124.794 Y96.705 E8.67181
G1 X125.448 Y97.146 E8.70854
G1 X126.139 Y97.706 E8.74996
G1 X126.272 Y97.826 E8.7583
G1 X126.775 Y98.302 E8.79055
G1 X127.027 Y98.566 E8.80754
G1 X127.402 Y99 E8.83425
G1 X127.599 Y99.25 E8.84907
G1 X128.201 Y100.084 E8.89696
G1 X128.482 Y100.52 E8.92112
G1 X128.652 Y100.83 E8.93758
G1 X128.919 Y101.377 E8.96592
G1 X129.029 Y101.625 E8.97856
G1 X129.324 Y102.364 E9.01561
G1 X129.431 Y102.672 E9.03079
G1 X129.593 Y103.215 E9.05718
G1 X129.658 Y103.464 E9.06916
G1 X129.778 Y104.002 E9.09483
G1 X129.837 Y104.344 E9.11099
G1 X129.927 Y105.067 E9.14491
G1 X129.952 Y105.376 E9.15935
G1 X129.977 Y106.019 E9.18931
G1 X129.974 Y106.37 E9.20566
G1 X129.928 Y107.166 E9.24278
G1 X129.848 Y107.837 E9.27425
G1 X129.781 Y108.254 E9.29391
G1 X129.626 Y108.911 E9.32535
G1 X129.57 Y109.118 E9.33533
G1 X129.389 Y109.723 E9.36474
G1 X129.239 Y110.134 E9.38511
G1 X128.948 Y110.802 E9.41904
G1 X128.86 Y110.99 E9.4287
G1 X128.624 Y111.457 E9.45307
G1 X128.457 Y111.752 E9.46885
G1 X128.068 Y112.371 E9.50289
G1 X127.853 Y112.677 E9.52031
G1 X127.49 Y113.141 E9.54774
G1 X127.321 Y113.342 E9.55997
G1 X126.831 Y113.883 E9.59396
G1 X126.632 Y114.086 E9.60719
G1 X126.185 Y114.508 E9.63582
G1 X125.913 Y114.74 E9.65247
G1 X125.476 Y115.078 E9.67819
G1 X125.218 Y115.261 E9.69292
G1 X124.61 Y115.652 E9.72658
G1 X124.369 Y115.793 E9.73958
G1 X123.8 Y116.1 E9.76969
G1 X123.461 Y116.262 E9.78718
G1 X122.814 Y116.529 E9.81977
G1 X122.564 Y116.621 E9.83218
G1 X122.036 Y116.795 E9.85806
G1 X121.705 Y116.887 E9.87406
G1 X121.015 Y117.044 E9.90701
G1 X120.253 Y117.16 E9.9429
G1 X119.983 Y117.185 E9.95553
G1 X118.997 Y117.239 E10.00151
G1 X118.184 Y117.223 E10.03937
G1 X117.973 Y117.209 E10.04922
G1 X117.36 Y117.15 E10.0779
G1 X117.001 Y117.097 E10.09479
G1 X116.275 Y116.953 E10.12926
G1 X115.999 Y116.887 E10.14247
G1 X115.479 Y116.741 E10.16762
G1 X115.146 Y116.63 E10.18397
G1 X114.628 Y116.429 E10.20984
G1 X114.408 Y116.336 E10.22096
G1 X113.691 Y116.002 E10.25779
G1 X113.286 Y116.546 E10.28937
G1 X112.635 Y117.326 E10.33668
G1 X112.476 Y117.504 E10.34779
G1 X111.92 Y118.088 E10.38534
G1 X111.778 Y118.229 E10.39466
G1 X111.083 Y118.883 E10.43909
G1 X110.94 Y119.011 E10.44803
G1 X110.303 Y119.55 E10.48689
G1 X110.111 Y119.701 E10.49826
G1 X109.313 Y120.289 E10.54442
G1 X109.126 Y120.419 E10.55502
G1 X108.347 Y120.921 E10.59817
G1 X108.166 Y121.03 E10.60801
G1 X107.405 Y121.46 E10.64871
G1 X107.196 Y121.569 E10.65969
G1 X106.398 Y121.954 E10.70095
G1 X106.205 Y122.041 E10.7108
G1 X105.386 Y122.379 E10.75206
G1 X105.198 Y122.45 E10.76142
G1 X104.351 Y122.746 E10.8032
G1 X104.13 Y122.816 E10.81399
G1 X103.196 Y123.077 E10.85915
G1 X102.965 Y123.133 E10.87022
G1 X102.066 Y123.322 E10.91299
G1 X101.882 Y123.356 E10.92171
G1 X101.023 Y123.491 E10.96219
G1 X100.785 Y123.52 E10.97336
G1 X99.921 Y123.598 E11.01375
G1 X99.705 Y123.611 E11.02383
G1 X98.823 Y123.638 E11.06492
G1 X98.557 Y123.638 E11.07731
G1 X97.7 Y123.61 E11.11723
G1 X97.491 Y123.597 E11.12698
G1 X96.485 Y123.506 E11.17402
G1 X96.261 Y123.479 E11.18452
G1 X95.323 Y123.335 E11.22871
G1 X95.106 Y123.295 E11.23899
G1 X94.32 Y123.125 E11.27643
G1 X94.133 Y123.079 E11.2854
G1 X93.244 Y122.837 E11.3283
G1 X93 Y122.762 E11.34019
G1 X92.092 Y122.445 E11.38497
G1 X91.893 Y122.368 E11.39491
G1 X91.146 Y122.057 E11.43258
G1 X90.954 Y121.971 E11.44238
G1 X90.022 Y121.518 E11.49063
G1 X89.816 Y121.41 E11.50146
G1 X89.127 Y121.019 E11.53835
G1 X88.91 Y120.885 E11.55023
G1 X87.853 Y120.183 E11.60931
G1 X87.714 Y120.086 E11.6172
G1 X87.241 Y119.739 E11.64452
G1 X87.063 Y119.6 E11.65504
G1 X86.354 Y119.009 E11.69802
G1 X86.166 Y118.84 E11.70979
G1 X85.507 Y118.208 E11.7523
G1 X85.374 Y118.075 E11.76106
G1 X84.805 Y117.47 E11.79974
G1 X84.658 Y117.303 E11.8101
G1 X84.036 Y116.555 E11.85539
G1 X83.904 Y116.387 E11.86534
G1 X83.359 Y115.647 E11.90814
G1 X83.229 Y115.458 E11.91882
G1 X82.754 Y114.72 E11.95969
G1 X82.644 Y114.537 E11.96963
G1 X82.147 Y113.655 E12.01677
G1 X82.041 Y113.453 E12.02739
G1 X81.712 Y112.773 E12.06257
G1 X81.62 Y112.565 E12.07316
G1 X81.257 Y111.677 E12.11783
G1 X81.167 Y111.433 E12.12994
G1 X80.767 Y110.212 E12.18976
G1 X80.709 Y110.019 E12.19915
G1 X80.573 Y109.51 E12.22368
G1 X80.528 Y109.32 E12.23277
G1 X80.324 Y108.351 E12.27888
G1 X80.289 Y108.158 E12.28802
G1 X80.155 Y107.292 E12.32882
G1 X80.129 Y107.091 E12.33826
G1 X80.043 Y106.216 E12.3792
G1 X80.027 Y105.935 E12.3923
G1 X80.015 Y105.323 E12.42081
G1 X80.017 Y104.862 E12.44227
G1 X80.045 Y103.997 E12.48257
G1 X80.06 Y103.768 E12.49326
G1 X80.157 Y102.756 E12.5406
G1 X80.182 Y102.552 E12.55017
G1 X80.301 Y101.775 E12.58677
G1 X80.34 Y101.561 E12.5969
G1 X80.533 Y100.663 E12.63967
G1 X80.589 Y100.44 E12.65037
G1 X80.891 Y99.369 E12.70219
G1 X80.963 Y99.143 E12.71323
G1 X81.233 Y98.38 E12.75092
G1 X81.311 Y98.177 E12.76105
G1 X81.672 Y97.323 E12.80422
G1 X81.752 Y97.148 E12.81318
G1 X82.111 Y96.41 E12.85139
G1 X82.223 Y96.197 E12.8626
G1 X82.657 Y95.437 E12.90335
G1 X82.761 Y95.267 E12.91263
G1 X83.254 Y94.504 E12.95493
G1 X83.375 Y94.327 E12.96492
G1 X83.924 Y93.578 E13.00816
G1 X84.066 Y93.396 E13.01891
G1 X84.609 Y92.746 E13.05835
G1 X84.767 Y92.57 E13.06936
G1 X85.463 Y91.839 E13.11636
G1 X85.58 Y91.722 E13.12406
G1 X86.115 Y91.209 E13.15858
M204 S3000
M205 X10 Y10
G0 F3000 X86.502 Y91.613
M204 S1800
M205 X8 Y8
G1 F2400 X86.671 Y91.472 E13.16882
G1 X87.418 Y90.84 E13.21439
G1 X87.572 Y90.717 E13.22356
G1 X88.281 Y90.191 E13.26467
G1 X88.444 Y90.078 E13.27391
G1 X89.264 Y89.548 E13.31937
G1 X89.439 Y89.443 E13.32887
G1 X90.149 Y89.048 E13.36671
G1 X90.291 Y88.974 E13.37416
G1 X91.144 Y88.556 E13.41839
G1 X91.326 Y88.474 E13.42769
G1 X92.173 Y88.125 E13.47035
G1 X92.398 Y88.043 E13.4815
G1 X93.529 Y87.677 E13.53685
G1 X93.644 Y87.642 E13.54245
G1 X94.306 Y87.456 E13.57447
