;FLAVOR:Marlin
;TIME:2408
;Filament used: 2.46478m
;Layer height: 0.2
;MINX:88.6
;MINY:88.6
;MINZ:0.2
;MAXX:121.4
;MAXY:121.4
;MAXZ:42.4
;Generated with Cura_SteamEngine 4.7.1
M140 S60
M105
M190 S60
M104 S200
M105
M109 S200
M82 ;absolute extrusion mode
G21 ;metric values
G90 ;absolute positioning
M82 ;set extruder to absolute mode
M107 ;start with the fan off
G28 X0 Y0 ;move X/Y to min endstops
G28 Z0 ;move Z to min endstops
G1 Z15.0 F100 ;move the platform down 15mm
G92 E0 ;zero the extruded length
G1 F200 E3 ;extrude 3mm of feed stock
G92 E0 ;zero the extruded length again
G1 F100
G0 Y20 F100
M117 Printing...
G5
G92 E0
G92 E0
G1 F2400 E-6
;LAYER_COUNT:212
;LAYER:0
M106 S255
M204 S3000
M205 X10 Y10
G1 F600 Z0.275
G0 F3000 X90.533 Y90.435 Z0.275
M204 S1800
M205 X8 Y8
;TYPE:SKIRT
G1 F600 Z0.2
G1 F2400 E0
G1 X91.071 Y89.964 E0.0333
G1 X91.659 Y89.556 E0.06662
G1 X92.288 Y89.216 E0.09991
G1 X92.952 Y88.949 E0.13324
G1 X93.641 Y88.757 E0.16654
G1 X94.347 Y88.643 E0.19984
G1 X95.151 Y88.603 E0.23733
G1 X95.33 Y88.6 E0.24566
G1 X114.293 Y88.6 E1.12866
G1 X115.083 Y88.611 E1.16545
G1 X115.796 Y88.661 E1.19873
G1 X116.5 Y88.79 E1.23206
G1 X117.184 Y88.998 E1.26535
G1 X117.841 Y89.28 E1.29864
G1 X118.463 Y89.634 E1.33197
G1 X119.041 Y90.055 E1.36526
G1 X119.569 Y90.538 E1.39858
G1 X120.039 Y91.076 E1.43185
G1 X120.447 Y91.664 E1.46517
G1 X120.786 Y92.294 E1.49849
G1 X121.053 Y92.957 E1.53177
G1 X121.244 Y93.647 E1.56511
G1 X121.357 Y94.353 E1.5984
G1 X121.397 Y95.15 E1.63556
G1 X121.4 Y95.33 E1.64394
G1 X121.4 Y114.343 E2.52926
G1 X121.391 Y115.07 E2.56312
G1 X121.342 Y115.784 E2.59644
G1 X121.214 Y116.488 E2.62976
G1 X121.008 Y117.173 E2.66307
G1 X120.727 Y117.83 E2.69634
G1 X120.374 Y118.453 E2.72969
G1 X119.954 Y119.032 E2.76299
G1 X119.472 Y119.56 E2.79628
G1 X118.935 Y120.032 E2.82957
G1 X118.347 Y120.44 E2.8629
G1 X117.718 Y120.781 E2.89622
G1 X117.055 Y121.049 E2.92951
G1 X116.366 Y121.241 E2.96282
G1 X115.66 Y121.356 E2.99613
G1 X114.849 Y121.397 E3.03394
G1 X114.67 Y121.4 E3.04227
G1 X95.624 Y121.399 E3.92914
G1 X94.926 Y121.39 E3.96164
G1 X94.213 Y121.341 E3.99492
G1 X93.509 Y121.213 E4.02824
G1 X92.824 Y121.007 E4.06155
G1 X92.167 Y120.725 E4.09484
G1 X91.545 Y120.372 E4.12814
G1 X90.966 Y119.952 E4.16145
G1 X90.437 Y119.47 E4.19477
G1 X89.966 Y118.932 E4.22807
G1 X89.558 Y118.345 E4.26135
G1 X89.218 Y117.715 E4.29469
G1 X88.95 Y117.052 E4.32799
G1 X88.758 Y116.363 E4.36129
G1 X88.644 Y115.657 E4.39459
G1 X88.602 Y114.831 E4.4331
G1 X88.6 Y114.658 E4.44116
G1 X88.601 Y95.587 E5.32919
G1 X88.61 Y94.922 E5.36015
G1 X88.659 Y94.209 E5.39343
G1 X88.788 Y93.505 E5.42676
G1 X88.995 Y92.821 E5.46004
G1 X89.277 Y92.163 E5.49337
G1 X89.63 Y91.541 E5.52667
G1 X90.05 Y90.963 E5.55994
G1 X90.533 Y90.435 E5.59326
M204 S3000
M205 X10 Y10
G0 F3000 X91.08 Y90.688
M204 S1800
M205 X8 Y8
G1 F2400 X91.612 Y90.259 E5.62509
G1 X92.19 Y89.894 E5.65692
G1 X92.807 Y89.6 E5.68874
G1 X93.453 Y89.38 E5.72052
G1 X94.121 Y89.237 E5.75233
G1 X94.845 Y89.171 E5.78618
G1 X95.33 Y89.16 E5.80877
G1 X114.293 Y89.16 E6.69177
G1 X115.075 Y89.171 E6.72818
G1 X115.756 Y89.22 E6.75998
G1 X116.427 Y89.349 E6.79179
G1 X117.078 Y89.556 E6.8236
G1 X117.701 Y89.837 E6.85543
G1 X118.287 Y90.189 E6.88726
G1 X118.827 Y90.607 E6.91905
G1 X119.315 Y91.085 E6.95086
G1 X119.744 Y91.617 E6.98268
G1 X120.108 Y92.195 E7.01449
G1 X120.402 Y92.812 E7.04632
G1 X120.621 Y93.459 E7.07812
G1 X120.764 Y94.127 E7.10993
G1 X120.829 Y94.846 E7.14355
G1 X120.84 Y95.33 E7.16609
G1 X120.84 Y114.336 E8.05109
G1 X120.831 Y115.063 E8.08494
G1 X120.782 Y115.745 E8.11678
G1 X120.654 Y116.416 E8.14859
G1 X120.449 Y117.068 E8.18042
G1 X120.169 Y117.691 E8.21222
G1 X119.819 Y118.277 E8.244
G1 X119.402 Y118.819 E8.27585
G1 X118.925 Y119.308 E8.30766
G1 X118.394 Y119.737 E8.33944
G1 X117.816 Y120.102 E8.37127
G1 X117.2 Y120.397 E8.40308
G1 X116.553 Y120.618 E8.43491
G1 X115.885 Y120.762 E8.46673
G1 X115.155 Y120.829 E8.50087
G1 X114.67 Y120.84 E8.52346
G1 X95.632 Y120.84 E9.40995
G1 X94.934 Y120.831 E9.44245
G1 X94.252 Y120.782 E9.47429
G1 X93.581 Y120.654 E9.5061
G1 X92.93 Y120.448 E9.53789
G1 X92.306 Y120.168 E9.56974
G1 X91.72 Y119.817 E9.60155
G1 X91.179 Y119.4 E9.63335
G1 X90.69 Y118.922 E9.66519
G1 X90.261 Y118.391 E9.69698
G1 X89.896 Y117.813 E9.72881
G1 X89.602 Y117.197 E9.76059
G1 X89.381 Y116.55 E9.79243
G1 X89.237 Y115.882 E9.82425
G1 X89.171 Y115.149 E9.85852
G1 X89.16 Y114.658 E9.88139
G1 X89.161 Y95.595 E10.76904
G1 X89.17 Y94.93 E10.80001
G1 X89.219 Y94.249 E10.8318
G1 X89.347 Y93.577 E10.86366
G1 X89.553 Y92.926 E10.89545
G1 X89.834 Y92.303 E10.92727
G1 X90.185 Y91.717 E10.95908
G1 X90.603 Y91.176 E10.99092
G1 X91.08 Y90.688 E11.02269
M204 S3000
M205 X10 Y10
G0 F3000 X91.154 Y91.401
M204 S1800
M205 X8 Y8
G1 F2400 X91.626 Y90.955 E11.05293
G1 X92.149 Y90.571 E11.08314
G1 X92.716 Y90.253 E11.11341
G1 X93.317 Y90.007 E11.14365
G1 X93.944 Y89.837 E11.1739
G1 X94.861 Y89.731 E11.21688
G1 X95.33 Y89.72 E11.23873
G1 X114.293 Y89.72 E12.12173
G1 X115.067 Y89.731 E12.15777
G1 X115.714 Y89.78 E12.18798
G1 X116.351 Y89.908 E12.21824
G1 X116.967 Y90.114 E12.24848
G1 X117.554 Y90.394 E12.27877
G1 X118.101 Y90.743 E12.30898
G1 X118.602 Y91.157 E12.33924
G1 X119.047 Y91.63 E12.36948
G1 X119.432 Y92.154 E12.39976
G1 X119.749 Y92.721 E12.43001
G1 X119.994 Y93.322 E12.46023
G1 X120.163 Y93.949 E12.49047
G1 X120.269 Y94.862 E12.53327
G1 X120.28 Y95.33 E12.55506
G1 X120.28 Y114.329 E13.43974
G1 X120.271 Y115.056 E13.47359
G1 X120.223 Y115.704 E13.50385
G1 X120.095 Y116.341 E13.5341
G1 X119.891 Y116.958 E13.56436
G1 X119.612 Y117.545 E13.59463
G1 X119.264 Y118.093 E13.62485
G1 X118.851 Y118.594 E13.65509
G1 X118.379 Y119.041 E13.68536
G1 X117.856 Y119.426 E13.7156
G1 X117.29 Y119.744 E13.74583
G1 X116.688 Y119.991 E13.77613
G1 X116.062 Y120.161 E13.80633
G1 X115.139 Y120.269 E13.8496
G1 X114.67 Y120.28 E13.87145
G1 X95.639 Y120.28 E14.75761
G1 X94.941 Y120.271 E14.79011
G1 X94.293 Y120.222 E14.82037
G1 X93.656 Y120.095 E14.85062
G1 X93.04 Y119.89 E14.88085
G1 X92.453 Y119.611 E14.91111
G1 X91.905 Y119.262 E14.94137
G1 X91.404 Y118.849 E14.9716
G1 X90.957 Y118.377 E15.00187
G1 X90.572 Y117.854 E15.03211
G1 X90.254 Y117.287 E15.06238
G1 X90.008 Y116.686 E15.09262
G1 X89.838 Y116.059 E15.12287
G1 X89.731 Y115.134 E15.16623
G1 X89.72 Y114.658 E15.1884
G1 X89.72 Y95.603 E16.07568
G1 X89.729 Y94.938 E16.10665
G1 X89.778 Y94.29 E16.13691
G1 X89.906 Y93.653 E16.16716
G1 X90.111 Y93.036 E16.19744
G1 X90.391 Y92.45 E16.22768
G1 X90.74 Y91.902 E16.25793
G1 X91.154 Y91.401 E16.28819
M204 S3000
M205 X10 Y10
G1 F2400 E10.28819
G1 F600 Z0.275
G0 F3000 X101.37 Y101.182 Z0.275
M204 S1800
M205 X8 Y8
;TYPE:SUPPORT
G1 F600 Z0.2
G1 F2400 E16.28819
G1 F1500 X101.769 Y100.837 E16.31275
G1 X102.21 Y100.531 E16.33775
G1 X102.684 Y100.267 E16.36301
G1 X103.169 Y100.059 E16.38758
G1 X103.669 Y99.903 E16.41197
G1 X104.191 Y99.794 E16.4368
G1 X104.732 Y99.739 E16.46213
G1 X105.251 Y99.738 E16.48629
G1 X105.812 Y99.794 E16.51254
G1 X106.313 Y99.898 E16.53637
G1 X106.822 Y100.056 E16.56119
G1 X107.316 Y100.269 E16.58624
G1 X107.782 Y100.526 E16.61102
G1 X108.234 Y100.839 E16.63662
G1 X108.62 Y101.171 E16.66033
G1 X108.995 Y101.565 E16.68565
G1 X109.314 Y101.977 E16.70992
G1 X109.606 Y102.446 E16.73564
G1 X109.835 Y102.908 E16.75965
G1 X110.025 Y103.422 E16.78517
G1 X110.159 Y103.933 E16.80977
G1 X110.239 Y104.451 E16.83417
G1 X110.267 Y104.995 E16.85954
G1 X110.242 Y105.523 E16.88415
G1 X110.163 Y106.052 E16.90906
G1 X110.029 Y106.571 E16.93402
G1 X109.844 Y107.07 E16.9588
G1 X109.612 Y107.545 E16.98341
G1 X109.327 Y108.005 E17.00861
G1 X108.999 Y108.43 E17.03361
G1 X108.63 Y108.818 E17.05854
G1 X108.237 Y109.157 E17.08271
G1 X107.78 Y109.474 E17.10861
G1 X107.319 Y109.732 E17.13321
G1 X106.836 Y109.939 E17.15767
G1 X106.328 Y110.097 E17.18245
G1 X105.809 Y110.206 E17.20714
G1 X105.268 Y110.261 E17.23246
G1 X104.749 Y110.262 E17.25663
G1 X104.188 Y110.206 E17.28288
G1 X103.679 Y110.1 E17.30709
G1 X103.184 Y109.946 E17.33123
G1 X102.684 Y109.731 E17.35657
G1 X102.218 Y109.474 E17.38135
G1 X101.766 Y109.161 E17.40695
G1 X101.379 Y108.828 E17.43073
G1 X101.005 Y108.435 E17.45599
G1 X100.683 Y108.019 E17.48048
G1 X100.393 Y107.554 E17.506
G1 X100.162 Y107.086 E17.5303
G1 X99.973 Y106.574 E17.55572
G1 X99.84 Y106.063 E17.5803
G1 X99.759 Y105.538 E17.60504
G1 X99.733 Y105.003 E17.62998
G1 X99.758 Y104.465 E17.65506
G1 X99.839 Y103.938 E17.67989
G1 X99.971 Y103.433 E17.70419
G1 X100.16 Y102.922 E17.72956
G1 X100.39 Y102.451 E17.75397
G1 X100.675 Y101.993 E17.77909
G1 X101.005 Y101.566 E17.80422
G1 X101.37 Y101.182 E17.82889
M204 S3000
M205 X10 Y10
G0 F3000 X104 Y100.058
M204 S1800
M205 X8 Y8
G1 F1500 X104 Y109.941 E18.28908
M204 S3000
M205 X10 Y10
G0 F3000 X100.943 Y107.997
M204 S1800
M205 X8 Y8
G1 F1500 X109.626 Y102.984 E18.75594
M204 S3000
M205 X10 Y10
G0 F3000 X108.365 Y108.753
M204 S1800
M205 X8 Y8
G1 F1500 X100.059 Y103.957 E19.20255
M204 S3000
M205 X10 Y10
G1 F2400 E13.20255
;MESH:handle9.stl
G0 F3000 X99.87 Y107.209
G0 X98.486 Y107.802
G0 X99.198 Y109.99
M204 S1800
M205 X8 Y8
;TYPE:WALL-INNER
G1 F2400 E19.20255
G1 F1500 X99.733 Y110.55 E19.23861
G1 X100.321 Y111.055 E19.2747
G1 X100.958 Y111.496 E19.31078
G1 X101.636 Y111.871 E19.34686
G1 X102.349 Y112.178 E19.383
G1 X103.088 Y112.408 E19.41904
G1 X103.847 Y112.564 E19.45512
G1 X104.618 Y112.642 E19.49121
G1 X105.394 Y112.641 E19.52734
G1 X106.166 Y112.562 E19.56348
G1 X106.924 Y112.405 E19.59952
G1 X107.663 Y112.174 E19.63557
G1 X108.375 Y111.867 E19.67168
G1 X109.052 Y111.491 E19.70774
G1 X109.688 Y111.047 E19.74386
G1 X110.272 Y110.545 E19.77972
G1 X110.81 Y109.98 E19.81604
G1 X111.285 Y109.366 E19.85219
G1 X111.694 Y108.707 E19.88831
G1 X112.033 Y108.012 E19.92431
G1 X112.302 Y107.286 E19.96036
G1 X112.496 Y106.533 E19.99657
G1 X112.613 Y105.767 E20.03265
G1 X112.652 Y104.995 E20.06865
G1 X112.612 Y104.22 E20.10478
G1 X112.494 Y103.452 E20.14096
G1 X112.298 Y102.704 E20.17697
G1 X112.029 Y101.977 E20.21306
G1 X111.687 Y101.281 E20.24917
G1 X111.277 Y100.626 E20.28516
G1 X110.802 Y100.01 E20.32138
G1 X110.267 Y99.45 E20.35744
G1 X109.679 Y98.945 E20.39353
G1 X109.042 Y98.504 E20.42961
G1 X108.364 Y98.129 E20.46569
G1 X107.651 Y97.822 E20.50183
G1 X106.912 Y97.592 E20.53787
G1 X106.153 Y97.436 E20.57395
G1 X105.382 Y97.358 E20.61004
G1 X104.606 Y97.359 E20.64617
G1 X103.834 Y97.438 E20.68231
G1 X103.076 Y97.595 E20.71835
G1 X102.337 Y97.826 E20.7544
G1 X101.625 Y98.133 E20.79051
G1 X100.948 Y98.509 E20.82657
G1 X100.312 Y98.953 E20.86269
G1 X99.728 Y99.455 E20.89854
G1 X99.19 Y100.02 E20.93487
G1 X98.715 Y100.634 E20.97102
G1 X98.306 Y101.293 E21.00714
G1 X97.967 Y101.988 E21.04314
G1 X97.698 Y102.714 E21.07919
G1 X97.504 Y103.465 E21.11531
G1 X97.387 Y104.228 E21.15125
G1 X97.348 Y105.006 E21.18753
G1 X97.388 Y105.78 E21.22362
G1 X97.506 Y106.548 E21.2598
G1 X97.702 Y107.296 E21.2958
G1 X97.971 Y108.023 E21.3319
G1 X98.313 Y108.719 E21.36801
G1 X98.723 Y109.374 E21.40399
G1 X99.198 Y109.99 E21.44021
M204 S3000
M205 X10 Y10
G0 F3000 X101.866 Y111.403
G0 X103.219 Y111.903
G0 X113.6 Y113.6
M204 S1800
M205 X8 Y8
G1 F1500 X96.4 Y113.6 E22.24111
G1 X96.4 Y96.4 E23.04202
G1 X113.6 Y96.4 E23.84292
G1 X113.6 Y113.6 E24.64383
M204 S3000
M205 X10 Y10
G0 F3000 X114.16 Y114.16
M204 S1800
M205 X8 Y8
G1 F1500 X95.84 Y114.16 E25.49688
G1 X95.84 Y95.84 E26.34994
G1 X114.16 Y95.84 E27.20299
G1 X114.16 Y114.16 E28.05605
M204 S3000
M205 X10 Y10
G0 F3000 X114.09 Y114.09
G0 X103.219 Y111.903
G0 X101.866 Y111.403
G0 X100.874 Y110.788
G0 X99.548 Y109.689
G0 X99.623 Y109.624
M204 S1800
M205 X8 Y8
G1 F1500 X100.119 Y110.143 E28.08948
G1 X100.664 Y110.611 E28.12293
G1 X101.254 Y111.02 E28.15636
G1 X101.883 Y111.368 E28.18983
G1 X102.543 Y111.652 E28.22329
G1 X103.228 Y111.865 E28.25669
G1 X103.932 Y112.01 E28.29016
G1 X104.646 Y112.082 E28.32357
G1 X105.365 Y112.081 E28.35705
G1 X106.08 Y112.008 E28.39052
G1 X106.783 Y111.862 E28.42395
G1 X107.468 Y111.648 E28.45737
G1 X108.128 Y111.364 E28.49083
G1 X108.755 Y111.015 E28.52424
G1 X109.345 Y110.604 E28.55772
G1 X109.886 Y110.139 E28.59094
G1 X110.384 Y109.615 E28.6246
G1 X110.824 Y109.046 E28.65809
G1 X111.203 Y108.436 E28.69153
G1 X111.518 Y107.791 E28.72496
G1 X111.767 Y107.118 E28.75837
G1 X111.947 Y106.421 E28.79189
G1 X112.055 Y105.711 E28.82533
G1 X112.091 Y104.995 E28.85872
G1 X112.054 Y104.277 E28.89219
G1 X111.945 Y103.566 E28.92569
G1 X111.763 Y102.872 E28.9591
G1 X111.514 Y102.198 E28.99255
G1 X111.197 Y101.554 E29.02598
G1 X110.817 Y100.946 E29.05936
G1 X110.377 Y100.376 E29.09289
G1 X109.881 Y99.857 E29.12632
G1 X109.336 Y99.389 E29.15977
G1 X108.746 Y98.98 E29.1932
G1 X108.117 Y98.632 E29.22667
G1 X107.457 Y98.348 E29.26013
G1 X106.772 Y98.135 E29.29353
G1 X106.068 Y97.99 E29.327
G1 X105.354 Y97.918 E29.36042
G1 X104.635 Y97.919 E29.3939
G1 X103.92 Y97.992 E29.42736
G1 X103.217 Y98.138 E29.46079
G1 X102.532 Y98.352 E29.49421
G1 X101.872 Y98.636 E29.52767
G1 X101.245 Y98.985 E29.56108
G1 X100.655 Y99.396 E29.59456
G1 X100.114 Y99.861 E29.62778
G1 X99.616 Y100.385 E29.66144
G1 X99.176 Y100.954 E29.69494
G1 X98.797 Y101.564 E29.72838
G1 X98.482 Y102.209 E29.7618
G1 X98.233 Y102.882 E29.79521
G1 X98.053 Y103.578 E29.82869
G1 X97.945 Y104.284 E29.86195
G1 X97.909 Y105.006 E29.89561
G1 X97.946 Y105.723 E29.92904
G1 X98.055 Y106.434 E29.96253
G1 X98.237 Y107.128 E29.99594
G1 X98.486 Y107.802 E30.0294
G1 X98.803 Y108.446 E30.06282
G1 X99.183 Y109.054 E30.09621
G1 X99.623 Y109.624 E30.12974
M204 S3000
M205 X10 Y10
G0 F3000 X99.548 Y109.689
G0 X98.769 Y108.465
G0 X98.447 Y107.715
G0 X97.966 Y106.487
G0 X98.604 Y106.32
M204 S1800
M205 X8 Y8
;TYPE:WALL-OUTER
G1 F1500 X98.772 Y106.96 E30.16055
G1 X99.001 Y107.581 E30.19137
G1 X99.293 Y108.173 E30.2221
G1 X99.643 Y108.734 E30.25289
G1 X100.048 Y109.258 E30.28373
G1 X100.505 Y109.736 E30.31452
G1 X101.007 Y110.167 E30.34533
G1 X101.55 Y110.544 E30.37611
G1 X102.13 Y110.865 E30.40698
G1 X102.737 Y111.126 E30.43775
G1 X103.368 Y111.322 E30.46851
G1 X104.017 Y111.456 E30.49937
G1 X104.674 Y111.522 E30.53012
G1 X105.336 Y111.521 E30.56094
G1 X105.994 Y111.454 E30.59174
G1 X106.642 Y111.319 E30.62256
G1 X107.273 Y111.122 E30.65334
G1 X107.88 Y110.861 E30.68411
G1 X108.458 Y110.539 E30.71492
G1 X109.002 Y110.161 E30.74576
G1 X109.499 Y109.733 E30.77631
G1 X109.958 Y109.25 E30.80733
G1 X110.363 Y108.726 E30.83817
G1 X110.712 Y108.164 E30.86897
G1 X111.003 Y107.57 E30.89977
G1 X111.232 Y106.95 E30.93055
G1 X111.398 Y106.309 E30.96138
G1 X111.497 Y105.655 E30.99218
G1 X111.53 Y104.995 E31.02295
G1 X111.496 Y104.334 E31.05377
G1 X111.396 Y103.68 E31.08458
G1 X111.228 Y103.04 E31.11539
G1 X110.999 Y102.419 E31.14621
G1 X110.707 Y101.827 E31.17695
G1 X110.357 Y101.266 E31.20774
G1 X109.952 Y100.742 E31.23857
G1 X109.495 Y100.264 E31.26937
G1 X108.993 Y99.833 E31.30018
G1 X108.45 Y99.456 E31.33096
G1 X107.87 Y99.135 E31.36183
G1 X107.263 Y98.874 E31.39259
G1 X106.632 Y98.678 E31.42336
G1 X105.983 Y98.544 E31.45422
G1 X105.326 Y98.478 E31.48496
G1 X104.664 Y98.479 E31.51579
G1 X104.006 Y98.546 E31.54659
G1 X103.358 Y98.681 E31.57741
G1 X102.727 Y98.878 E31.60819
G1 X102.12 Y99.139 E31.63896
G1 X101.542 Y99.461 E31.66976
G1 X100.998 Y99.839 E31.70061
G1 X100.501 Y100.267 E31.73115
G1 X100.042 Y100.75 E31.76218
G1 X99.637 Y101.274 E31.79301
G1 X99.288 Y101.836 E31.82382
G1 X98.997 Y102.43 E31.85462
G1 X98.768 Y103.05 E31.8854
G1 X98.602 Y103.691 E31.91623
G1 X98.503 Y104.34 E31.9468
G1 X98.47 Y105.005 E31.9778
G1 X98.504 Y105.666 E32.00862
G1 X98.604 Y106.32 E32.03943
M204 S3000
M205 X10 Y10
G0 F3000 X98.654 Y106.513
G0 X98.016 Y106.679
G0 X98.45 Y107.817
G0 X99.151 Y109.076
G0 X100.092 Y110.172
G0 X101.233 Y111.053
G0 X102.53 Y111.689
G0 X103.321 Y111.892
G0 X114.09 Y114.09
G0 X114.72 Y114.72
M204 S1800
M205 X8 Y8
G1 F1500 X95.28 Y114.72 E32.94463
G1 X95.28 Y95.28 E33.84984
G1 X114.72 Y95.28 E34.75505
G1 X114.72 Y114.72 E35.66026
M204 S3000
M205 X10 Y10
G0 F3000 X114.52 Y114.72
G0 X114.09 Y114.09
G0 X113.05 Y113.05
M204 S1800
M205 X8 Y8
;TYPE:SKIN
G1 F1500 X106.521 Y113.05 E35.96428
