;FLAVOR:Marlin
;TIME:8107
;Filament used: 7.49018m
;Layer height: 0.2
;MINX:66.212
;MINY:56.278
;MINZ:0.2
;MAXX:143.789
;MAXY:152.292
;MAXZ:12
;Generated with Cura_SteamEngine 4.7.1
M140 S60
M105
M190 S60
M104 S200
M105
M109 S200
M82 ;absolute extrusion mode
G21 ;metric values
G90 ;absolute positioning
M82 ;set extruder to absolute mode
M107 ;start with the fan off
G28 X0 Y0 ;move X/Y to min endstops
G28 Z0 ;move Z to min endstops
G1 Z15.0 F100 ;move the platform down 15mm
G92 E0 ;zero the extruded length
G1 F200 E3 ;extrude 3mm of feed stock
G92 E0 ;zero the extruded length again
G1 F100
G0 Y20 F100
M117 Printing...
G5
G92 E0
G92 E0
G1 F2400 E-6
;LAYER_COUNT:60
;LAYER:0
M106 S255
M204 S3000
M205 X10 Y10
G1 F600 Z0.275
G0 F3000 X113.567 Y58.952 Z0.275
M204 S1800
M205 X8 Y8
;TYPE:SKIRT
G1 F600 Z0.2
G1 F2400 E0
G1 X113.836 Y58.439 E0.02697
G1 X114.173 Y57.968 E0.05394
G1 X114.606 Y57.508 E0.08336
G1 X115.043 Y57.128 E0.11032
G1 X115.528 Y56.811 E0.1373
G1 X116.052 Y56.564 E0.16428
G1 X116.605 Y56.392 E0.19124
G1 X117.177 Y56.297 E0.21824
G1 X117.576 Y56.278 E0.23684
G1 X139.425 Y56.278 E1.25422
G1 X140.003 Y56.318 E1.2812
G1 X140.57 Y56.437 E1.30818
G1 X141.115 Y56.633 E1.33515
G1 X141.628 Y56.902 E1.36212
G1 X142.099 Y57.239 E1.38909
G1 X142.559 Y57.672 E1.4185
G1 X142.939 Y58.109 E1.44547
G1 X143.256 Y58.594 E1.47245
G1 X143.503 Y59.118 E1.49942
G1 X143.675 Y59.671 E1.52639
G1 X143.77 Y60.243 E1.55339
G1 X143.789 Y60.642 E1.57199
G1 X143.788 Y112.909 E4.00576
G1 X143.788 Y139.105 E5.22556
G1 X143.748 Y139.683 E5.25253
G1 X143.629 Y140.25 E5.27951
G1 X143.542 Y140.557 E5.29437
G1 X143.346 Y141.102 E5.32134
G1 X143.077 Y141.615 E5.34831
G1 X142.74 Y142.086 E5.37528
G1 X142.341 Y142.507 E5.40229
G1 X142.074 Y142.752 E5.41916
G1 X141.378 Y143.268 E5.4595
G1 X141.346 Y143.287 E5.46124
G1 X140.762 Y143.576 E5.49158
G1 X119.793 Y151.963 E6.54319
G1 X119.241 Y152.14 E6.57018
G1 X118.624 Y152.25 E6.59936
G1 X118.046 Y152.292 E6.62635
G1 X117.316 Y152.231 E6.66046
G1 X117.032 Y152.182 E6.67388
G1 X116.469 Y152.044 E6.70087
G1 X115.931 Y151.83 E6.72783
G1 X115.427 Y151.545 E6.75479
G1 X114.897 Y151.139 E6.78588
G1 X114.474 Y150.743 E6.81286
G1 X114.11 Y150.292 E6.83985
G1 X113.811 Y149.796 E6.86682
G1 X113.597 Y149.3 E6.89197
G1 X113.458 Y148.912 E6.91116
G1 X113.301 Y148.355 E6.93811
G1 X113.212 Y147.496 E6.97832
G1 X113.211 Y92.763 E9.52692
G1 X113.212 Y60.642 E11.02261
G1 X113.252 Y60.064 E11.04958
G1 X113.371 Y59.497 E11.07656
G1 X113.567 Y58.952 E11.10353
M204 S3000
M205 X10 Y10
G0 F3000 X114.126 Y59.076
M204 S1800
M205 X8 Y8
G1 F2400 X114.394 Y58.607 E11.12868
G1 X114.838 Y58.068 E11.1612
G1 X115.002 Y57.904 E11.172
G1 X115.411 Y57.552 E11.19713
G1 X115.867 Y57.264 E11.22224
G1 X116.36 Y57.047 E11.24732
G1 X116.88 Y56.905 E11.27242
G1 X117.576 Y56.838 E11.30498
G1 X139.425 Y56.838 E12.32236
G1 X139.963 Y56.878 E12.34748
G1 X140.489 Y56.997 E12.37259
G1 X140.991 Y57.192 E12.39767
G1 X141.46 Y57.46 E12.42282
G1 X141.999 Y57.904 E12.45534
G1 X142.163 Y58.068 E12.46614
G1 X142.515 Y58.477 E12.49127
G1 X142.803 Y58.933 E12.51638
G1 X143.02 Y59.426 E12.54146
G1 X143.162 Y59.946 E12.56656
G1 X143.229 Y60.642 E12.59912
G1 X143.228 Y112.909 E15.03289
G1 X143.228 Y139.105 E16.25269
G1 X143.188 Y139.643 E16.27781
G1 X143.003 Y140.404 E16.31427
G1 X142.818 Y140.911 E16.3394
G1 X142.56 Y141.385 E16.36453
G1 X142.235 Y141.815 E16.38963
G1 X141.695 Y142.339 E16.42467
G1 X141.092 Y142.787 E16.45965
G1 X141.06 Y142.806 E16.46138
G1 X140.554 Y143.056 E16.48766
G1 X119.585 Y151.443 E17.53927
G1 X119.071 Y151.605 E17.56437
G1 X118.545 Y151.695 E17.58921
G1 X118.007 Y151.732 E17.61432
G1 X117.411 Y151.679 E17.64219
G1 X117.127 Y151.63 E17.65561
G1 X116.604 Y151.499 E17.68071
G1 X116.106 Y151.293 E17.70581
G1 X115.446 Y150.864 E17.74246
G1 X115.251 Y150.705 E17.75418
G1 X114.859 Y150.334 E17.77931
G1 X114.527 Y149.91 E17.80438
G1 X114.261 Y149.441 E17.82949
G1 X113.985 Y148.724 E17.86526
G1 X113.841 Y148.204 E17.89039
G1 X113.772 Y147.496 E17.92351
G1 X113.771 Y92.763 E20.47211
G1 X113.772 Y60.642 E21.9678
G1 X113.812 Y60.104 E21.99292
G1 X113.931 Y59.578 E22.01803
G1 X114.126 Y59.076 E22.04311
M204 S3000
M205 X10 Y10
G0 F3000 X114.685 Y59.21
M204 S1800
M205 X8 Y8
G1 F2400 X114.95 Y58.791 E22.06619
G1 X115.398 Y58.3 E22.09714
G1 X115.776 Y57.979 E22.12023
G1 X116.2 Y57.722 E22.14332
G1 X116.661 Y57.537 E22.16645
G1 X117.144 Y57.428 E22.18951
G1 X117.576 Y57.398 E22.20967
G1 X139.425 Y57.398 E23.22705
G1 X139.919 Y57.438 E23.25013
G1 X140.401 Y57.557 E23.27325
G1 X140.857 Y57.751 E23.29632
G1 X141.276 Y58.016 E23.31941
G1 X141.767 Y58.464 E23.35036
G1 X142.088 Y58.842 E23.37345
G1 X142.345 Y59.266 E23.39654
G1 X142.53 Y59.727 E23.41967
G1 X142.639 Y60.21 E23.44272
G1 X142.669 Y60.642 E23.46289
G1 X142.668 Y112.909 E25.89666
G1 X142.668 Y139.105 E27.11645
G1 X142.628 Y139.599 E27.13953
G1 X142.464 Y140.252 E27.17088
G1 X142.291 Y140.717 E27.19398
G1 X142.046 Y141.147 E27.21703
G1 X141.583 Y141.681 E27.24994
G1 X141.316 Y141.926 E27.26681
G1 X140.806 Y142.305 E27.2964
G1 X140.346 Y142.536 E27.32037
G1 X119.377 Y150.923 E28.37198
G1 X118.669 Y151.112 E28.4061
G1 X117.971 Y151.171 E28.43872
G1 X117.222 Y151.078 E28.47386
G1 X116.742 Y150.955 E28.49694
G1 X116.288 Y150.756 E28.52002
G1 X115.8 Y150.43 E28.54734
G1 X115.247 Y149.928 E28.58212
G1 X114.949 Y149.531 E28.60524
G1 X114.651 Y148.923 E28.63676
G1 X114.383 Y148.056 E28.67902
G1 X114.332 Y147.496 E28.7052
G1 X114.331 Y92.763 E31.2538
G1 X114.332 Y60.642 E32.74949
G1 X114.372 Y60.148 E32.77257
G1 X114.491 Y59.666 E32.79569
G1 X114.685 Y59.21 E32.81876
M204 S3000
M205 X10 Y10
G0 F3000 X115.05 Y59.763
M204 S1800
M205 X8 Y8
G1 F2400 X115.244 Y59.358 E32.83967
G1 X115.63 Y58.86 E32.86901
G1 X116.138 Y58.408 E32.90067
G1 X116.528 Y58.186 E32.92157
G1 X116.951 Y58.037 E32.94245
G1 X117.576 Y57.958 E32.97179
G1 X139.425 Y57.958 E33.98917
G1 X139.872 Y57.998 E34.01006
G1 X140.304 Y58.116 E34.03092
G1 X140.709 Y58.31 E34.05183
G1 X141.207 Y58.696 E34.08117
G1 X141.659 Y59.204 E34.11283
G1 X141.881 Y59.594 E34.13373
G1 X142.03 Y60.017 E34.15461
G1 X142.109 Y60.642 E34.18394
G1 X142.108 Y112.909 E36.61771
G1 X142.108 Y139.105 E37.83751
G1 X142.013 Y139.792 E37.8698
G1 X141.765 Y140.518 E37.90553
G1 X141.533 Y140.902 E37.92642
G1 X140.938 Y141.514 E37.96616
G1 X140.521 Y141.824 E37.99036
G1 X140.138 Y142.016 E38.01031
G1 X119.169 Y150.403 E39.06192
G1 X118.589 Y150.558 E39.08987
G1 X117.938 Y150.61 E39.12028
G1 X117.318 Y150.526 E39.14941
G1 X116.884 Y150.411 E39.17032
G1 X116.478 Y150.221 E39.19119
G1 X115.959 Y149.837 E39.22126
G1 X115.637 Y149.524 E39.24217
G1 X115.377 Y149.159 E39.26303
G1 X115.04 Y148.346 E39.30401
G1 X114.927 Y147.912 E39.3249
G1 X114.892 Y147.496 E39.34434
G1 X114.891 Y92.763 E41.89293
G1 X114.892 Y60.642 E43.38862
G1 X114.932 Y60.195 E43.40952
G1 X115.05 Y59.763 E43.43037
M204 S3000
M205 X10 Y10
G0 F3000 X115.61 Y59.871
M204 S1800
M205 X8 Y8
G1 F2400 X115.801 Y59.525 E43.44877
G1 X116.19 Y59.092 E43.47588
G1 X116.496 Y58.842 E43.49428
G1 X116.847 Y58.659 E43.51271
G1 X117.227 Y58.549 E43.53113
G1 X117.576 Y58.518 E43.54745
G1 X139.425 Y58.518 E44.56483
G1 X139.818 Y58.558 E44.58322
G1 X140.196 Y58.676 E44.60166
G1 X140.542 Y58.867 E44.62006
G1 X140.975 Y59.256 E44.64717
G1 X141.225 Y59.562 E44.66557
G1 X141.408 Y59.913 E44.684
G1 X141.518 Y60.293 E44.70242
G1 X141.549 Y60.642 E44.71873
G1 X141.548 Y112.909 E47.1525
G1 X141.548 Y139.105 E48.3723
G1 X141.474 Y139.639 E48.3974
G1 X141.241 Y140.314 E48.43065
G1 X141.025 Y140.645 E48.44906
G1 X140.559 Y141.101 E48.47942
G1 X140.203 Y141.361 E48.49994
G1 X139.93 Y141.496 E48.51413
G1 X118.961 Y149.883 E49.56573
G1 X118.307 Y150.032 E49.59697
G1 X117.697 Y150.023 E49.62538
G1 X117.032 Y149.868 E49.65717
G1 X116.507 Y149.562 E49.68547
G1 X116.033 Y149.123 E49.71555
G1 X115.815 Y148.793 E49.73397
G1 X115.567 Y148.157 E49.76575
G1 X115.472 Y147.773 E49.78417
G1 X115.452 Y147.496 E49.7971
G1 X115.451 Y92.763 E52.3457
G1 X115.452 Y60.642 E53.84139
G1 X115.492 Y60.249 E53.85978
G1 X115.61 Y59.871 E53.87822
M204 S3000
M205 X10 Y10
G0 F3000 X116.169 Y59.998
M204 S1800
M205 X8 Y8
G1 F2400 X116.586 Y59.488 E53.9089
G1 X116.849 Y59.282 E53.92445
G1 X117.153 Y59.143 E53.94002
G1 X117.576 Y59.078 E53.95995
G1 X139.425 Y59.078 E54.97733
G1 X139.757 Y59.118 E54.9929
G1 X140.069 Y59.235 E55.00842
G1 X140.579 Y59.652 E55.03909
G1 X140.785 Y59.915 E55.05465
G1 X140.924 Y60.219 E55.07021
G1 X140.989 Y60.642 E55.09014
G1 X140.988 Y112.909 E57.52391
G1 X140.988 Y139.105 E58.74371
G1 X140.848 Y139.794 E58.77644
G1 X140.719 Y140.102 E58.79199
G1 X140.448 Y140.444 E58.81231
G1 X139.949 Y140.861 E58.84259
G1 X139.722 Y140.976 E58.85444
G1 X118.753 Y149.363 E59.90605
G1 X118.228 Y149.478 E59.93108
G1 X117.792 Y149.472 E59.95138
G1 X117.188 Y149.327 E59.9803
G1 X116.666 Y148.969 E60.00978
G1 X116.434 Y148.729 E60.02532
G1 X116.233 Y148.356 E60.04505
G1 X116.094 Y147.968 E60.06424
G1 X116.012 Y147.496 E60.08655
G1 X116.011 Y92.763 E62.63515
G1 X116.012 Y60.642 E64.13084
G1 X116.052 Y60.31 E64.14641
G1 X116.169 Y59.998 E64.16192
M204 S3000
M205 X10 Y10
G0 F3000 X116.612 Y60.387
M204 S1800
M205 X8 Y8
G1 F2400 X116.818 Y60.048 E64.18039
G1 X117.191 Y59.732 E64.20316
G1 X117.576 Y59.638 E64.22161
G1 X139.425 Y59.638 E65.23899
G1 X139.68 Y59.678 E65.25101
G1 X140.019 Y59.884 E65.26948
G1 X140.335 Y60.257 E65.29225
G1 X140.429 Y60.642 E65.3107
G1 X140.428 Y112.909 E67.74447
G1 X140.428 Y139.105 E68.96427
G1 X140.309 Y139.641 E68.98983
G1 X140.201 Y139.876 E69.00187
G1 X139.802 Y140.276 E69.02818
G1 X139.514 Y140.456 E69.044
G1 X118.545 Y148.843 E70.09561
G1 X118.149 Y148.924 E70.11443
G1 X117.603 Y148.871 E70.13997
G1 X117.358 Y148.788 E70.15202
G1 X117.02 Y148.535 E70.17168
G1 X116.847 Y148.343 E70.18371
G1 X116.621 Y147.779 E70.212
G1 X116.572 Y147.496 E70.22538
G1 X116.571 Y92.763 E72.77397
G1 X116.572 Y60.642 E74.26966
G1 X116.612 Y60.387 E74.28168
M204 S3000
M205 X10 Y10
G0 F3000 X117.214 Y60.444
M204 S1800
M205 X8 Y8
G1 F2400 X117.378 Y60.28 E74.29248
G1 X117.576 Y60.198 E74.30246
G1 X139.425 Y60.198 E75.31984
G1 X139.623 Y60.28 E75.32982
G1 X139.787 Y60.444 E75.34062
G1 X139.869 Y60.642 E75.3506
G1 X139.868 Y112.909 E77.78437
G1 X139.868 Y139.105 E79.00416
G1 X139.77 Y139.488 E79.02257
G1 X139.69 Y139.618 E79.02968
G1 X139.306 Y139.936 E79.0529
G1 X118.337 Y148.323 E80.10451
G1 X117.982 Y148.368 E80.12117
G1 X117.569 Y148.26 E80.14105
G1 X117.374 Y148.101 E80.15276
G1 X117.287 Y147.978 E80.15978
G1 X117.132 Y147.496 E80.18335
G1 X117.131 Y92.763 E82.73195
G1 X117.132 Y60.642 E84.22764
G1 X117.214 Y60.444 E84.23762
M204 S3000
M205 X10 Y10
G1 F2400 E78.23762
G0 F3000 X116.746 Y60.444
G0 X96.77 Y60.243
M204 S1800
M205 X8 Y8
G1 F2400 E84.23762
G1 X96.789 Y60.642 E84.25622
G1 X96.789 Y115.24 E86.79853
G1 X96.788 Y147.497 E88.30055
G1 X96.748 Y148.075 E88.32753
G1 X96.552 Y148.886 E88.36638
G1 X96.416 Y149.274 E88.38552
G1 X96.187 Y149.806 E88.41249
G1 X95.887 Y150.302 E88.43949
G1 X95.521 Y150.752 E88.4665
G1 X95.066 Y151.173 E88.49536
G1 X94.866 Y151.332 E88.50726
G1 X94.388 Y151.66 E88.53425
G1 X93.871 Y151.92 E88.5612
G1 X93.322 Y152.105 E88.58817
G1 X92.583 Y152.243 E88.62318
G1 X92.005 Y152.292 E88.65019
G1 X91.207 Y152.229 E88.68746
G1 X91.037 Y152.199 E88.6955
G1 X90.207 Y151.963 E88.73568
G1 X69.239 Y143.577 E89.78723
G1 X68.718 Y143.325 E89.81418
G1 X68.231 Y143 E89.84144
G1 X67.98 Y142.806 E89.85622
G1 X67.547 Y142.421 E89.88319
G1 X67.171 Y141.98 E89.91018
G1 X66.859 Y141.492 E89.93715
G1 X66.622 Y140.975 E89.96363
G1 X66.492 Y140.633 E89.98067
G1 X66.269 Y139.796 E90.021
G1 X66.263 Y139.758 E90.0228
G1 X66.212 Y139.103 E90.05339
G1 X66.212 Y60.642 E93.70686
G1 X66.252 Y60.064 E93.73384
G1 X66.371 Y59.497 E93.76082
G1 X66.567 Y58.952 E93.78778
G1 X66.836 Y58.439 E93.81476
G1 X67.173 Y57.968 E93.84172
G1 X67.606 Y57.508 E93.87114
G1 X68.043 Y57.128 E93.89811
G1 X68.528 Y56.811 E93.92509
G1 X69.052 Y56.564 E93.95206
G1 X69.605 Y56.392 E93.97903
G1 X70.177 Y56.297 E94.00603
G1 X70.576 Y56.278 E94.02463
G1 X92.425 Y56.278 E95.04201
G1 X93.003 Y56.318 E95.06899
G1 X93.57 Y56.437 E95.09596
G1 X94.115 Y56.633 E95.12293
G1 X94.628 Y56.902 E95.1499
G1 X95.099 Y57.239 E95.17687
G1 X95.559 Y57.672 E95.20629
G1 X95.939 Y58.109 E95.23325
G1 X96.256 Y58.594 E95.26023
G1 X96.503 Y59.118 E95.28721
G1 X96.675 Y59.671 E95.31417
G1 X96.77 Y60.243 E95.34117
M204 S3000
M205 X10 Y10
G0 F3000 X96.229 Y60.642
M204 S1800
M205 X8 Y8
G1 F2400 X96.229 Y115.24 E97.88349
G1 X96.228 Y147.497 E99.38551
G1 X96.188 Y148.035 E99.41063
G1 X96.023 Y148.701 E99.44258
G1 X95.887 Y149.089 E99.46172
G1 X95.672 Y149.583 E99.48681
G1 X95.385 Y150.04 E99.51194
G1 X95.035 Y150.45 E99.53704
G1 X94.517 Y150.893 E99.56878
G1 X94.071 Y151.197 E99.59391
G1 X93.586 Y151.431 E99.61898
G1 X92.811 Y151.641 E99.65637
G1 X92.496 Y151.69 E99.67122
G1 X91.959 Y151.733 E99.6963
G1 X91.304 Y151.678 E99.72691
G1 X91.134 Y151.648 E99.73495
G1 X90.415 Y151.443 E99.76976
G1 X69.447 Y143.057 E100.82131
G1 X68.963 Y142.82 E100.8464
G1 X68.322 Y142.363 E100.88306
G1 X67.921 Y142.003 E100.90815
G1 X67.578 Y141.587 E100.93326
G1 X67.299 Y141.125 E100.95839
G1 X67.016 Y140.434 E100.99316
G1 X66.823 Y139.709 E101.02809
G1 X66.817 Y139.671 E101.02989
G1 X66.772 Y139.103 E101.05642
G1 X66.772 Y60.642 E104.70989
G1 X66.812 Y60.104 E104.73501
G1 X66.931 Y59.578 E104.76012
G1 X67.126 Y59.076 E104.7852
G1 X67.394 Y58.607 E104.81035
G1 X67.838 Y58.068 E104.84287
G1 X68.002 Y57.904 E104.85367
G1 X68.411 Y57.552 E104.8788
G1 X68.867 Y57.264 E104.90391
G1 X69.36 Y57.047 E104.92899
G1 X69.88 Y56.905 E104.95409
G1 X70.576 Y56.838 E104.98665
G1 X92.425 Y56.838 E106.00403
G1 X92.963 Y56.878 E106.02915
G1 X93.489 Y56.997 E106.05426
G1 X93.991 Y57.192 E106.07934
G1 X94.46 Y57.46 E106.10449
G1 X94.999 Y57.904 E106.13701
G1 X95.163 Y58.068 E106.14781
G1 X95.515 Y58.477 E106.17294
G1 X95.803 Y58.933 E106.19805
G1 X96.02 Y59.426 E106.22313
G1 X96.162 Y59.946 E106.24823
G1 X96.229 Y60.642 E106.28079
M204 S3000
M205 X10 Y10
G0 F3000 X95.639 Y60.21
M204 S1800
M205 X8 Y8
G1 F2400 X95.669 Y60.642 E106.30095
G1 X95.669 Y115.24 E108.84326
G1 X95.668 Y147.497 E110.34529
G1 X95.628 Y147.991 E110.36836
G1 X95.495 Y148.516 E110.39358
G1 X95.157 Y149.357 E110.43579
G1 X94.886 Y149.772 E110.45887
G1 X94.369 Y150.296 E110.49314
G1 X93.757 Y150.731 E110.52811
G1 X93.306 Y150.938 E110.55121
G1 X92.725 Y151.087 E110.57914
G1 X91.916 Y151.173 E110.61702
G1 X91.402 Y151.126 E110.64106
G1 X91.232 Y151.096 E110.6491
G1 X90.623 Y150.923 E110.67858
G1 X69.655 Y142.537 E111.73012
G1 X69.211 Y142.316 E111.75322
G1 X68.664 Y141.92 E111.78466
G1 X68.298 Y141.586 E111.80774
G1 X67.989 Y141.198 E111.83083
G1 X67.669 Y140.577 E111.86336
G1 X67.539 Y140.235 E111.8804
G1 X67.376 Y139.621 E111.90998
G1 X67.332 Y139.103 E111.93419
G1 X67.332 Y60.642 E115.58766
G1 X67.372 Y60.148 E115.61074
G1 X67.491 Y59.666 E115.63385
G1 X67.685 Y59.21 E115.65693
G1 X67.95 Y58.791 E115.68001
G1 X68.398 Y58.3 E115.71096
G1 X68.776 Y57.979 E115.73406
G1 X69.2 Y57.722 E115.75714
G1 X69.661 Y57.537 E115.78027
G1 X70.144 Y57.428 E115.80333
G1 X70.576 Y57.398 E115.82349
G1 X92.425 Y57.398 E116.84087
G1 X92.919 Y57.438 E116.86395
G1 X93.401 Y57.557 E116.88707
G1 X93.857 Y57.751 E116.91015
G1 X94.276 Y58.016 E116.93323
G1 X94.767 Y58.464 E116.96418
G1 X95.088 Y58.842 E116.98727
G1 X95.345 Y59.266 E117.01036
G1 X95.53 Y59.727 E117.03349
G1 X95.639 Y60.21 E117.05654
M204 S3000
M205 X10 Y10
G0 F3000 X95.109 Y60.642
M204 S1800
M205 X8 Y8
G1 F2400 X95.109 Y115.24 E119.59886
G1 X95.108 Y147.497 E121.10088
G1 X95.068 Y147.944 E121.12177
G1 X94.83 Y148.719 E121.15953
G1 X94.645 Y149.127 E121.18038
G1 X94.39 Y149.496 E121.20127
G1 X94.02 Y149.858 E121.22537
G1 X93.446 Y150.263 E121.25809
G1 X93.033 Y150.44 E121.27901
G1 X92.324 Y150.583 E121.31269
G1 X91.877 Y150.612 E121.33354
G1 X91.329 Y150.545 E121.35925
G1 X90.831 Y150.403 E121.38337
G1 X69.863 Y142.017 E122.43491
G1 X69.258 Y141.671 E122.46737
G1 X68.678 Y141.172 E122.50299
G1 X68.408 Y140.814 E122.52387
