;FLAVOR:Marlin
;TIME:9046
;Filament used: 8.5309m
;Layer height: 0.2
;MINX:11.1
;MINY:37.359
;MINZ:0.2
;MAXX:198.9
;MAXY:172.637
;MAXZ:10
;Generated with Cura_SteamEngine 4.7.1
M140 S60
M105
M190 S60
M104 S200
M105
M109 S200
M82 ;absolute extrusion mode
G21 ;metric values
G90 ;absolute positioning
M82 ;set extruder to absolute mode
M107 ;start with the fan off
G28 X0 Y0 ;move X/Y to min endstops
G28 Z0 ;move Z to min endstops
G1 Z15.0 F100 ;move the platform down 15mm
G92 E0 ;zero the extruded length
G1 F200 E3 ;extrude 3mm of feed stock
G92 E0 ;zero the extruded length again
G1 F100
G0 Y20 F100
M117 Printing...
G5
G92 E0
G92 E0
G1 F2400 E-6
;LAYER_COUNT:50
;LAYER:0
M106 S255
M204 S3000
M205 X10 Y10
G1 F600 Z0.275
G0 F3000 X44.98 Y41.641 Z0.275
M204 S1800
M205 X8 Y8
;TYPE:SKIRT
G1 F600 Z0.2
G1 F2400 E0
G1 X45.416 Y41.217 E0.02832
G1 X45.531 Y41.11 E0.03563
G1 X45.953 Y40.727 E0.06217
G1 X46.433 Y40.329 E0.0912
G1 X46.889 Y39.994 E0.11755
G1 X46.993 Y39.92 E0.1235
G1 X47.462 Y39.596 E0.15004
G1 X48.068 Y39.226 E0.1831
G1 X48.619 Y38.933 E0.21216
G1 X49.159 Y38.663 E0.24027
G1 X49.633 Y38.449 E0.26449
G1 X50.226 Y38.224 E0.29402
G1 X50.397 Y38.164 E0.30246
G1 X50.926 Y37.985 E0.32846
G1 X51.455 Y37.83 E0.35413
G1 X52.008 Y37.704 E0.38054
G1 X52.155 Y37.674 E0.38753
G1 X52.762 Y37.556 E0.41632
G1 X53.276 Y37.477 E0.44054
G1 X53.942 Y37.418 E0.47167
G1 X54.589 Y37.385 E0.50184
G1 X55.874 Y37.36 E0.56168
G1 X153.004 Y37.359 E5.08446
G1 X154.441 Y37.361 E5.15138
G1 X155.043 Y37.373 E5.17941
G1 X156.009 Y37.42 E5.22445
G1 X156.551 Y37.461 E5.24976
G1 X157.09 Y37.528 E5.27505
G1 X157.707 Y37.645 E5.30429
G1 X157.867 Y37.679 E5.31191
G1 X158.421 Y37.803 E5.33834
G1 X158.934 Y37.94 E5.36307
G1 X159.493 Y38.124 E5.39047
G1 X159.63 Y38.173 E5.39724
G1 X160.196 Y38.382 E5.42534
G1 X160.726 Y38.606 E5.45213
G1 X161.28 Y38.879 E5.48089
G1 X161.437 Y38.96 E5.48912
G1 X161.916 Y39.217 E5.51443
G1 X162.388 Y39.498 E5.54001
G1 X162.903 Y39.846 E5.56895
G1 X163.065 Y39.961 E5.5782
G1 X163.49 Y40.272 E5.60272
G1 X163.957 Y40.646 E5.63058
G1 X164.356 Y41.003 E5.65551
G1 X164.477 Y41.117 E5.66325
G1 X164.912 Y41.535 E5.69134
G1 X165.285 Y41.924 E5.71644
G1 X165.677 Y42.388 E5.74472
G1 X165.774 Y42.507 E5.75187
G1 X166.133 Y42.961 E5.77882
G1 X166.43 Y43.369 E5.80232
G1 X166.763 Y43.889 E5.83107
G1 X166.848 Y44.028 E5.83866
G1 X167.17 Y44.574 E5.86818
G1 X167.444 Y45.092 E5.89546
G1 X167.673 Y45.596 E5.92124
G1 X167.729 Y45.726 E5.92783
G1 X167.961 Y46.278 E5.95571
G1 X168.161 Y46.821 E5.98266
G1 X168.33 Y47.386 E6.01012
G1 X168.376 Y47.553 E6.01818
G1 X168.523 Y48.11 E6.04501
G1 X168.641 Y48.649 E6.0707
G1 X168.722 Y49.159 E6.09475
G1 X168.745 Y49.327 E6.10264
G1 X168.825 Y49.969 E6.13277
G1 X168.87 Y50.521 E6.15856
G1 X168.882 Y50.842 E6.17351
G1 X169.019 Y53.476 E6.29633
G1 X169.233 Y56.122 E6.41994
G1 X169.52 Y58.75 E6.54304
G1 X169.883 Y61.384 E6.66685
G1 X170.312 Y63.952 E6.78808
G1 X170.826 Y66.577 E6.91263
G1 X171.409 Y69.161 E7.03598
G1 X172.071 Y71.75 E7.16041
G1 X172.792 Y74.271 E7.28251
G1 X173.595 Y76.805 E7.40629
G1 X174.46 Y79.292 E7.5289
G1 X175.411 Y81.793 E7.65349
G1 X176.428 Y84.252 E7.77739
G1 X177.486 Y86.62 E7.89816
G1 X178.645 Y89.032 E8.02277
G1 X179.849 Y91.364 E8.14498
G1 X181.132 Y93.687 E8.26855
G1 X182.484 Y95.977 E8.39238
G1 X183.892 Y98.216 E8.51553
G1 X185.355 Y100.404 E8.63809
G1 X186.911 Y102.592 E8.76311
G1 X188.48 Y104.673 E8.88447
G1 X190.153 Y106.766 E9.00924
G1 X191.862 Y108.783 E9.13234
G1 X193.608 Y110.73 E9.25411
G1 X195.456 Y112.678 E9.37914
G1 X196.754 Y113.98 E9.46475
G1 X196.974 Y114.196 E9.4791
G1 X197.455 Y114.725 E9.5124
G1 X197.875 Y115.304 E9.5457
G1 X198.227 Y115.927 E9.57902
G1 X198.508 Y116.585 E9.61234
G1 X198.713 Y117.27 E9.64563
G1 X198.841 Y117.974 E9.67895
G1 X198.887 Y118.567 E9.70665
G1 X198.9 Y119.089 E9.73096
G1 X198.899 Y133.143 E10.38538
G1 X198.889 Y133.846 E10.41811
G1 X198.839 Y134.56 E10.45144
G1 X198.71 Y135.263 E10.48472
G1 X198.503 Y135.948 E10.51804
G1 X198.22 Y136.605 E10.55135
G1 X197.867 Y137.226 E10.58462
G1 X197.313 Y137.962 E10.62751
G1 X197.194 Y138.097 E10.63589
G1 X195.429 Y140.047 E10.75836
G1 X193.719 Y142.05 E10.881
G1 X192.041 Y144.128 E11.00536
G1 X190.466 Y146.2 E11.12655
G1 X188.902 Y148.381 E11.25152
G1 X187.416 Y150.582 E11.37518
G1 X186 Y152.812 E11.49819
G1 X184.66 Y155.061 E11.62009
G1 X183.37 Y157.373 E11.74337
G1 X182.139 Y159.735 E11.86739
G1 X180.556 Y163.034 E12.03778
G1 X180.212 Y163.788 E12.07637
G1 X179.834 Y164.496 E12.11374
G1 X179.529 Y164.979 E12.14034
G1 X179.24 Y165.407 E12.16439
G1 X178.804 Y165.981 E12.19795
G1 X178.466 Y166.363 E12.2217
G1 X178.005 Y166.85 E12.25293
G1 X177.523 Y167.306 E12.28382
G1 X177.128 Y167.631 E12.30764
G1 X176.581 Y168.046 E12.33961
G1 X175.988 Y168.444 E12.37287
G1 X175.537 Y168.7 E12.39702
G1 X174.983 Y168.993 E12.4262
G1 X174.237 Y169.325 E12.46422
G1 X173.691 Y169.523 E12.49127
G1 X173.211 Y169.68 E12.51478
G1 X172.526 Y169.862 E12.54778
G1 X172.017 Y169.958 E12.5719
G1 X171.365 Y170.059 E12.60263
G1 X170.647 Y170.127 E12.63621
G1 X169.99 Y170.137 E12.6668
G1 X169.018 Y170.123 E12.71207
G1 X167.076 Y170.067 E12.80254
G1 X164.435 Y170.065 E12.92551
G1 X161.76 Y170.14 E13.05012
G1 X159.121 Y170.288 E13.1732
G1 X156.477 Y170.513 E13.29676
G1 X153.868 Y170.808 E13.41902
G1 X151.236 Y171.182 E13.5428
G1 X148.659 Y171.623 E13.66454
G1 X145.986 Y172.158 E13.79148
G1 X145.643 Y172.235 E13.80785
G1 X144.973 Y172.374 E13.83971
G1 X144.343 Y172.487 E13.86951
G1 X143.868 Y172.559 E13.89188
G1 X143.146 Y172.627 E13.92565
G1 X142.476 Y172.637 E13.95685
G1 X141.975 Y172.629 E13.98019
G1 X141.16 Y172.564 E14.01826
G1 X140.639 Y172.485 E14.04279
G1 X140.131 Y172.393 E14.06683
G1 X139.466 Y172.235 E14.09866
G1 X138.904 Y172.055 E14.12614
G1 X138.348 Y171.857 E14.15362
G1 X137.617 Y171.542 E14.19069
G1 X137.078 Y171.263 E14.21895
G1 X136.649 Y171.023 E14.24184
G1 X136.027 Y170.626 E14.2762
G1 X135.611 Y170.316 E14.30035
G1 X135.109 Y169.915 E14.33027
G1 X134.839 Y169.686 E14.34676
G1 X134.261 Y169.167 E14.38293
G1 X132.279 Y167.434 E14.50552
G1 X130.22 Y165.735 E14.62982
G1 X128.141 Y164.116 E14.75252
G1 X125.981 Y162.53 E14.8773
G1 X123.822 Y161.036 E14.99956
G1 X121.609 Y159.596 E15.1225
G1 X119.363 Y158.223 E15.24507
G1 X117.048 Y156.897 E15.3693
G1 X114.689 Y155.633 E15.49392
G1 X112.37 Y154.473 E15.61466
G1 X109.923 Y153.334 E15.74034
G1 X107.535 Y152.305 E15.86142
G1 X105.049 Y151.315 E15.98602
G1 X102.553 Y150.401 E16.10979
G1 X100.066 Y149.571 E16.23188
G1 X97.539 Y148.806 E16.35482
G1 X94.945 Y148.1 E16.48
G1 X92.465 Y147.498 E16.59883
G1 X89.782 Y146.929 E16.72654
G1 X87.233 Y146.463 E16.8472
G1 X84.589 Y146.056 E16.97177
G1 X81.962 Y145.728 E17.09504
G1 X79.294 Y145.471 E17.21985
G1 X76.699 Y145.295 E17.34096
G1 X74.014 Y145.189 E17.46608
G1 X71.666 Y145.159 E17.57542
G1 X18.106 Y145.158 E20.0694
G1 X17.408 Y145.147 E20.10191
G1 X16.695 Y145.096 E20.13519
G1 X15.991 Y144.965 E20.16854
G1 X15.307 Y144.757 E20.20183
G1 X14.65 Y144.474 E20.23514
G1 X14.029 Y144.119 E20.26844
G1 X13.452 Y143.698 E20.3017
G1 X12.925 Y143.214 E20.33502
G1 X12.455 Y142.674 E20.36836
G1 X12.048 Y142.086 E20.40166
G1 X11.71 Y141.456 E20.43495
G1 X11.444 Y140.792 E20.46825
G1 X11.254 Y140.102 E20.50158
G1 X11.142 Y139.396 E20.53486
G1 X11.102 Y138.591 E20.57239
G1 X11.1 Y138.417 E20.5805
G1 X11.101 Y114.375 E21.69999
G1 X11.111 Y113.672 E21.73273
G1 X11.161 Y112.958 E21.76606
G1 X11.29 Y112.255 E21.79934
G1 X11.497 Y111.57 E21.83266
G1 X11.78 Y110.913 E21.86597
G1 X12.133 Y110.292 E21.89923
G1 X12.711 Y109.529 E21.94381
G1 X12.968 Y109.252 E21.9614
G1 X13.323 Y108.892 E21.98494
G1 X14.6 Y107.631 E22.06851
G1 X16.459 Y105.688 E22.19372
G1 X18.217 Y103.744 E22.31577
G1 X19.935 Y101.731 E22.439
G1 X21.609 Y99.656 E22.56314
G1 X23.211 Y97.548 E22.68643
G1 X24.736 Y95.419 E22.80837
G1 X26.242 Y93.189 E22.93367
G1 X27.657 Y90.957 E23.05673
G1 X28.983 Y88.729 E23.17746
G1 X30.289 Y86.389 E23.30224
G1 X31.515 Y84.037 E23.42574
G1 X32.681 Y81.636 E23.55003
G1 X33.763 Y79.237 E23.67257
G1 X34.772 Y76.822 E23.79445
G1 X35.731 Y74.336 E23.91852
G1 X36.599 Y71.871 E24.04021
G1 X37.422 Y69.307 E24.1656
G1 X38.156 Y66.776 E24.28831
G1 X38.83 Y64.183 E24.41306
G1 X39.417 Y61.629 E24.53509
G1 X39.932 Y59.06 E24.65709
G1 X40.38 Y56.447 E24.78054
G1 X40.757 Y53.782 E24.90587
G1 X41.052 Y51.18 E25.0278
G1 X41.169 Y50.004 E25.08283
G1 X41.251 Y49.351 E25.11348
G1 X41.339 Y48.771 E25.1408
G1 X41.455 Y48.19 E25.16838
G1 X41.598 Y47.644 E25.19466
G1 X41.64 Y47.496 E25.20183
G1 X41.806 Y46.934 E25.22912
G1 X41.981 Y46.422 E25.25431
G1 X42.222 Y45.838 E25.28373
G1 X42.512 Y45.19 E25.31679
G1 X42.746 Y44.721 E25.34119
G1 X43.074 Y44.156 E25.37161
G1 X43.156 Y44.023 E25.37889
G1 X43.464 Y43.533 E25.40584
G1 X43.746 Y43.12 E25.42912
G1 X44.12 Y42.637 E25.45757
G1 X44.233 Y42.499 E25.46587
G1 X44.631 Y42.025 E25.49469
G1 X44.98 Y41.641 E25.51886
M204 S3000
M205 X10 Y10
G0 F3000 X45.465 Y41.947
M204 S1800
M205 X8 Y8
G1 F2400 X45.907 Y41.525 E25.54731
G1 X46.329 Y41.142 E25.57385
G1 X46.779 Y40.769 E25.60106
G1 X47.217 Y40.448 E25.62635
G1 X47.781 Y40.057 E25.65831
G1 X48.333 Y39.719 E25.68845
G1 X48.869 Y39.434 E25.71671
G1 X49.409 Y39.164 E25.74483
G1 X49.934 Y38.932 E25.77155
G1 X50.421 Y38.749 E25.79578
G1 X50.576 Y38.694 E25.80344
G1 X51.105 Y38.515 E25.82944
G1 X51.589 Y38.374 E25.85291
G1 X52.128 Y38.251 E25.87866
G1 X52.262 Y38.223 E25.88503
G1 X52.869 Y38.105 E25.91383
G1 X53.428 Y38.024 E25.94013
G1 X53.987 Y37.976 E25.96625
G1 X54.599 Y37.945 E25.99479
G1 X55.884 Y37.92 E26.05463
G1 X153.003 Y37.919 E30.5769
G1 X154.434 Y37.921 E30.64353
G1 X155.016 Y37.932 E30.67064
G1 X155.982 Y37.979 E30.71567
G1 X156.505 Y38.019 E30.7401
G1 X157.08 Y38.094 E30.7671
G1 X157.599 Y38.194 E30.79171
G1 X157.745 Y38.225 E30.79866
G1 X158.299 Y38.349 E30.82509
G1 X158.93 Y38.525 E30.8556
G1 X159.436 Y38.699 E30.88051
G1 X160.002 Y38.908 E30.90861
G1 X160.486 Y39.111 E30.93305
G1 X161.029 Y39.38 E30.96126
G1 X161.172 Y39.454 E30.96876
G1 X161.651 Y39.711 E30.99407
G1 X162.082 Y39.967 E31.01741
G1 X162.587 Y40.308 E31.04579
G1 X162.735 Y40.413 E31.05424
G1 X163.16 Y40.724 E31.07876
G1 X163.596 Y41.074 E31.1048
G1 X163.978 Y41.417 E31.1287
G1 X164.089 Y41.521 E31.13578
G1 X164.524 Y41.939 E31.16387
G1 X164.944 Y42.385 E31.1924
G1 X165.335 Y42.855 E31.22087
G1 X165.694 Y43.309 E31.24782
G1 X166.034 Y43.784 E31.27502
G1 X166.365 Y44.312 E31.30404
G1 X166.687 Y44.858 E31.33355
G1 X166.938 Y45.331 E31.35849
G1 X167.161 Y45.825 E31.38373
G1 X167.213 Y45.943 E31.38973
G1 X167.445 Y46.495 E31.41761
G1 X167.627 Y46.991 E31.44221
G1 X167.792 Y47.543 E31.46904
G1 X167.835 Y47.696 E31.47644
G1 X167.982 Y48.253 E31.50327
G1 X168.089 Y48.745 E31.52671
G1 X168.168 Y49.243 E31.55019
G1 X168.189 Y49.396 E31.55738
G1 X168.269 Y50.038 E31.58751
G1 X168.31 Y50.542 E31.61105
G1 X168.321 Y50.834 E31.62466
G1 X168.46 Y53.513 E31.74957
G1 X168.674 Y56.154 E31.87295
G1 X168.968 Y58.852 E31.99932
G1 X169.327 Y61.454 E32.12163
G1 X169.765 Y64.078 E32.24551
G1 X170.277 Y66.687 E32.36931
G1 X170.87 Y69.313 E32.49467
G1 X171.522 Y71.865 E32.61732
G1 X172.261 Y74.449 E32.74246
G1 X173.063 Y76.981 E32.86613
G1 X173.939 Y79.498 E32.99023
G1 X174.89 Y81.998 E33.11478
G1 X175.901 Y84.443 E33.23798
G1 X176.984 Y86.87 E33.36173
G1 X178.137 Y89.267 E33.48559
G1 X179.362 Y91.641 E33.60998
G1 X180.661 Y93.991 E33.73501
G1 X181.988 Y96.24 E33.8566
G1 X183.429 Y98.531 E33.98263
G1 X184.904 Y100.737 E34.1062
G1 X186.438 Y102.895 E34.22948
G1 X188.056 Y105.041 E34.35463
G1 X189.701 Y107.098 E34.47727
G1 X191.431 Y109.14 E34.60189
G1 X193.2 Y111.112 E34.72525
G1 X195.069 Y113.083 E34.85173
G1 X196.405 Y114.423 E34.93984
G1 X196.581 Y114.596 E34.95133
G1 X197.04 Y115.102 E34.98314
G1 X197.437 Y115.659 E35.01499
G1 X197.765 Y116.258 E35.04679
G1 X198.022 Y116.891 E35.0786
G1 X198.203 Y117.55 E35.11043
G1 X198.305 Y118.225 E35.14221
G1 X198.337 Y118.91 E35.17415
G1 X198.34 Y119.089 E35.18248
G1 X198.339 Y133.135 E35.83652
G1 X198.329 Y133.838 E35.86926
G1 X198.28 Y134.519 E35.90105
G1 X198.151 Y135.19 E35.93287
G1 X197.944 Y135.842 E35.96472
G1 X197.663 Y136.465 E35.99655
G1 X197.312 Y137.05 E36.02831
G1 X196.891 Y137.594 E36.06034
G1 X196.779 Y137.721 E36.06823
G1 X195.016 Y139.669 E36.19057
G1 X193.272 Y141.711 E36.31561
G1 X191.603 Y143.779 E36.43935
G1 X189.997 Y145.891 E36.5629
G1 X188.46 Y148.036 E36.68578
G1 X186.95 Y150.271 E36.81137
G1 X185.533 Y152.503 E36.93448
G1 X184.167 Y154.795 E37.05872
G1 X182.87 Y157.119 E37.18265
G1 X181.644 Y159.472 E37.30619
G1 X180.042 Y162.811 E37.47864
G1 X179.702 Y163.556 E37.51677
G1 X179.357 Y164.202 E37.55087
G1 X179.065 Y164.666 E37.5764
G1 X178.776 Y165.094 E37.60045
G1 X178.378 Y165.618 E37.63109
G1 X177.928 Y166.12 E37.66248
G1 X177.6 Y166.464 E37.68461
G1 X177.16 Y166.88 E37.71281
G1 X176.643 Y167.298 E37.74377
G1 X176.244 Y167.599 E37.76704
G1 X175.702 Y167.962 E37.79742
G1 X175.265 Y168.211 E37.82084
G1 X174.723 Y168.497 E37.84937
G1 X174.042 Y168.8 E37.88408
G1 X173.517 Y168.991 E37.91009
G1 X173.037 Y169.148 E37.93361
G1 X172.412 Y169.314 E37.96372
G1 X171.918 Y169.407 E37.98713
G1 X171.281 Y169.505 E38.01714
G1 X170.626 Y169.567 E38.04777
G1 X169.998 Y169.577 E38.07702
G1 X169.034 Y169.564 E38.12191
G1 X167.057 Y169.507 E38.21401
G1 X164.419 Y169.505 E38.33684
G1 X161.748 Y169.58 E38.46127
G1 X159.08 Y169.73 E38.5857
G1 X156.437 Y169.954 E38.70921
G1 X153.795 Y170.253 E38.83301
G1 X151.137 Y170.631 E38.95803
G1 X148.524 Y171.078 E39.08147
G1 X145.918 Y171.599 E39.20521
G1 X145.529 Y171.686 E39.22377
G1 X144.859 Y171.825 E39.25564
G1 X144.259 Y171.933 E39.28402
G1 X143.784 Y172.005 E39.3064
G1 X143.125 Y172.067 E39.33722
G1 X142.485 Y172.077 E39.36702
G1 X141.984 Y172.069 E39.39035
G1 X141.24 Y172.01 E39.42511
G1 X140.739 Y171.934 E39.4487
G1 X140.231 Y171.842 E39.47274
G1 X139.624 Y171.698 E39.50179
G1 X139.08 Y171.523 E39.5284
G1 X138.537 Y171.33 E39.55523
G1 X137.87 Y171.043 E39.58904
G1 X137.352 Y170.775 E39.6162
G1 X136.923 Y170.535 E39.63909
G1 X136.355 Y170.172 E39.67048
G1 X135.95 Y169.87 E39.694
G1 X135.459 Y169.478 E39.72326
G1 X135.213 Y169.269 E39.73829
G1 X134.693 Y168.802 E39.77083
G1 X132.608 Y166.979 E39.8998
G1 X130.58 Y165.306 E40.02222
G1 X128.458 Y163.653 E40.14747
G1 X126.337 Y162.095 E40.27001
G1 X124.127 Y160.567 E40.39512
G1 X121.904 Y159.119 E40.51865
G1 X119.656 Y157.746 E40.64131
G1 X117.298 Y156.395 E40.76785
G1 X114.968 Y155.146 E40.89095
G1 X112.606 Y153.965 E41.01392
G1 X110.172 Y152.833 E41.13891
G1 X107.743 Y151.786 E41.26208
G1 X105.229 Y150.784 E41.3881
G1 X102.756 Y149.879 E41.51072
G1 X100.229 Y149.035 E41.63478
G1 X97.672 Y148.261 E41.75918
G1 X95.114 Y147.565 E41.88262
G1 X92.578 Y146.95 E42.00413
G1 X89.923 Y146.386 E42.13051
G1 X87.281 Y145.903 E42.25557
G1 X84.67 Y145.501 E42.37859
G1 X82.016 Y145.17 E42.50312
G1 X79.386 Y144.916 E42.62616
G1 X76.687 Y144.734 E42.75212
G1 X74.082 Y144.63 E42.87352
G1 X71.594 Y144.599 E42.98938
G1 X18.207 Y144.599 E45.4753
G1 X17.417 Y144.587 E45.51209
G1 X16.736 Y144.537 E45.54389
G1 X16.065 Y144.407 E45.57571
G1 X15.414 Y144.199 E45.60753
G1 X14.792 Y143.917 E45.63933
G1 X14.206 Y143.565 E45.67117
G1 X13.667 Y143.146 E45.70295
G1 X13.179 Y142.667 E45.7348
G1 X12.751 Y142.134 E45.76663
G1 X12.388 Y141.556 E45.79841
G1 X12.095 Y140.938 E45.83025
G1 X11.877 Y140.291 E45.86205
G1 X11.735 Y139.623 E45.89385
G1 X11.671 Y138.907 E45.92732
G1 X11.66 Y138.417 E45.95014
G1 X11.661 Y114.383 E47.06926
G1 X11.671 Y113.68 E47.102
G1 X11.72 Y112.999 E47.13379
G1 X11.849 Y112.328 E47.16561
G1 X12.056 Y111.676 E47.19746
G1 X12.337 Y111.053 E47.22929
G1 X12.688 Y110.468 E47.26106
G1 X13.131 Y109.899 E47.29463
G1 X13.367 Y109.645 E47.31078
G1 X13.776 Y109.231 E47.33788
G1 X15.02 Y108.003 E47.41927
G1 X16.849 Y106.091 E47.54248
G1 X18.645 Y104.103 E47.66723
G1 X20.382 Y102.07 E47.79174
G1 X22.047 Y100.005 E47.91526
G1 X23.651 Y97.894 E48.03871
G1 X25.224 Y95.7 E48.16442
G1 X26.693 Y93.524 E48.28667
G1 X28.124 Y91.266 E48.41115
G1 X29.476 Y88.995 E48.53422
G1 X30.789 Y86.643 E48.65964
