;FLAVOR:Marlin
;TIME:10236
;Filament used: 9.31451m
;Layer height: 0.2
;MINX:50.8
;MINY:48.3
;MINZ:0.2
;MAXX:159.2
;MAXY:161.7
;MAXZ:10
;Generated with Cura_SteamEngine 4.7.1
M140 S60
M105
M190 S60
M104 S200
M105
M109 S200
M82 ;absolute extrusion mode
G21 ;metric values
G90 ;absolute positioning
M82 ;set extruder to absolute mode
M107 ;start with the fan off
G28 X0 Y0 ;move X/Y to min endstops
G28 Z0 ;move Z to min endstops
G1 Z15.0 F100 ;move the platform down 15mm
G92 E0 ;zero the extruded length
G1 F200 E3 ;extrude 3mm of feed stock
G92 E0 ;zero the extruded length again
G1 F100
G0 Y20 F100
M117 Printing...
G5
G92 E0
G92 E0
G1 F2400 E-6
;LAYER_COUNT:50
;LAYER:0
M106 S255
M204 S3000
M205 X10 Y10
G1 F600 Z0.275
G0 F3000 X87.631 Y109.15 Z0.275
M204 S1800
M205 X8 Y8
;TYPE:SKIRT
G1 F600 Z0.2
G1 F2400 E0
G1 X88.116 Y108.833 E0.02698
G1 X88.64 Y108.586 E0.05395
G1 X89.193 Y108.414 E0.08092
G1 X89.765 Y108.319 E0.10792
G1 X90.164 Y108.3 E0.12652
G1 X97.836 Y108.3 E0.48376
G1 X98.414 Y108.34 E0.51074
G1 X98.981 Y108.459 E0.53772
G1 X99.526 Y108.655 E0.56469
G1 X100.039 Y108.924 E0.59166
G1 X100.51 Y109.261 E0.61863
G1 X100.97 Y109.694 E0.64804
G1 X101.35 Y110.131 E0.67501
G1 X101.667 Y110.616 E0.70199
G1 X101.914 Y111.14 E0.72896
G1 X102.086 Y111.693 E0.75593
G1 X102.181 Y112.265 E0.78293
G1 X102.2 Y112.664 E0.80153
G1 X102.2 Y133.336 E1.7641
G1 X102.16 Y133.914 E1.79108
G1 X102.041 Y134.481 E1.81806
G1 X101.845 Y135.026 E1.84503
G1 X101.576 Y135.539 E1.872
G1 X101.239 Y136.01 E1.89897
G1 X100.806 Y136.47 E1.92838
G1 X100.369 Y136.85 E1.95535
G1 X99.884 Y137.167 E1.98233
G1 X99.36 Y137.414 E2.0093
G1 X98.807 Y137.586 E2.03627
G1 X98.235 Y137.681 E2.06327
G1 X97.836 Y137.7 E2.08187
G1 X90.164 Y137.7 E2.43911
G1 X89.586 Y137.66 E2.46609
G1 X89.019 Y137.541 E2.49307
G1 X88.474 Y137.345 E2.52003
G1 X87.961 Y137.076 E2.54701
G1 X87.49 Y136.739 E2.57397
G1 X87.03 Y136.306 E2.60339
G1 X86.65 Y135.869 E2.63036
G1 X86.333 Y135.384 E2.65734
G1 X86.086 Y134.86 E2.68431
G1 X85.914 Y134.307 E2.71128
G1 X85.819 Y133.735 E2.73828
G1 X85.8 Y133.336 E2.75688
G1 X85.8 Y112.664 E3.71945
G1 X85.84 Y112.086 E3.74643
G1 X85.959 Y111.519 E3.77341
G1 X86.155 Y110.974 E3.80038
G1 X86.424 Y110.461 E3.82735
G1 X86.761 Y109.99 E3.85432
G1 X87.194 Y109.53 E3.88373
G1 X87.631 Y109.15 E3.9107
M204 S3000
M205 X10 Y10
G0 F3000 X87.999 Y109.574
M204 S1800
M205 X8 Y8
G1 F2400 X88.455 Y109.286 E3.93581
G1 X88.948 Y109.069 E3.96089
G1 X89.468 Y108.927 E3.98599
G1 X90.164 Y108.86 E4.01855
G1 X97.836 Y108.86 E4.37579
G1 X98.374 Y108.9 E4.40091
G1 X98.9 Y109.019 E4.42602
G1 X99.402 Y109.214 E4.4511
G1 X99.871 Y109.482 E4.47625
G1 X100.41 Y109.926 E4.50877
G1 X100.574 Y110.09 E4.51957
G1 X100.926 Y110.499 E4.5447
G1 X101.214 Y110.955 E4.56981
G1 X101.431 Y111.448 E4.59489
G1 X101.573 Y111.968 E4.61999
G1 X101.64 Y112.664 E4.65255
G1 X101.64 Y133.336 E5.61513
G1 X101.6 Y133.874 E5.64025
G1 X101.481 Y134.4 E5.66536
G1 X101.286 Y134.902 E5.69043
G1 X101.018 Y135.371 E5.71559
G1 X100.574 Y135.91 E5.7481
G1 X100.41 Y136.074 E5.7589
G1 X100.001 Y136.426 E5.78403
G1 X99.545 Y136.714 E5.80914
G1 X99.052 Y136.931 E5.83423
G1 X98.532 Y137.073 E5.85933
G1 X97.836 Y137.14 E5.89188
G1 X90.164 Y137.14 E6.24912
G1 X89.626 Y137.1 E6.27425
G1 X89.1 Y136.981 E6.29936
G1 X88.598 Y136.786 E6.32443
G1 X88.129 Y136.518 E6.34959
G1 X87.59 Y136.074 E6.3821
G1 X87.426 Y135.91 E6.3929
G1 X87.074 Y135.501 E6.41803
G1 X86.786 Y135.045 E6.44314
G1 X86.569 Y134.552 E6.46823
G1 X86.427 Y134.032 E6.49333
G1 X86.36 Y133.336 E6.52588
G1 X86.36 Y112.664 E7.48846
G1 X86.4 Y112.126 E7.51358
G1 X86.519 Y111.6 E7.53869
G1 X86.714 Y111.098 E7.56377
G1 X86.982 Y110.629 E7.58892
G1 X87.426 Y110.09 E7.62144
G1 X87.59 Y109.926 E7.63224
G1 X87.999 Y109.574 E7.65736
M204 S3000
M205 X10 Y10
G0 F3000 X88.364 Y110.001
M204 S1800
M205 X8 Y8
G1 F2400 X88.788 Y109.744 E7.68045
G1 X89.249 Y109.559 E7.70358
G1 X89.732 Y109.45 E7.72664
G1 X90.164 Y109.42 E7.7468
G1 X97.836 Y109.42 E8.10404
G1 X98.33 Y109.46 E8.12712
G1 X98.812 Y109.579 E8.15024
G1 X99.268 Y109.773 E8.17331
G1 X99.687 Y110.038 E8.1964
G1 X100.178 Y110.486 E8.22735
G1 X100.499 Y110.864 E8.25044
G1 X100.756 Y111.288 E8.27353
G1 X100.941 Y111.749 E8.29666
G1 X101.05 Y112.232 E8.31971
G1 X101.08 Y112.664 E8.33988
G1 X101.08 Y133.336 E9.30245
G1 X101.04 Y133.83 E9.32553
G1 X100.921 Y134.312 E9.34865
G1 X100.727 Y134.768 E9.37172
G1 X100.462 Y135.187 E9.39481
G1 X100.014 Y135.678 E9.42576
G1 X99.636 Y135.999 E9.44885
G1 X99.212 Y136.256 E9.47193
G1 X98.751 Y136.441 E9.49507
G1 X98.268 Y136.55 E9.51812
G1 X97.836 Y136.58 E9.53829
G1 X90.164 Y136.58 E9.89553
G1 X89.67 Y136.54 E9.9186
G1 X89.188 Y136.421 E9.94172
G1 X88.732 Y136.227 E9.9648
G1 X88.313 Y135.962 E9.98788
G1 X87.822 Y135.514 E10.01883
G1 X87.501 Y135.136 E10.04192
G1 X87.244 Y134.712 E10.06501
G1 X87.059 Y134.251 E10.08814
G1 X86.95 Y133.768 E10.1112
G1 X86.92 Y133.336 E10.13136
G1 X86.92 Y112.664 E11.09394
G1 X86.96 Y112.17 E11.11701
G1 X87.079 Y111.688 E11.14013
G1 X87.273 Y111.232 E11.16321
G1 X87.538 Y110.813 E11.18629
G1 X87.986 Y110.322 E11.21724
G1 X88.364 Y110.001 E11.24033
M204 S3000
M205 X10 Y10
G0 F3000 X88.726 Y110.43
M204 S1800
M205 X8 Y8
G1 F2400 X89.116 Y110.208 E11.26123
G1 X89.539 Y110.059 E11.28211
G1 X90.164 Y109.98 E11.31145
G1 X97.836 Y109.98 E11.66869
G1 X98.283 Y110.02 E11.68958
G1 X98.715 Y110.138 E11.71044
G1 X99.12 Y110.332 E11.73135
G1 X99.618 Y110.718 E11.76069
G1 X100.07 Y111.226 E11.79235
G1 X100.292 Y111.616 E11.81324
G1 X100.441 Y112.039 E11.83413
G1 X100.52 Y112.664 E11.86346
G1 X100.52 Y133.336 E12.82604
G1 X100.48 Y133.783 E12.84693
G1 X100.362 Y134.215 E12.86779
G1 X100.168 Y134.62 E12.8887
G1 X99.782 Y135.118 E12.91804
G1 X99.274 Y135.57 E12.9497
G1 X98.884 Y135.792 E12.97059
G1 X98.461 Y135.941 E12.99148
G1 X97.836 Y136.02 E13.02081
G1 X90.164 Y136.02 E13.37805
G1 X89.717 Y135.98 E13.39895
G1 X89.285 Y135.862 E13.4198
G1 X88.88 Y135.668 E13.44071
G1 X88.382 Y135.282 E13.47005
G1 X87.93 Y134.774 E13.50171
G1 X87.708 Y134.384 E13.52261
G1 X87.559 Y133.961 E13.54349
G1 X87.48 Y133.336 E13.57283
G1 X87.48 Y112.664 E14.5354
G1 X87.52 Y112.217 E14.5563
G1 X87.638 Y111.785 E14.57715
G1 X87.832 Y111.38 E14.59806
G1 X88.218 Y110.882 E14.6274
G1 X88.726 Y110.43 E14.65906
M204 S3000
M205 X10 Y10
G0 F3000 X89.084 Y110.864
M204 S1800
M205 X8 Y8
G1 F2400 X89.435 Y110.681 E14.6775
G1 X89.815 Y110.571 E14.69592
G1 X90.164 Y110.54 E14.71223
G1 X97.836 Y110.54 E15.06947
G1 X98.229 Y110.58 E15.08787
G1 X98.607 Y110.698 E15.10631
G1 X98.953 Y110.889 E15.12471
G1 X99.386 Y111.278 E15.15181
G1 X99.636 Y111.584 E15.17021
G1 X99.819 Y111.935 E15.18864
G1 X99.929 Y112.315 E15.20706
G1 X99.96 Y112.664 E15.22338
G1 X99.96 Y133.336 E16.18595
G1 X99.92 Y133.729 E16.20435
G1 X99.802 Y134.107 E16.22279
G1 X99.611 Y134.453 E16.24119
G1 X99.222 Y134.886 E16.26829
G1 X98.916 Y135.136 E16.28669
G1 X98.565 Y135.319 E16.30513
G1 X98.185 Y135.429 E16.32355
G1 X97.836 Y135.46 E16.33986
G1 X90.164 Y135.46 E16.6971
G1 X89.771 Y135.42 E16.7155
G1 X89.393 Y135.302 E16.73394
G1 X89.047 Y135.111 E16.75234
G1 X88.614 Y134.722 E16.77944
G1 X88.364 Y134.416 E16.79784
G1 X88.181 Y134.065 E16.81627
G1 X88.071 Y133.685 E16.83469
G1 X88.04 Y133.336 E16.85101
G1 X88.04 Y112.664 E17.81358
G1 X88.08 Y112.271 E17.83198
G1 X88.198 Y111.893 E17.85042
G1 X88.389 Y111.547 E17.86882
G1 X88.778 Y111.114 E17.89592
G1 X89.084 Y110.864 E17.91432
M204 S3000
M205 X10 Y10
G0 F3000 X89.437 Y111.304
M204 S1800
M205 X8 Y8
G1 F2400 X89.741 Y111.165 E17.92989
G1 X90.164 Y111.1 E17.94982
G1 X97.836 Y111.1 E18.30706
G1 X98.168 Y111.14 E18.32263
G1 X98.48 Y111.257 E18.33814
G1 X98.99 Y111.674 E18.36882
G1 X99.196 Y111.937 E18.38438
G1 X99.335 Y112.241 E18.39994
G1 X99.4 Y112.664 E18.41987
G1 X99.4 Y133.336 E19.38244
G1 X99.36 Y133.668 E19.39801
G1 X99.243 Y133.98 E19.41353
G1 X98.826 Y134.49 E19.44421
G1 X98.563 Y134.696 E19.45976
G1 X98.259 Y134.835 E19.47533
G1 X97.836 Y134.9 E19.49525
G1 X90.164 Y134.9 E19.85249
G1 X89.832 Y134.86 E19.86807
G1 X89.52 Y134.743 E19.88358
G1 X89.01 Y134.326 E19.91426
G1 X88.804 Y134.063 E19.92981
G1 X88.665 Y133.759 E19.94538
G1 X88.6 Y133.336 E19.96531
G1 X88.6 Y112.664 E20.92788
G1 X88.64 Y112.332 E20.94345
G1 X88.757 Y112.02 E20.95897
G1 X89.174 Y111.51 E20.98964
G1 X89.437 Y111.304 E21.0052
M204 S3000
M205 X10 Y10
G0 F3000 X89.779 Y111.754
M204 S1800
M205 X8 Y8
G1 F2400 X90.164 Y111.66 E21.02365
G1 X97.836 Y111.66 E21.38089
G1 X98.091 Y111.7 E21.39291
G1 X98.43 Y111.906 E21.41138
G1 X98.746 Y112.279 E21.43415
G1 X98.84 Y112.664 E21.4526
G1 X98.84 Y133.336 E22.41518
G1 X98.8 Y133.591 E22.42719
G1 X98.594 Y133.93 E22.44567
G1 X98.221 Y134.246 E22.46843
G1 X97.836 Y134.34 E22.48688
G1 X90.164 Y134.34 E22.84412
G1 X89.909 Y134.3 E22.85614
G1 X89.57 Y134.094 E22.87461
G1 X89.254 Y133.721 E22.89738
G1 X89.16 Y133.336 E22.91583
G1 X89.16 Y112.664 E23.87841
G1 X89.2 Y112.409 E23.89043
G1 X89.406 Y112.07 E23.9089
G1 X89.779 Y111.754 E23.93166
M204 S3000
M205 X10 Y10
G0 F3000 X89.966 Y112.302
M204 S1800
M205 X8 Y8
G1 F2400 X90.164 Y112.22 E23.94164
G1 X97.836 Y112.22 E24.29888
G1 X98.034 Y112.302 E24.30886
G1 X98.198 Y112.466 E24.31966
G1 X98.28 Y112.664 E24.32964
G1 X98.28 Y133.336 E25.29221
G1 X98.198 Y133.534 E25.30219
G1 X98.034 Y133.698 E25.31299
G1 X97.836 Y133.78 E25.32297
G1 X90.164 Y133.78 E25.68021
G1 X89.966 Y133.698 E25.69019
G1 X89.802 Y133.534 E25.70099
G1 X89.72 Y133.336 E25.71097
G1 X89.72 Y112.664 E26.67354
G1 X89.802 Y112.466 E26.68352
G1 X89.966 Y112.302 E26.69432
M204 S3000
M205 X10 Y10
G1 F2400 E20.69432
G0 F3000 X89.339 Y112.39
G0 X84.2 Y142.441
M204 S1800
M205 X8 Y8
G1 F2400 E26.69432
G1 X84.16 Y143.019 E26.7213
G1 X84.041 Y143.586 E26.74828
G1 X83.87 Y144.073 E26.77231
G1 X83.827 Y144.175 E26.77747
G1 X83.566 Y144.692 E26.80443
G1 X83.236 Y145.168 E26.8314
G1 X82.927 Y145.513 E26.85297
G1 X68.013 Y160.427 E27.83508
G1 X67.576 Y160.807 E27.86205
G1 X67.091 Y161.124 E27.88903
G1 X66.573 Y161.37 E27.91573
G1 X66.024 Y161.558 E27.94275
G1 X65.456 Y161.668 E27.96969
G1 X64.941 Y161.7 E27.99372
G1 X55.164 Y161.7 E28.44898
G1 X54.586 Y161.66 E28.47595
G1 X54.019 Y161.541 E28.50293
G1 X53.474 Y161.345 E28.5299
G1 X52.961 Y161.076 E28.55687
G1 X52.49 Y160.739 E28.58384
G1 X52.03 Y160.306 E28.61326
G1 X51.65 Y159.869 E28.64022
G1 X51.333 Y159.384 E28.6672
G1 X51.086 Y158.86 E28.69418
G1 X50.914 Y158.307 E28.72114
G1 X50.819 Y157.735 E28.74814
G1 X50.8 Y157.336 E28.76674
G1 X50.8 Y52.664 E33.64071
G1 X50.84 Y52.086 E33.66769
G1 X50.959 Y51.519 E33.69466
G1 X51.155 Y50.974 E33.72163
G1 X51.424 Y50.461 E33.74861
G1 X51.761 Y49.99 E33.77557
G1 X52.194 Y49.53 E33.80499
G1 X52.631 Y49.15 E33.83196
G1 X53.116 Y48.833 E33.85893
G1 X53.64 Y48.586 E33.88591
G1 X54.193 Y48.414 E33.91288
G1 X54.765 Y48.319 E33.93988
G1 X55.164 Y48.3 E33.95848
G1 X79.836 Y48.3 E35.10731
G1 X80.414 Y48.34 E35.13429
G1 X80.981 Y48.459 E35.16126
G1 X81.526 Y48.655 E35.18823
G1 X82.039 Y48.924 E35.2152
G1 X82.51 Y49.261 E35.24217
G1 X82.97 Y49.694 E35.27159
G1 X83.35 Y50.131 E35.29855
G1 X83.667 Y50.616 E35.32553
G1 X83.914 Y51.14 E35.35251
G1 X84.086 Y51.693 E35.37947
G1 X84.181 Y52.265 E35.40647
G1 X84.2 Y52.664 E35.42507
G1 X84.2 Y142.441 E39.60547
M204 S3000
M205 X10 Y10
G0 F3000 X83.64 Y142.441
M204 S1800
M205 X8 Y8
G1 F2400 X83.6 Y142.979 E39.63059
G1 X83.481 Y143.505 E39.6557
G1 X83.311 Y143.957 E39.67819
G1 X83.065 Y144.437 E39.7033
G1 X82.751 Y144.875 E39.7284
G1 X82.531 Y145.117 E39.74362
G1 X67.617 Y160.031 E40.72574
G1 X67.208 Y160.383 E40.75086
G1 X66.752 Y160.671 E40.77598
G1 X66.355 Y160.854 E40.79633
G1 X65.844 Y161.026 E40.82144
G1 X65.313 Y161.121 E40.84656
G1 X64.941 Y161.14 E40.8639
G1 X55.164 Y161.14 E41.31916
G1 X54.626 Y161.1 E41.34428
G1 X54.1 Y160.981 E41.36939
G1 X53.598 Y160.786 E41.39447
G1 X53.129 Y160.518 E41.41962
G1 X52.59 Y160.074 E41.45214
G1 X52.426 Y159.91 E41.46294
G1 X52.074 Y159.501 E41.48807
G1 X51.786 Y159.045 E41.51318
G1 X51.569 Y158.552 E41.53826
G1 X51.427 Y158.032 E41.56336
G1 X51.36 Y157.336 E41.59592
G1 X51.36 Y52.664 E46.46989
G1 X51.4 Y52.126 E46.49501
G1 X51.519 Y51.6 E46.52012
G1 X51.714 Y51.098 E46.54519
G1 X51.982 Y50.629 E46.57035
G1 X52.426 Y50.09 E46.60286
G1 X52.59 Y49.926 E46.61366
G1 X52.999 Y49.574 E46.63879
G1 X53.455 Y49.286 E46.6639
G1 X53.948 Y49.069 E46.68899
G1 X54.468 Y48.927 E46.71409
G1 X55.164 Y48.86 E46.74664
G1 X79.836 Y48.86 E47.89548
G1 X80.374 Y48.9 E47.9206
G1 X80.9 Y49.019 E47.94571
G1 X81.402 Y49.214 E47.97079
G1 X81.871 Y49.482 E47.99594
G1 X82.41 Y49.926 E48.02845
G1 X82.574 Y50.09 E48.03925
G1 X82.926 Y50.499 E48.06438
G1 X83.214 Y50.955 E48.08949
G1 X83.431 Y51.448 E48.11458
G1 X83.573 Y51.968 E48.13968
G1 X83.64 Y52.664 E48.17223
G1 X83.64 Y142.441 E52.35263
M204 S3000
M205 X10 Y10
G0 F3000 X83.08 Y142.441
M204 S1800
M205 X8 Y8
G1 F2400 X83.04 Y142.935 E52.37571
G1 X82.838 Y143.637 E52.40972
G1 X82.566 Y144.179 E52.43796
G1 X82.135 Y144.721 E52.4702
G1 X67.221 Y159.635 E53.45232
G1 X66.843 Y159.956 E53.47541
G1 X66.239 Y160.295 E53.50766
G1 X65.666 Y160.493 E53.53589
G1 X64.941 Y160.58 E53.56989
G1 X55.164 Y160.58 E54.02515
G1 X54.67 Y160.54 E54.04823
G1 X54.188 Y160.421 E54.07134
G1 X53.732 Y160.227 E54.09442
G1 X53.313 Y159.962 E54.1175
G1 X52.822 Y159.514 E54.14845
G1 X52.501 Y159.136 E54.17154
G1 X52.244 Y158.712 E54.19463
G1 X52.059 Y158.251 E54.21776
G1 X51.95 Y157.768 E54.24082
G1 X51.92 Y157.336 E54.26098
G1 X51.92 Y52.664 E59.13495
G1 X51.96 Y52.17 E59.15803
G1 X52.079 Y51.688 E59.18114
G1 X52.273 Y51.232 E59.20422
G1 X52.538 Y50.813 E59.2273
G1 X52.986 Y50.322 E59.25825
G1 X53.364 Y50.001 E59.28135
G1 X53.788 Y49.744 E59.30443
G1 X54.249 Y49.559 E59.32756
G1 X54.732 Y49.45 E59.35062
G1 X55.164 Y49.42 E59.37078
G1 X79.836 Y49.42 E60.51961
G1 X80.33 Y49.46 E60.54269
G1 X80.812 Y49.579 E60.56581
G1 X81.268 Y49.773 E60.58889
G1 X81.687 Y50.038 E60.61197
G1 X82.178 Y50.486 E60.64292
G1 X82.499 Y50.864 E60.66601
G1 X82.756 Y51.288 E60.6891
G1 X82.941 Y51.749 E60.71223
G1 X83.05 Y52.232 E60.73528
G1 X83.08 Y52.664 E60.75545
G1 X83.08 Y142.441 E64.93584
M204 S3000
M205 X10 Y10
G0 F3000 X82.52 Y142.441
M204 S1800
M205 X8 Y8
G1 F2400 X82.48 Y142.888 E64.95674
G1 X82.322 Y143.42 E64.98258
G1 X82.069 Y143.918 E65.00859
G1 X81.739 Y144.325 E65.03299
G1 X66.825 Y159.239 E66.0151
G1 X66.481 Y159.527 E66.03599
G1 X66.022 Y159.779 E66.06037
G1 X65.493 Y159.959 E66.08639
G1 X64.941 Y160.02 E66.11225
G1 X55.164 Y160.02 E66.56751
G1 X54.717 Y159.98 E66.58841
G1 X54.285 Y159.862 E66.60926
G1 X53.88 Y159.668 E66.63017
G1 X53.382 Y159.282 E66.65951
G1 X52.93 Y158.774 E66.69117
G1 X52.708 Y158.384 E66.71207
G1 X52.559 Y157.961 E66.73295
G1 X52.48 Y157.336 E66.76229
G1 X52.48 Y52.664 E71.63625
G1 X52.52 Y52.217 E71.65715
G1 X52.638 Y51.785 E71.678
G1 X52.832 Y51.38 E71.69891
G1 X53.218 Y50.882 E71.72825
G1 X53.726 Y50.43 E71.75992
G1 X54.116 Y50.208 E71.78081
G1 X54.539 Y50.059 E71.8017
G1 X55.164 Y49.98 E71.83103
G1 X79.836 Y49.98 E72.97986
G1 X80.283 Y50.02 E73.00076
G1 X80.715 Y50.138 E73.02161
G1 X81.12 Y50.332 E73.04252
G1 X81.618 Y50.718 E73.07186
G1 X82.07 Y51.226 E73.10352
G1 X82.292 Y51.616 E73.12442
G1 X82.441 Y52.039 E73.1453
G1 X82.52 Y52.664 E73.17464
G1 X82.52 Y142.441 E77.35503
M204 S3000
M205 X10 Y10
G0 F3000 X81.96 Y142.441
M204 S1800
M205 X8 Y8
G1 F2400 X81.92 Y142.834 E77.37342
G1 X81.763 Y143.304 E77.3965
G1 X81.573 Y143.651 E77.41492
G1 X81.343 Y143.929 E77.43172
G1 X66.429 Y158.843 E78.41383
G1 X66.123 Y159.093 E78.43223
G1 X65.702 Y159.306 E78.4542
G1 X65.324 Y159.422 E78.47261
G1 X64.941 Y159.46 E78.49053
G1 X55.164 Y159.46 E78.94579
G1 X54.771 Y159.42 E78.96419
G1 X54.393 Y159.302 E78.98263
G1 X54.047 Y159.111 E79.00103
G1 X53.614 Y158.722 E79.02813
G1 X53.364 Y158.416 E79.04653
G1 X53.181 Y158.065 E79.06496
G1 X53.071 Y157.685 E79.08338
G1 X53.04 Y157.336 E79.0997
G1 X53.04 Y52.664 E83.97367
G1 X53.08 Y52.271 E83.99206
G1 X53.198 Y51.893 E84.0105
G1 X53.389 Y51.547 E84.0289
G1 X53.778 Y51.114 E84.05601
G1 X54.084 Y50.864 E84.07441
G1 X54.435 Y50.681 E84.09284
G1 X54.815 Y50.571 E84.11126
