;FLAVOR:Marlin
;TIME:7835
;Filament used: 7.61081m
;Layer height: 0.2
;MINX:62.8
;MINY:67.928
;MINZ:0.2
;MAXX:147.2
;MAXY:145.2
;MAXZ:20
;Generated with Cura_SteamEngine 4.7.1
M140 S60
M105
M190 S60
M104 S200
M105
M109 S200
M82 ;absolute extrusion mode
G21 ;metric values
G90 ;absolute positioning
M82 ;set extruder to absolute mode
M107 ;start with the fan off
G28 X0 Y0 ;move X/Y to min endstops
G28 Z0 ;move Z to min endstops
G1 Z15.0 F100 ;move the platform down 15mm
G92 E0 ;zero the extruded length
G1 F200 E3 ;extrude 3mm of feed stock
G92 E0 ;zero the extruded length again
G1 F100
G0 Y20 F100
M117 Printing...
G5
G92 E0
G92 E0
G1 F2400 E-6
;LAYER_COUNT:100
;LAYER:0
M106 S255
M204 S3000
M205 X10 Y10
G1 F600 Z0.275
G0 F3000 X64.387 Y69.034 Z0.275
M204 S1800
M205 X8 Y8
;TYPE:SKIRT
G1 F600 Z0.2
G1 F2400 E0
G1 X64.544 Y68.903 E0.00952
G1 X65.014 Y68.564 E0.03651
G1 X65.525 Y68.292 E0.06346
G1 X66.069 Y68.093 E0.09043
G1 X66.636 Y67.971 E0.11744
G1 X67.243 Y67.928 E0.14577
G1 X69.33 Y67.932 E0.24295
G1 X78.682 Y67.961 E0.67842
G1 X90.324 Y67.962 E1.22052
G1 X90.902 Y68.002 E1.2475
G1 X91.76 Y68.188 E1.28838
G1 X92.312 Y68.364 E1.31536
G1 X92.835 Y68.613 E1.34233
G1 X93.46 Y69.045 E1.37771
G1 X93.617 Y69.176 E1.38723
G1 X94.035 Y69.577 E1.41421
G1 X94.394 Y70.032 E1.44119
G1 X94.72 Y70.599 E1.47165
G1 X94.948 Y71.079 E1.49639
G1 X95.16 Y71.618 E1.52336
G1 X95.295 Y72.181 E1.55032
G1 X95.352 Y72.758 E1.57732
G1 X95.321 Y73.407 E1.60757
G1 X95.262 Y73.874 E1.62949
G1 X95.104 Y74.601 E1.66413
G1 X95.094 Y74.633 E1.66569
G1 X94.892 Y75.154 E1.69171
G1 X93.704 Y77.705 E1.82275
G1 X93.537 Y78.084 E1.84203
G1 X93.168 Y78.937 E1.88531
G1 X92.67 Y80.137 E1.94581
G1 X92.665 Y80.153 E1.94659
G1 X92.153 Y81.455 E2.01173
G1 X91.687 Y82.713 E2.0742
G1 X91.541 Y83.126 E2.0946
G1 X91.253 Y83.95 E2.13524
G1 X90.823 Y85.264 E2.19962
G1 X90.453 Y86.473 E2.2585
G1 X90.07 Y87.827 E2.32402
G1 X89.743 Y89.082 E2.38441
G1 X89.436 Y90.373 E2.4462
G1 X89.161 Y91.656 E2.5073
G1 X88.91 Y92.977 E2.56991
G1 X88.702 Y94.241 E2.62956
G1 X88.507 Y95.62 E2.69441
G1 X88.36 Y96.87 E2.75301
G1 X88.234 Y98.22 E2.81615
G1 X88.136 Y99.602 E2.88066
G1 X88.077 Y100.858 E2.93921
G1 X88.046 Y102.209 E3.00214
G1 X88.046 Y103.518 E3.06309
G1 X88.078 Y104.869 E3.12601
G1 X88.14 Y106.171 E3.18671
G1 X88.234 Y107.489 E3.24824
G1 X88.355 Y108.775 E3.30838
G1 X88.41 Y109.255 E3.33088
G1 X88.517 Y110.151 E3.3729
G1 X88.701 Y111.477 E3.43523
G1 X88.909 Y112.767 E3.49608
G1 X89.151 Y114.088 E3.55861
G1 X89.247 Y114.581 E3.582
G1 X89.418 Y115.42 E3.62187
G1 X89.709 Y116.734 E3.68454
G1 X90.203 Y118.729 E3.78024
G1 X90.761 Y120.752 E3.87796
G1 X90.98 Y121.479 E3.91331
G1 X91.389 Y122.821 E3.97864
G1 X92.033 Y124.772 E4.07431
G1 X92.041 Y124.79 E4.07522
G1 X92.291 Y125.497 E4.11014
G1 X92.764 Y126.821 E4.17561
G1 X93.504 Y128.761 E4.27229
G1 X94.322 Y130.77 E4.3733
G1 X95.15 Y132.694 E4.47083
G1 X95.622 Y133.728 E4.52376
G1 X96.487 Y135.606 E4.62003
G1 X97.109 Y136.829 E4.68392
G1 X97.335 Y137.363 E4.71092
G1 X97.486 Y137.922 E4.73789
G1 X97.558 Y138.497 E4.76487
G1 X97.551 Y139.076 E4.79183
G1 X97.464 Y139.649 E4.81882
G1 X97.299 Y140.204 E4.84578
G1 X96.944 Y140.931 E4.88345
G1 X96.78 Y141.198 E4.89804
G1 X96.443 Y141.67 E4.92505
G1 X96.045 Y142.091 E4.95203
G1 X95.593 Y142.452 E4.97896
G1 X95.095 Y142.749 E5.00596
G1 X94.561 Y142.974 E5.03294
G1 X94.001 Y143.123 E5.05993
G1 X93.201 Y143.2 E5.09735
G1 X88.461 Y143.2 E5.31807
G1 X87.97 Y143.806 E5.35438
G1 X87.806 Y143.97 E5.36518
G1 X87.369 Y144.35 E5.39215
G1 X86.884 Y144.667 E5.41913
G1 X86.36 Y144.914 E5.4461
G1 X85.807 Y145.086 E5.47307
G1 X85.235 Y145.181 E5.50007
G1 X84.836 Y145.2 E5.51867
G1 X69.093 Y145.2 E6.25173
G1 X68.515 Y145.16 E6.27871
G1 X67.948 Y145.041 E6.30568
G1 X67.403 Y144.845 E6.33265
G1 X66.874 Y144.566 E6.3605
G1 X66.739 Y144.482 E6.36791
G1 X66.27 Y144.143 E6.39485
G1 X65.851 Y143.742 E6.42186
G1 X65.492 Y143.288 E6.44881
G1 X65.201 Y142.794 E6.47551
G1 X63.257 Y138.905 E6.67796
G1 X63.035 Y138.37 E6.70493
G1 X62.913 Y137.938 E6.72583
G1 X62.819 Y137.366 E6.75282
G1 X62.8 Y136.968 E6.77138
G1 X62.8 Y73.386 E9.73202
G1 X62.801 Y73.282 E9.73686
G1 X62.82 Y72.514 E9.77264
G1 X62.875 Y71.937 E9.79963
G1 X62.934 Y71.578 E9.81657
G1 X63.067 Y71.014 E9.84355
G1 X63.276 Y70.474 E9.87051
G1 X63.558 Y69.968 E9.89748
G1 X63.907 Y69.505 E9.92448
G1 X64.387 Y69.034 E9.9558
M204 S3000
M205 X10 Y10
G0 F3000 X64.903 Y69.333
M204 S1800
M205 X8 Y8
G1 F2400 X65.341 Y69.019 E9.98089
G1 X65.822 Y68.774 E10.00603
G1 X66.333 Y68.602 E10.03113
G1 X66.864 Y68.507 E10.05625
G1 X67.242 Y68.488 E10.07387
G1 X69.328 Y68.492 E10.17101
G1 X78.68 Y68.521 E10.60648
G1 X90.324 Y68.522 E11.14867
G1 X90.862 Y68.562 E11.17379
G1 X91.627 Y68.733 E11.21029
G1 X92.141 Y68.898 E11.23543
G1 X92.624 Y69.138 E11.26054
G1 X93.101 Y69.475 E11.28774
G1 X93.258 Y69.606 E11.29726
G1 X93.645 Y69.981 E11.32235
G1 X93.973 Y70.41 E11.3475
G1 X94.214 Y70.839 E11.37041
G1 X94.442 Y71.319 E11.39515
G1 X94.637 Y71.822 E11.42028
G1 X94.755 Y72.348 E11.44538
G1 X94.794 Y72.886 E11.47049
G1 X94.706 Y73.804 E11.51344
G1 X94.569 Y74.434 E11.54346
G1 X94.384 Y74.917 E11.56754
G1 X93.214 Y77.428 E11.69653
G1 X93.013 Y77.884 E11.71974
G1 X92.654 Y78.714 E11.76185
G1 X92.145 Y79.94 E11.82366
G1 X92.143 Y79.948 E11.82404
G1 X91.657 Y81.183 E11.88584
G1 X91.18 Y82.471 E11.9498
G1 X91.013 Y82.939 E11.97293
G1 X90.735 Y83.734 E12.01215
G1 X90.303 Y85.053 E12.07678
G1 X89.915 Y86.316 E12.1383
G1 X89.531 Y87.675 E12.20406
G1 X89.208 Y88.914 E12.26368
G1 X88.898 Y90.215 E12.32596
G1 X88.611 Y91.551 E12.38959
G1 X88.363 Y92.86 E12.45162
G1 X88.135 Y94.244 E12.51694
G1 X87.955 Y95.52 E12.57694
G1 X87.797 Y96.865 E12.64
G1 X87.675 Y98.175 E12.70126
G1 X87.58 Y99.522 E12.76414
G1 X87.517 Y100.862 E12.82661
G1 X87.486 Y102.196 E12.88874
G1 X87.486 Y103.532 E12.95095
G1 X87.518 Y104.864 E13.01299
G1 X87.581 Y106.197 E13.07513
G1 X87.673 Y107.498 E13.13586
G1 X87.805 Y108.901 E13.20148
G1 X87.853 Y109.321 E13.22116
G1 X87.955 Y110.177 E13.26131
G1 X88.138 Y111.499 E13.32345
G1 X88.358 Y112.865 E13.38788
G1 X88.608 Y114.23 E13.45249
G1 X88.697 Y114.688 E13.47422
G1 X88.863 Y115.501 E13.51286
G1 X89.165 Y116.863 E13.57782
G1 X89.658 Y118.859 E13.67355
G1 X90.234 Y120.944 E13.77428
G1 X90.445 Y121.643 E13.80828
G1 X90.85 Y122.97 E13.87288
G1 X91.509 Y124.968 E13.97084
G1 X91.513 Y124.976 E13.97126
G1 X91.764 Y125.686 E14.00633
G1 X92.239 Y127.014 E14.072
G1 X92.995 Y128.997 E14.17082
G1 X93.788 Y130.945 E14.26876
G1 X94.659 Y132.97 E14.3714
G1 X95.113 Y133.962 E14.4222
G1 X95.98 Y135.843 E14.51864
G1 X96.61 Y137.083 E14.58341
G1 X96.818 Y137.581 E14.60854
G1 X96.95 Y138.103 E14.63361
G1 X97.004 Y138.64 E14.65874
G1 X96.978 Y139.179 E14.68387
G1 X96.872 Y139.707 E14.70894
G1 X96.69 Y140.215 E14.73407
G1 X96.303 Y140.905 E14.77091
G1 X95.987 Y141.342 E14.79602
G1 X95.61 Y141.728 E14.82114
G1 X95.181 Y142.054 E14.84623
G1 X94.708 Y142.313 E14.87134
G1 X94.202 Y142.5 E14.89646
G1 X93.674 Y142.609 E14.92157
G1 X93.201 Y142.64 E14.94364
G1 X88.15 Y142.64 E15.17884
G1 X88.018 Y142.871 E15.19122
G1 X87.574 Y143.41 E15.22374
G1 X87.41 Y143.574 E15.23454
G1 X87.001 Y143.926 E15.25967
G1 X86.545 Y144.214 E15.28478
G1 X86.052 Y144.431 E15.30986
G1 X85.532 Y144.573 E15.33496
G1 X84.836 Y144.64 E15.36752
G1 X69.093 Y144.64 E16.10058
G1 X68.555 Y144.6 E16.1257
G1 X68.029 Y144.481 E16.15081
G1 X67.527 Y144.286 E16.17589
G1 X67.035 Y144.007 E16.20223
G1 X66.599 Y143.689 E16.22736
G1 X66.216 Y143.31 E16.25245
G1 X65.892 Y142.878 E16.27759
G1 X65.702 Y142.544 E16.29548
G1 X63.758 Y138.655 E16.49793
G1 X63.553 Y138.156 E16.52305
G1 X63.458 Y137.808 E16.53985
G1 X63.373 Y137.276 E16.56494
G1 X63.36 Y136.968 E16.57929
G1 X63.36 Y73.386 E19.53994
G1 X63.361 Y73.296 E19.54413
G1 X63.38 Y72.528 E19.5799
G1 X63.427 Y72.028 E19.60329
G1 X63.486 Y71.669 E19.62023
G1 X63.613 Y71.145 E19.64533
G1 X63.815 Y70.645 E19.67044
G1 X64.09 Y70.181 E19.69556
G1 X64.43 Y69.762 E19.72068
G1 X64.903 Y69.333 E19.75042
M204 S3000
M205 X10 Y10
G0 F3000 X65.105 Y69.894
M204 S1800
M205 X8 Y8
G1 F2400 X65.667 Y69.477 E19.783
G1 X66.113 Y69.26 E19.8061
G1 X66.588 Y69.117 E19.8292
G1 X67.241 Y69.048 E19.85977
G1 X69.327 Y69.052 E19.95691
G1 X78.679 Y69.081 E20.39238
G1 X90.324 Y69.082 E20.93462
G1 X91.05 Y69.169 E20.96866
G1 X91.966 Y69.432 E21.01304
G1 X92.406 Y69.661 E21.03614
G1 X92.899 Y70.036 E21.06498
G1 X93.253 Y70.384 E21.08809
G1 X93.547 Y70.783 E21.11117
G1 X93.708 Y71.08 E21.1269
G1 X93.936 Y71.56 E21.15165
G1 X94.112 Y72.023 E21.17471
G1 X94.211 Y72.509 E21.19781
G1 X94.21 Y73.267 E21.2331
G1 X94.151 Y73.734 E21.25502
G1 X94.035 Y74.267 E21.28042
G1 X93.877 Y74.681 E21.30105
G1 X92.675 Y77.261 E21.43359
G1 X92.509 Y77.639 E21.45281
G1 X92.158 Y78.45 E21.49396
G1 X91.622 Y79.743 E21.55914
G1 X91.132 Y80.988 E21.62144
G1 X90.652 Y82.284 E21.68579
G1 X90.486 Y82.752 E21.70891
G1 X90.184 Y83.617 E21.75158
G1 X89.777 Y84.859 E21.81243
G1 X89.367 Y86.196 E21.87755
G1 X88.992 Y87.523 E21.94176
G1 X88.664 Y88.782 E22.00234
G1 X88.336 Y90.162 E22.06839
G1 X88.062 Y91.436 E22.12907
G1 X88.061 Y91.447 E22.12959
G1 X87.806 Y92.79 E22.19324
G1 X87.59 Y94.105 E22.25529
G1 X87.399 Y95.462 E22.3191
G1 X87.242 Y96.792 E22.38146
G1 X87.113 Y98.179 E22.44633
G1 X87.023 Y99.449 E22.50561
G1 X86.956 Y100.876 E22.57213
G1 X86.926 Y102.183 E22.63301
G1 X86.926 Y103.545 E22.69643
G1 X86.957 Y104.848 E22.75712
G1 X87.023 Y106.262 E22.82303
G1 X87.118 Y107.585 E22.88479
G1 X87.244 Y108.919 E22.94719
G1 X87.297 Y109.387 E22.96912
G1 X87.399 Y110.243 E23.00926
G1 X87.591 Y111.625 E23.07423
G1 X87.802 Y112.936 E23.13606
G1 X88.057 Y114.331 E23.20209
G1 X88.142 Y114.768 E23.22282
G1 X88.323 Y115.656 E23.26502
G1 X88.618 Y116.984 E23.32837
G1 X89.118 Y119.008 E23.42545
G1 X89.705 Y121.135 E23.52819
G1 X90.307 Y123.112 E23.62442
G1 X90.977 Y125.143 E23.72401
G1 X91.236 Y125.874 E23.76012
G1 X91.706 Y127.188 E23.8251
G1 X92.461 Y129.169 E23.92381
G1 X93.296 Y131.22 E24.02693
G1 X94.121 Y133.139 E24.12419
G1 X94.604 Y134.196 E24.17831
G1 X95.482 Y136.102 E24.27602
G1 X96.11 Y137.337 E24.34054
G1 X96.299 Y137.796 E24.36365
G1 X96.411 Y138.279 E24.38674
G1 X96.445 Y138.774 E24.40984
G1 X96.398 Y139.267 E24.4329
G1 X96.273 Y139.747 E24.456
G1 X95.989 Y140.345 E24.48682
G1 X95.533 Y141.012 E24.52445
G1 X95.179 Y141.361 E24.54759
G1 X94.775 Y141.648 E24.57067
G1 X94.33 Y141.866 E24.59374
G1 X93.855 Y142.01 E24.61686
G1 X93.201 Y142.08 E24.64748
G1 X87.807 Y142.08 E24.89865
G1 X87.462 Y142.687 E24.93116
G1 X87.014 Y143.178 E24.96211
G1 X86.636 Y143.499 E24.9852
G1 X86.212 Y143.756 E25.00829
G1 X85.751 Y143.941 E25.03142
G1 X85.268 Y144.05 E25.05448
G1 X84.836 Y144.08 E25.07464
G1 X69.093 Y144.08 E25.8077
G1 X68.599 Y144.04 E25.83078
G1 X68.117 Y143.921 E25.8539
G1 X67.466 Y143.615 E25.88739
G1 X66.932 Y143.236 E25.91788
G1 X66.586 Y142.881 E25.94096
G1 X66.203 Y142.293 E25.97364
G1 X64.259 Y138.404 E26.17609
G1 X64.017 Y137.738 E26.20909
G1 X64.003 Y137.679 E26.21191
G1 X63.92 Y136.968 E26.24524
G1 X63.92 Y73.386 E29.20589
G1 X63.94 Y72.542 E29.2452
G1 X64.039 Y71.76 E29.2819
G1 X64.158 Y71.278 E29.30502
G1 X64.354 Y70.822 E29.32813
G1 X64.62 Y70.404 E29.3512
G1 X65.105 Y69.894 E29.38397
M204 S3000
M205 X10 Y10
G0 F3000 X65.621 Y70.193
M204 S1800
M205 X8 Y8
G1 F2400 X65.989 Y69.938 E29.40482
G1 X66.397 Y69.751 E29.42572
G1 X66.832 Y69.64 E29.44663
G1 X67.24 Y69.608 E29.46568
G1 X69.325 Y69.612 E29.56277
G1 X78.677 Y69.641 E29.99824
G1 X90.324 Y69.642 E30.54057
G1 X90.918 Y69.713 E30.56843
G1 X91.788 Y69.965 E30.6106
G1 X92.383 Y70.335 E30.64323
G1 X92.858 Y70.783 E30.67363
G1 X93.202 Y71.32 E30.70333
G1 X93.43 Y71.8 E30.72807
G1 X93.586 Y72.22 E30.74894
G1 X93.664 Y72.662 E30.76983
G1 X93.654 Y73.197 E30.79475
G1 X93.5 Y74.1 E30.83741
G1 X93.369 Y74.444 E30.85455
G1 X92.189 Y76.976 E30.98462
G1 X91.995 Y77.417 E31.00706
G1 X91.626 Y78.27 E31.05033
G1 X91.101 Y79.538 E31.11424
G1 X90.607 Y80.794 E31.17708
G1 X90.112 Y82.13 E31.24342
G1 X89.958 Y82.564 E31.26487
G1 X89.671 Y83.386 E31.30541
G1 X89.227 Y84.741 E31.3718
G1 X88.838 Y86.009 E31.43356
G1 X88.467 Y87.321 E31.49705
G1 X88.106 Y88.706 E31.5637
G1 X87.797 Y90.006 E31.62592
G1 X87.512 Y91.332 E31.68907
G1 X87.511 Y91.343 E31.68959
G1 X87.257 Y92.681 E31.753
G1 X87.03 Y94.062 E31.81817
G1 X86.847 Y95.359 E31.87916
G1 X86.681 Y96.771 E31.94536
G1 X86.56 Y98.071 E32.00616
G1 X86.46 Y99.483 E32.07207
G1 X86.397 Y100.824 E32.13458
G1 X86.366 Y102.155 E32.19658
G1 X86.366 Y103.577 E32.26279
G1 X86.398 Y104.902 E32.32451
G1 X86.461 Y106.241 E32.38692
G1 X86.561 Y107.635 E32.452
G1 X86.688 Y108.985 E32.51514
G1 X86.742 Y109.465 E32.53763
G1 X86.844 Y110.32 E32.57773
G1 X87.032 Y111.677 E32.64152
G1 X87.251 Y113.036 E32.70562
G1 X87.502 Y114.409 E32.77061
G1 X87.598 Y114.902 E32.794
G1 X87.769 Y115.744 E32.834
G1 X88.072 Y117.11 E32.89916
G1 X88.571 Y119.132 E32.99613
G1 X89.153 Y121.24 E33.09796
G1 X89.373 Y121.97 E33.13346
G1 X89.774 Y123.285 E33.19748
G1 X90.451 Y125.337 E33.2981
G1 X90.457 Y125.35 E33.29876
G1 X90.709 Y126.063 E33.33398
G1 X91.174 Y127.364 E33.39831
G1 X91.96 Y129.426 E33.50106
G1 X92.764 Y131.4 E33.60031
G1 X93.623 Y133.395 E33.70145
G1 X94.096 Y134.431 E33.75448
G1 X94.98 Y136.35 E33.85287
G1 X95.611 Y137.591 E33.91769
G1 X95.778 Y138.007 E33.93857
G1 X95.869 Y138.446 E33.95944
G1 X95.88 Y138.895 E33.98036
G1 X95.811 Y139.338 E34.00123
G1 X95.665 Y139.762 E34.02211
G1 X95.348 Y140.319 E34.05196
G1 X95.08 Y140.679 E34.07285
G1 X94.753 Y140.985 E34.09371
G1 X94.376 Y141.229 E34.11462
G1 X93.963 Y141.402 E34.13547
G1 X93.525 Y141.499 E34.15636
G1 X93.201 Y141.52 E34.17148
G1 X87.415 Y141.52 E34.4409
G1 X87.362 Y141.715 E34.45031
G1 X87.168 Y142.12 E34.47122
G1 X86.782 Y142.618 E34.50056
G1 X86.274 Y143.07 E34.53222
G1 X85.884 Y143.292 E34.55311
G1 X85.461 Y143.441 E34.574
G1 X84.836 Y143.52 E34.60333
G1 X69.093 Y143.52 E35.33639
G1 X68.646 Y143.48 E35.35729
G1 X68.214 Y143.362 E35.37814
G1 X67.762 Y143.14 E35.40159
G1 X67.268 Y142.786 E35.42989
G1 X66.964 Y142.457 E35.45075
G1 X66.704 Y142.043 E35.47351
G1 X64.76 Y138.154 E35.67596
G1 X64.562 Y137.609 E35.70296
G1 X64.548 Y137.55 E35.70579
G1 X64.48 Y136.968 E35.73307
G1 X64.48 Y73.386 E38.69372
G1 X64.5 Y72.556 E38.73238
G1 X64.591 Y71.85 E38.76552
G1 X64.703 Y71.416 E38.78639
G1 X64.89 Y71.008 E38.80729
G1 X65.147 Y70.64 E38.82819
G1 X65.621 Y70.193 E38.85853
M204 S3000
M205 X10 Y10
G0 F3000 X65.822 Y70.754
M204 S1800
M205 X8 Y8
G1 F2400 X66.307 Y70.402 E38.88643
G1 X66.672 Y70.25 E38.90485
G1 X67.239 Y70.168 E38.93152
G1 X69.323 Y70.172 E39.02856
G1 X78.675 Y70.201 E39.46403
G1 X90.324 Y70.202 E40.00646
G1 X90.786 Y70.257 E40.02812
G1 X91.604 Y70.497 E40.06782
G1 X92.182 Y70.896 E40.10052
G1 X92.458 Y71.179 E40.11893
G1 X92.696 Y71.56 E40.13985
G1 X92.924 Y72.04 E40.16459
G1 X93.057 Y72.413 E40.18303
G1 X93.112 Y72.804 E40.20142
G1 X93.04 Y73.594 E40.23835
G1 X92.862 Y74.208 E40.26812
G1 X91.66 Y76.788 E40.40066
G1 X91.475 Y77.207 E40.42198
G1 X91.112 Y78.047 E40.46459
G1 X90.587 Y79.312 E40.52837
G1 X90.58 Y79.333 E40.5294
G1 X90.082 Y80.599 E40.59275
G1 X89.587 Y81.935 E40.65909
G1 X89.43 Y82.377 E40.68093
G1 X89.139 Y83.211 E40.72206
G1 X88.695 Y84.566 E40.78846
G1 X88.288 Y85.894 E40.85313
G1 X87.925 Y87.179 E40.91531
G1 X87.564 Y88.564 E40.98196
G1 X87.246 Y89.903 E41.04604
G1 X86.963 Y91.219 E41.10872
G1 X86.961 Y91.238 E41.10961
G1 X86.7 Y92.614 E41.17482
G1 X86.484 Y93.927 E41.23678
G1 X86.291 Y95.294 E41.30107
G1 X86.128 Y96.681 E41.3661
G1 X85.998 Y98.075 E41.43129
G1 X85.904 Y99.397 E41.493
G1 X85.837 Y100.824 E41.55952
G1 X85.806 Y102.155 E41.62152
G1 X85.806 Y103.577 E41.68773
G1 X85.838 Y104.9 E41.74935
G1 X85.904 Y106.311 E41.81513
G1 X86.002 Y107.684 E41.87922
G1 X86.132 Y109.055 E41.94335
G1 X86.185 Y109.519 E41.96509
G1 X86.289 Y110.397 E42.00626
G1 X86.479 Y111.766 E42.07062
G1 X86.699 Y113.133 E42.13509
G1 X86.952 Y114.516 E42.20056
G1 X87.047 Y115.009 E42.22394
G1 X87.222 Y115.865 E42.26462
G1 X87.521 Y117.212 E42.32887
G1 X88.038 Y119.306 E42.4293
G1 X88.617 Y121.403 E42.5306
