;FLAVOR:Marlin
;TIME:1233
;Filament used: 1.30615m
;Layer height: 0.2
;MINX:86.8
;MINY:82.3
;MINZ:0.2
;MAXX:123.2
;MAXY:127.5
;MAXZ:8
;Generated with Cura_SteamEngine 4.7.1
M140 S60
M105
M190 S60
M104 S200
M105
M109 S200
M82 ;absolute extrusion mode
G21 ;metric values
G90 ;absolute positioning
M82 ;set extruder to absolute mode
M107 ;start with the fan off
G28 X0 Y0 ;move X/Y to min endstops
G28 Z0 ;move Z to min endstops
G1 Z15.0 F100 ;move the platform down 15mm
G92 E0 ;zero the extruded length
G1 F200 E3 ;extrude 3mm of feed stock
G92 E0 ;zero the extruded length again
G1 F100
G0 Y20 F100
M117 Printing...
G5
G92 E0
G92 E0
G1 F2400 E-6
;LAYER_COUNT:40
;LAYER:0
M106 S255
M204 S3000
M205 X10 Y10
G1 F600 Z0.275
G0 F3000 X97.761 Y83.99 Z0.275
M204 S1800
M205 X8 Y8
;TYPE:SKIRT
G1 F600 Z0.2
G1 F2400 E0
G1 X98.194 Y83.53 E0.02942
G1 X98.631 Y83.15 E0.05638
G1 X99.116 Y82.833 E0.08336
G1 X99.64 Y82.586 E0.11034
G1 X100.193 Y82.414 E0.1373
G1 X100.765 Y82.319 E0.1643
G1 X101.164 Y82.3 E0.1829
G1 X108.836 Y82.3 E0.54014
G1 X109.414 Y82.34 E0.56712
G1 X109.981 Y82.459 E0.5941
G1 X110.526 Y82.655 E0.62107
G1 X111.039 Y82.924 E0.64804
G1 X111.51 Y83.261 E0.67501
G1 X111.97 Y83.694 E0.70442
G1 X112.35 Y84.131 E0.73139
G1 X112.667 Y84.616 E0.75837
G1 X112.914 Y85.14 E0.78534
G1 X113.086 Y85.693 E0.81231
G1 X113.181 Y86.265 E0.83931
G1 X113.2 Y86.664 E0.85791
G1 X113.2 Y105.3 E1.72568
G1 X118.836 Y105.3 E1.98812
G1 X119.414 Y105.34 E2.01509
G1 X119.981 Y105.459 E2.04207
G1 X120.526 Y105.655 E2.06904
G1 X121.039 Y105.924 E2.09601
G1 X121.51 Y106.261 E2.12298
G1 X121.97 Y106.694 E2.1524
G1 X122.35 Y107.131 E2.17936
G1 X122.667 Y107.616 E2.20634
G1 X122.914 Y108.14 E2.23332
G1 X123.086 Y108.693 E2.26028
G1 X123.181 Y109.265 E2.28728
G1 X123.2 Y109.664 E2.30588
G1 X123.2 Y123.145 E2.93361
G1 X123.16 Y123.723 E2.96059
G1 X123.041 Y124.29 E2.98757
G1 X122.845 Y124.835 E3.01454
G1 X122.576 Y125.348 E3.04151
G1 X122.239 Y125.819 E3.06848
G1 X121.84 Y126.239 E3.09545
G1 X121.387 Y126.601 E3.12245
G1 X120.682 Y127.008 E3.16036
G1 X120.153 Y127.245 E3.18735
G1 X119.597 Y127.407 E3.21432
G1 X119.024 Y127.491 E3.24128
G1 X118.444 Y127.495 E3.26829
G1 X117.87 Y127.419 E3.29525
G1 X117.312 Y127.265 E3.32221
G1 X116.78 Y127.036 E3.34918
G1 X116.227 Y126.699 E3.37933
G1 X115.682 Y127.008 E3.4085
G1 X115.153 Y127.245 E3.4355
G1 X114.597 Y127.407 E3.46246
G1 X114.024 Y127.491 E3.48943
G1 X113.444 Y127.495 E3.51644
G1 X112.87 Y127.419 E3.5434
G1 X112.312 Y127.265 E3.57035
G1 X111.78 Y127.036 E3.59732
G1 X111.227 Y126.699 E3.62748
G1 X110.682 Y127.008 E3.65665
G1 X110.153 Y127.245 E3.68364
G1 X109.597 Y127.407 E3.71061
G1 X109.024 Y127.491 E3.73757
G1 X108.444 Y127.495 E3.76458
G1 X107.87 Y127.419 E3.79154
G1 X107.312 Y127.265 E3.8185
G1 X106.78 Y127.036 E3.84547
G1 X106.374 Y126.797 E3.8674
G1 X105 Y125.881 E3.9443
G1 X103.626 Y126.797 E4.02119
G1 X103.123 Y127.085 E4.04818
G1 X102.585 Y127.3 E4.07516
G1 X102.023 Y127.44 E4.10213
G1 X101.447 Y127.5 E4.12909
G1 X100.868 Y127.481 E4.15607
G1 X100.297 Y127.382 E4.18305
G1 X99.745 Y127.206 E4.21003
G1 X99.022 Y126.85 E4.24756
G1 X98.777 Y126.697 E4.26101
G1 X98.626 Y126.797 E4.26944
G1 X98.123 Y127.085 E4.29643
G1 X97.585 Y127.3 E4.32341
G1 X97.023 Y127.44 E4.35038
G1 X96.447 Y127.5 E4.37734
G1 X95.868 Y127.481 E4.40432
G1 X95.297 Y127.382 E4.4313
G1 X94.745 Y127.206 E4.45828
G1 X94.022 Y126.85 E4.49581
G1 X93.777 Y126.697 E4.50926
G1 X93.626 Y126.797 E4.51769
G1 X93.123 Y127.085 E4.54468
G1 X92.585 Y127.3 E4.57166
G1 X92.023 Y127.44 E4.59863
G1 X91.447 Y127.5 E4.62559
G1 X90.868 Y127.481 E4.65257
G1 X90.297 Y127.382 E4.67955
G1 X89.745 Y127.206 E4.70653
G1 X89.022 Y126.85 E4.74406
G1 X88.531 Y126.543 E4.77102
G1 X88.087 Y126.171 E4.79799
G1 X87.698 Y125.741 E4.82499
G1 X87.373 Y125.262 E4.85195
G1 X87.116 Y124.743 E4.87891
G1 X86.933 Y124.193 E4.9059
G1 X86.827 Y123.624 E4.93285
G1 X86.8 Y123.145 E4.95519
G1 X86.8 Y109.664 E5.58293
G1 X86.84 Y109.086 E5.6099
G1 X86.959 Y108.519 E5.63688
G1 X87.155 Y107.974 E5.66385
G1 X87.424 Y107.461 E5.69082
G1 X87.761 Y106.99 E5.71779
G1 X88.194 Y106.53 E5.74721
G1 X88.631 Y106.15 E5.77417
G1 X89.116 Y105.833 E5.80115
G1 X89.64 Y105.586 E5.82813
G1 X90.193 Y105.414 E5.85509
G1 X90.765 Y105.319 E5.88209
G1 X91.164 Y105.3 E5.90069
G1 X96.8 Y105.3 E6.16313
G1 X96.8 Y86.664 E7.0309
G1 X96.84 Y86.086 E7.05788
G1 X96.959 Y85.519 E7.08485
G1 X97.155 Y84.974 E7.11182
G1 X97.424 Y84.461 E7.1388
G1 X97.761 Y83.99 E7.16576
M204 S3000
M205 X10 Y10
G0 F3000 X98.426 Y84.09
M204 S1800
M205 X8 Y8
G1 F2400 X98.59 Y83.926 E7.17656
G1 X98.999 Y83.574 E7.20169
G1 X99.455 Y83.286 E7.2268
G1 X99.948 Y83.069 E7.25188
G1 X100.468 Y82.927 E7.27698
G1 X101.164 Y82.86 E7.30954
G1 X108.836 Y82.86 E7.66678
G1 X109.374 Y82.9 E7.6919
G1 X109.9 Y83.019 E7.71702
G1 X110.402 Y83.214 E7.74209
G1 X110.871 Y83.482 E7.76725
G1 X111.41 Y83.926 E7.79976
G1 X111.574 Y84.09 E7.81056
G1 X111.926 Y84.499 E7.83569
G1 X112.214 Y84.955 E7.8608
G1 X112.431 Y85.448 E7.88588
G1 X112.573 Y85.968 E7.91098
G1 X112.64 Y86.664 E7.94354
G1 X112.64 Y105.86 E8.83739
G1 X118.836 Y105.86 E9.1259
G1 X119.374 Y105.9 E9.15102
G1 X119.9 Y106.019 E9.17613
G1 X120.402 Y106.214 E9.20121
G1 X120.871 Y106.482 E9.22636
G1 X121.41 Y106.926 E9.25888
G1 X121.574 Y107.09 E9.26968
G1 X121.926 Y107.499 E9.29481
G1 X122.214 Y107.955 E9.31992
G1 X122.431 Y108.448 E9.345
G1 X122.573 Y108.968 E9.3701
G1 X122.64 Y109.664 E9.40266
G1 X122.64 Y123.145 E10.03039
G1 X122.6 Y123.683 E10.05551
G1 X122.481 Y124.209 E10.08062
G1 X122.286 Y124.711 E10.1057
G1 X122.018 Y125.18 E10.13085
G1 X121.685 Y125.603 E10.15592
G1 X121.292 Y125.973 E10.18105
G1 X120.714 Y126.356 E10.21334
G1 X120.418 Y126.514 E10.22896
G1 X119.925 Y126.732 E10.25406
G1 X119.405 Y126.875 E10.27918
G1 X118.869 Y126.939 E10.30431
G1 X118.33 Y126.924 E10.32942
G1 X117.8 Y126.829 E10.35449
G1 X117.289 Y126.657 E10.3796
G1 X116.685 Y126.331 E10.41156
G1 X116.22 Y126.021 E10.43758
G1 X115.714 Y126.356 E10.46584
G1 X115.418 Y126.514 E10.48146
G1 X114.925 Y126.732 E10.50656
G1 X114.405 Y126.875 E10.53168
G1 X113.869 Y126.939 E10.55681
G1 X113.33 Y126.924 E10.58192
G1 X112.8 Y126.829 E10.60699
G1 X112.289 Y126.657 E10.6321
G1 X111.685 Y126.331 E10.66406
G1 X111.22 Y126.021 E10.69008
G1 X110.714 Y126.356 E10.71834
G1 X110.418 Y126.514 E10.73396
G1 X109.925 Y126.732 E10.75906
G1 X109.405 Y126.875 E10.78417
G1 X108.869 Y126.939 E10.80931
G1 X108.33 Y126.924 E10.83442
G1 X107.8 Y126.829 E10.85949
G1 X107.289 Y126.657 E10.8846
G1 X106.685 Y126.331 E10.91656
G1 X105 Y125.207 E11.01087
G1 X103.315 Y126.331 E11.10519
G1 X102.846 Y126.597 E11.13029
G1 X102.342 Y126.789 E11.15541
G1 X101.816 Y126.906 E11.1805
G1 X101.278 Y126.943 E11.20561
G1 X100.74 Y126.9 E11.23074
G1 X100.215 Y126.779 E11.25583
G1 X99.582 Y126.514 E11.28778
G1 X99.286 Y126.356 E11.3034
G1 X98.83 Y126.068 E11.32852
G1 X98.778 Y126.023 E11.33172
G1 X98.315 Y126.331 E11.35761
G1 X97.846 Y126.597 E11.38272
G1 X97.342 Y126.789 E11.40783
G1 X96.816 Y126.906 E11.43292
G1 X96.278 Y126.943 E11.45804
G1 X95.74 Y126.9 E11.48317
G1 X95.215 Y126.779 E11.50825
G1 X94.582 Y126.514 E11.54021
G1 X94.286 Y126.356 E11.55583
G1 X93.83 Y126.068 E11.58095
G1 X93.778 Y126.023 E11.58415
G1 X93.315 Y126.331 E11.61004
G1 X92.846 Y126.597 E11.63515
G1 X92.342 Y126.789 E11.66026
G1 X91.816 Y126.906 E11.68535
G1 X91.278 Y126.943 E11.71046
G1 X90.74 Y126.9 E11.73559
G1 X90.215 Y126.779 E11.76068
G1 X89.582 Y126.514 E11.79264
G1 X89.286 Y126.356 E11.80826
G1 X88.83 Y126.068 E11.83337
G1 X88.422 Y125.715 E11.85849
G1 X88.071 Y125.306 E11.88359
G1 X87.784 Y124.85 E11.90868
G1 X87.567 Y124.356 E11.9338
G1 X87.426 Y123.835 E11.95894
G1 X87.36 Y123.145 E11.99121
G1 X87.36 Y109.664 E12.61894
G1 X87.4 Y109.126 E12.64407
G1 X87.519 Y108.6 E12.66918
G1 X87.714 Y108.098 E12.69425
G1 X87.982 Y107.629 E12.71941
G1 X88.426 Y107.09 E12.75192
G1 X88.59 Y106.926 E12.76272
G1 X88.999 Y106.574 E12.78785
G1 X89.455 Y106.286 E12.81296
G1 X89.948 Y106.069 E12.83804
G1 X90.468 Y105.927 E12.86314
G1 X91.164 Y105.86 E12.8957
G1 X97.36 Y105.86 E13.18422
G1 X97.36 Y86.664 E14.07806
G1 X97.4 Y86.126 E14.10318
G1 X97.519 Y85.6 E14.12829
G1 X97.714 Y85.098 E14.15337
G1 X97.982 Y84.629 E14.17852
G1 X98.426 Y84.09 E14.21104
M204 S3000
M205 X10 Y10
G0 F3000 X98.538 Y84.813
M204 S1800
M205 X8 Y8
G1 F2400 X98.986 Y84.322 E14.24199
G1 X99.364 Y84.001 E14.26508
G1 X99.788 Y83.744 E14.28817
G1 X100.249 Y83.559 E14.3113
G1 X100.732 Y83.45 E14.33435
G1 X101.164 Y83.42 E14.35452
G1 X108.836 Y83.42 E14.71176
G1 X109.33 Y83.46 E14.73484
G1 X109.812 Y83.579 E14.75795
G1 X110.268 Y83.773 E14.78103
G1 X110.687 Y84.038 E14.80411
G1 X111.178 Y84.486 E14.83506
G1 X111.499 Y84.864 E14.85816
G1 X111.756 Y85.288 E14.88124
G1 X111.941 Y85.749 E14.90437
G1 X112.05 Y86.232 E14.92743
G1 X112.08 Y86.664 E14.94759
G1 X112.08 Y106.42 E15.86752
G1 X118.836 Y106.42 E16.1821
G1 X119.33 Y106.46 E16.20518
G1 X119.812 Y106.579 E16.2283
G1 X120.268 Y106.773 E16.25137
G1 X120.687 Y107.038 E16.27446
G1 X121.178 Y107.486 E16.30541
G1 X121.499 Y107.864 E16.3285
G1 X121.756 Y108.288 E16.35159
G1 X121.941 Y108.749 E16.37472
G1 X122.05 Y109.232 E16.39777
G1 X122.08 Y109.664 E16.41794
G1 X122.08 Y123.145 E17.04567
G1 X122.04 Y123.639 E17.06875
G1 X121.921 Y124.121 E17.09187
G1 X121.727 Y124.577 E17.11494
G1 X121.462 Y124.996 E17.13803
G1 X121.132 Y125.367 E17.16115
G1 X120.748 Y125.681 E17.18424
G1 X120.154 Y126.02 E17.21609
G1 X119.699 Y126.218 E17.2392
G1 X119.219 Y126.34 E17.26226
G1 X118.725 Y126.383 E17.28535
G1 X118.23 Y126.346 E17.30846
G1 X117.748 Y126.231 E17.33153
G1 X117.29 Y126.039 E17.35466
G1 X116.995 Y125.866 E17.37058
G1 X116.175 Y125.319 E17.41648
G1 X115.748 Y125.681 E17.44255
G1 X115.154 Y126.02 E17.47439
G1 X114.699 Y126.218 E17.4975
G1 X114.219 Y126.34 E17.52056
G1 X113.725 Y126.383 E17.54365
G1 X113.23 Y126.346 E17.56677
G1 X112.748 Y126.231 E17.58984
G1 X112.29 Y126.039 E17.61296
G1 X111.995 Y125.866 E17.62889
G1 X111.175 Y125.319 E17.67479
G1 X110.748 Y125.681 E17.70085
G1 X110.154 Y126.02 E17.7327
G1 X109.699 Y126.218 E17.75581
G1 X109.219 Y126.34 E17.77887
G1 X108.725 Y126.383 E17.80196
G1 X108.23 Y126.346 E17.82507
G1 X107.748 Y126.231 E17.84814
G1 X107.29 Y126.039 E17.87127
G1 X106.995 Y125.866 E17.88719
G1 X105 Y124.536 E17.99884
G1 X103.005 Y125.866 E18.11049
G1 X102.571 Y126.107 E18.1336
G1 X102.105 Y126.275 E18.15667
G1 X101.617 Y126.366 E18.17978
G1 X101.121 Y126.378 E18.20288
G1 X100.63 Y126.31 E18.22597
G1 X100.156 Y126.164 E18.24906
G1 X99.55 Y125.862 E18.28059
G1 X99.132 Y125.594 E18.30371
G1 X98.825 Y125.319 E18.3229
G1 X98.005 Y125.866 E18.3688
G1 X97.571 Y126.107 E18.39192
G1 X97.105 Y126.275 E18.41498
G1 X96.617 Y126.366 E18.4381
G1 X96.121 Y126.378 E18.4612
G1 X95.63 Y126.31 E18.48428
G1 X95.156 Y126.164 E18.50737
G1 X94.55 Y125.862 E18.5389
G1 X94.132 Y125.594 E18.56202
G1 X93.825 Y125.319 E18.58122
G1 X93.005 Y125.866 E18.62711
G1 X92.571 Y126.107 E18.65023
G1 X92.105 Y126.275 E18.6733
G1 X91.617 Y126.366 E18.69641
G1 X91.121 Y126.378 E18.71951
G1 X90.63 Y126.31 E18.74259
G1 X90.156 Y126.164 E18.76569
G1 X89.55 Y125.862 E18.79722
G1 X89.132 Y125.594 E18.82034
G1 X88.763 Y125.263 E18.84342
G1 X88.453 Y124.876 E18.86651
G1 X88.208 Y124.445 E18.88959
G1 X88.035 Y123.98 E18.9127
G1 X87.94 Y123.493 E18.9358
G1 X87.92 Y123.145 E18.95203
G1 X87.92 Y109.664 E19.57976
G1 X87.96 Y109.17 E19.60284
G1 X88.079 Y108.688 E19.62596
G1 X88.273 Y108.232 E19.64903
G1 X88.538 Y107.813 E19.67212
G1 X88.986 Y107.322 E19.70307
G1 X89.364 Y107.001 E19.72616
G1 X89.788 Y106.744 E19.74925
G1 X90.249 Y106.559 E19.77238
G1 X90.732 Y106.45 E19.79543
G1 X91.164 Y106.42 E19.8156
G1 X97.92 Y106.42 E20.13018
G1 X97.92 Y86.664 E21.05011
G1 X97.96 Y86.17 E21.07318
G1 X98.079 Y85.688 E21.0963
G1 X98.273 Y85.232 E21.11938
G1 X98.538 Y84.813 E21.14246
M204 S3000
M205 X10 Y10
G0 F3000 X99.218 Y84.882
M204 S1800
M205 X8 Y8
G1 F2400 X99.726 Y84.43 E21.17413
G1 X100.116 Y84.208 E21.19502
G1 X100.539 Y84.059 E21.2159
G1 X101.164 Y83.98 E21.24524
G1 X108.836 Y83.98 E21.60248
G1 X109.283 Y84.02 E21.62338
G1 X109.715 Y84.138 E21.64423
G1 X110.12 Y84.332 E21.66514
G1 X110.618 Y84.718 E21.69448
G1 X111.07 Y85.226 E21.72614
G1 X111.292 Y85.616 E21.74704
G1 X111.441 Y86.039 E21.76792
G1 X111.52 Y86.664 E21.79725
G1 X111.52 Y106.98 E22.74325
G1 X118.836 Y106.98 E23.08392
G1 X119.283 Y107.02 E23.10481
G1 X119.715 Y107.138 E23.12567
G1 X120.12 Y107.332 E23.14658
G1 X120.618 Y107.718 E23.17592
G1 X121.07 Y108.226 E23.20758
G1 X121.292 Y108.616 E23.22847
G1 X121.441 Y109.039 E23.24936
G1 X121.52 Y109.664 E23.27869
G1 X121.52 Y123.145 E23.90642
G1 X121.48 Y123.592 E23.92732
G1 X121.362 Y124.024 E23.94817
G1 X121.168 Y124.429 E23.96908
G1 X120.906 Y124.793 E23.98997
G1 X120.584 Y125.105 E24.01084
G1 X119.891 Y125.526 E24.0486
G1 X119.478 Y125.701 E24.06949
G1 X119.04 Y125.8 E24.0904
G1 X118.592 Y125.821 E24.11128
G1 X118.148 Y125.761 E24.13214
G1 X117.721 Y125.623 E24.15304
G1 X117.306 Y125.4 E24.17498
G1 X116.065 Y124.572 E24.24444
G1 X115.906 Y124.793 E24.25712
G1 X115.584 Y125.105 E24.278
G1 X114.891 Y125.526 E24.31576
G1 X114.478 Y125.701 E24.33664
G1 X114.04 Y125.8 E24.35755
G1 X113.592 Y125.821 E24.37843
G1 X113.148 Y125.761 E24.3993
G1 X112.721 Y125.623 E24.42019
G1 X112.306 Y125.4 E24.44213
G1 X111.065 Y124.572 E24.5116
G1 X110.906 Y124.793 E24.52427
G1 X110.584 Y125.105 E24.54515
G1 X109.891 Y125.526 E24.58291
G1 X109.478 Y125.701 E24.6038
G1 X109.04 Y125.8 E24.62471
G1 X108.592 Y125.821 E24.64559
G1 X108.148 Y125.761 E24.66645
G1 X107.721 Y125.623 E24.68735
G1 X107.306 Y125.4 E24.70928
G1 X105 Y123.862 E24.83835
G1 X102.694 Y125.4 E24.96742
G1 X102.3 Y125.614 E24.9883
G1 X101.874 Y125.756 E25.00921
G1 X101.43 Y125.819 E25.03009
G1 X100.982 Y125.803 E25.05096
G1 X100.544 Y125.708 E25.07183
G1 X99.813 Y125.368 E25.10937
G1 X99.438 Y125.123 E25.13023
G1 X99.112 Y124.814 E25.15115
G1 X98.934 Y124.573 E25.1651
G1 X97.694 Y125.4 E25.2345
G1 X97.3 Y125.614 E25.25538
G1 X96.874 Y125.756 E25.27629
G1 X96.43 Y125.819 E25.29717
G1 X95.982 Y125.803 E25.31804
G1 X95.544 Y125.708 E25.33891
G1 X94.813 Y125.368 E25.37645
G1 X94.438 Y125.123 E25.39731
G1 X94.112 Y124.814 E25.41823
G1 X93.934 Y124.573 E25.43218
G1 X92.694 Y125.4 E25.50158
G1 X92.3 Y125.614 E25.52246
G1 X91.874 Y125.756 E25.54337
G1 X91.43 Y125.819 E25.56425
G1 X90.982 Y125.803 E25.58512
G1 X90.544 Y125.708 E25.60599
G1 X89.813 Y125.368 E25.64353
G1 X89.438 Y125.123 E25.66439
G1 X89.112 Y124.814 E25.68531
G1 X88.846 Y124.453 E25.70619
G1 X88.648 Y124.051 E25.72705
G1 X88.525 Y123.619 E25.74797
G1 X88.48 Y123.145 E25.77014
G1 X88.48 Y109.664 E26.39787
G1 X88.52 Y109.217 E26.41877
G1 X88.638 Y108.785 E26.43962
G1 X88.832 Y108.38 E26.46053
G1 X89.218 Y107.882 E26.48987
G1 X89.726 Y107.43 E26.52153
G1 X90.116 Y107.208 E26.54243
G1 X90.539 Y107.059 E26.56331
G1 X91.164 Y106.98 E26.59264
G1 X98.48 Y106.98 E26.93331
G1 X98.48 Y86.664 E27.87931
G1 X98.52 Y86.217 E27.9002
G1 X98.638 Y85.785 E27.92106
G1 X98.832 Y85.38 E27.94197
G1 X99.218 Y84.882 E27.97131
M204 S3000
M205 X10 Y10
G0 F3000 X99.389 Y85.547
M204 S1800
M205 X8 Y8
G1 F2400 X99.778 Y85.114 E27.99841
G1 X100.084 Y84.864 E28.01681
G1 X100.435 Y84.681 E28.03524
G1 X100.815 Y84.571 E28.05366
G1 X101.164 Y84.54 E28.06998
G1 X108.836 Y84.54 E28.42722
G1 X109.229 Y84.58 E28.44561
G1 X109.607 Y84.698 E28.46405
G1 X109.953 Y84.889 E28.48245
G1 X110.386 Y85.278 E28.50956
G1 X110.636 Y85.584 E28.52796
G1 X110.819 Y85.935 E28.54639
G1 X110.929 Y86.315 E28.56481
G1 X110.96 Y86.664 E28.58112
G1 X110.96 Y107.54 E29.5532
G1 X118.836 Y107.54 E29.91994
G1 X119.229 Y107.58 E29.93833
G1 X119.607 Y107.698 E29.95677
G1 X119.953 Y107.889 E29.97517
G1 X120.386 Y108.278 E30.00228
G1 X120.636 Y108.584 E30.02068
G1 X120.819 Y108.935 E30.03911
G1 X120.929 Y109.315 E30.05753
G1 X120.96 Y109.664 E30.07385
G1 X120.96 Y123.145 E30.70158
G1 X120.92 Y123.538 E30.71997
G1 X120.802 Y123.916 E30.73841
G1 X120.611 Y124.262 E30.75681
G1 X120.354 Y124.563 E30.77524
G1 X119.923 Y124.874 E30.79999
G1 X119.261 Y125.182 E30.83399
