;FLAVOR:Marlin
;TIME:5316
;Filament used: 5.06575m
;Layer height: 0.2
;MINX:44.859
;MINY:76.1
;MINZ:0.2
;MAXX:165.13
;MAXY:133.9
;MAXZ:5
;Generated with Cura_SteamEngine 4.7.1
M140 S60
M105
M190 S60
M104 S200
M105
M109 S200
M82 ;absolute extrusion mode
G21 ;metric values
G90 ;absolute positioning
M82 ;set extruder to absolute mode
M107 ;start with the fan off
G28 X0 Y0 ;move X/Y to min endstops
G28 Z0 ;move Z to min endstops
G1 Z15.0 F100 ;move the platform down 15mm
G92 E0 ;zero the extruded length
G1 F200 E3 ;extrude 3mm of feed stock
G92 E0 ;zero the extruded length again
G1 F100
G0 Y20 F100
M117 Printing...
G5
G92 E0
G92 E0
G1 F2400 E-6
;LAYER_COUNT:25
;LAYER:0
M106 S255
M204 S3000
M205 X10 Y10
G1 F600 Z0.275
G0 F3000 X53.794 Y88.945 Z0.275
M204 S1800
M205 X8 Y8
;TYPE:SKIRT
G1 F600 Z0.2
G1 F2400 E0
G1 X54.335 Y88.622 E0.02934
G1 X54.831 Y88.352 E0.05564
G1 X54.971 Y88.278 E0.06301
G1 X55.564 Y87.974 E0.09404
G1 X56.044 Y87.751 E0.11868
G1 X56.186 Y87.691 E0.12586
G1 X56.852 Y87.419 E0.15936
G1 X57.474 Y87.182 E0.19035
G1 X58.058 Y86.988 E0.21901
G1 X58.574 Y86.838 E0.24403
G1 X58.743 Y86.792 E0.25219
G1 X59.428 Y86.613 E0.28515
G1 X60.072 Y86.474 E0.31583
G1 X60.722 Y86.362 E0.34654
G1 X61.443 Y86.254 E0.38049
G1 X62.122 Y86.183 E0.41228
G1 X62.623 Y86.151 E0.43566
G1 X62.783 Y86.143 E0.44312
G1 X63.556 Y86.113 E0.47914
G1 X63.719 Y86.109 E0.48673
G1 X64.405 Y86.1 E0.51868
G1 X80.154 Y86.1 E1.25202
G1 X82.816 Y86.062 E1.37598
G1 X85.456 Y85.95 E1.49902
G1 X88.101 Y85.763 E1.62249
G1 X90.758 Y85.499 E1.74682
G1 X93.373 Y85.165 E1.86958
G1 X95.969 Y84.757 E1.99194
G1 X98.576 Y84.272 E2.11542
G1 X101.184 Y83.711 E2.23963
G1 X103.705 Y83.094 E2.36049
G1 X106.292 Y82.382 E2.48543
G1 X108.848 Y81.599 E2.60991
G1 X111.315 Y80.767 E2.73114
G1 X113.837 Y79.837 E2.8563
G1 X116.285 Y78.853 E2.97915
G1 X118.684 Y77.809 E3.10098
G1 X120.762 Y76.835 E3.20784
G1 X121.122 Y76.673 E3.22623
G1 X121.79 Y76.417 E3.25954
G1 X122.365 Y76.261 E3.28728
G1 X123.07 Y76.146 E3.32054
G1 X123.572 Y76.112 E3.34397
G1 X124.071 Y76.1 E3.36721
G1 X143.133 Y76.101 E4.25482
G1 X143.845 Y76.112 E4.28798
G1 X144.905 Y76.217 E4.33757
G1 X145.658 Y76.356 E4.37323
G1 X159.397 Y79.105 E5.02566
G1 X160.064 Y79.247 E5.05741
G1 X160.754 Y79.435 E5.09071
G1 X161.419 Y79.699 E5.12403
G1 X162.05 Y80.035 E5.15731
G1 X162.64 Y80.439 E5.19061
G1 X163.181 Y80.907 E5.22392
G1 X163.666 Y81.433 E5.25724
G1 X164.09 Y82.009 E5.29054
G1 X164.447 Y82.629 E5.32385
G1 X164.733 Y83.284 E5.35713
G1 X164.943 Y83.968 E5.39045
G1 X165.076 Y84.671 E5.42377
G1 X165.129 Y85.683 E5.47095
G1 X165.12 Y86.01 E5.48619
G1 X165.086 Y88.642 E5.60875
G1 X165.13 Y91.395 E5.73696
G1 X165.12 Y92.005 E5.76537
G1 X165.086 Y94.631 E5.88766
G1 X165.13 Y97.395 E6.01638
G1 X165.12 Y98.005 E6.04478
G1 X165.086 Y100.642 E6.16758
G1 X165.13 Y103.395 E6.29579
G1 X165.12 Y104.005 E6.3242
G1 X165.086 Y106.642 E6.447
G1 X165.13 Y109.395 E6.57521
G1 X165.12 Y110.005 E6.60362
G1 X165.086 Y112.642 E6.72642
G1 X165.13 Y115.395 E6.85462
G1 X165.12 Y116.005 E6.88303
G1 X165.086 Y118.642 E7.00583
G1 X165.13 Y121.395 E7.13404
G1 X165.12 Y122.005 E7.16245
G1 X165.086 Y124.641 E7.2852
G1 X165.13 Y127.361 E7.41187
G1 X165.124 Y127.754 E7.43017
G1 X165.055 Y128.466 E7.46348
G1 X164.906 Y129.166 E7.49681
G1 X164.68 Y129.845 E7.53013
G1 X164.38 Y130.494 E7.56342
G1 X164.009 Y131.106 E7.59675
G1 X163.573 Y131.672 E7.63001
G1 X163.076 Y132.186 E7.66331
G1 X162.524 Y132.642 E7.69665
G1 X161.926 Y133.033 E7.72992
G1 X161.287 Y133.355 E7.76323
G1 X160.616 Y133.604 E7.79656
G1 X159.922 Y133.776 E7.82985
G1 X159.213 Y133.87 E7.86316
G1 X158.83 Y133.887 E7.88101
G1 X157.959 Y133.9 E7.92157
G1 X124.357 Y133.899 E9.48622
G1 X123.655 Y133.889 E9.51891
G1 X122.941 Y133.839 E9.55224
G1 X122.238 Y133.71 E9.58552
G1 X121.553 Y133.503 E9.61884
G1 X121.031 Y133.285 E9.64518
G1 X119.985 Y132.795 E9.69897
G1 X117.467 Y131.658 E9.82762
G1 X115.111 Y130.67 E9.94658
G1 X115.103 Y130.668 E9.94696
G1 X112.571 Y129.692 E10.07332
G1 X110.08 Y128.812 E10.19634
G1 X107.553 Y127.999 E10.31994
G1 X105.005 Y127.259 E10.44349
G1 X102.47 Y126.599 E10.56547
G1 X99.921 Y126.01 E10.68729
G1 X97.27 Y125.478 E10.81319
G1 X94.672 Y125.033 E10.93592
G1 X92.045 Y124.658 E11.05949
G1 X89.427 Y124.361 E11.18217
G1 X86.791 Y124.136 E11.30536
G1 X84.109 Y123.984 E11.43045
G1 X81.499 Y123.91 E11.55203
G1 X80.113 Y123.9 E11.61657
G1 X64.416 Y123.9 E12.34749
G1 X63.53 Y123.887 E12.38875
G1 X63.352 Y123.882 E12.39704
G1 X62.841 Y123.86 E12.42086
G1 X62.681 Y123.851 E12.42832
G1 X61.932 Y123.8 E12.46328
G1 X61.431 Y123.747 E12.48674
G1 X60.656 Y123.628 E12.52325
G1 X59.94 Y123.501 E12.55711
G1 X59.408 Y123.384 E12.58247
G1 X59.281 Y123.352 E12.58857
G1 X58.755 Y123.212 E12.61391
G1 X58.6 Y123.168 E12.62142
G1 X57.969 Y122.983 E12.65204
G1 X57.452 Y122.81 E12.67742
G1 X56.941 Y122.616 E12.70287
G1 X56.786 Y122.554 E12.71065
G1 X56.076 Y122.261 E12.74641
G1 X55.441 Y121.966 E12.77901
G1 X54.89 Y121.679 E12.80794
G1 X54.239 Y121.323 E12.84249
G1 X53.781 Y121.049 E12.86734
G1 X53.26 Y120.707 E12.89636
G1 X53.074 Y120.58 E12.90685
G1 X52.52 Y120.192 E12.93835
G1 X52.11 Y119.882 E12.96228
G1 X51.991 Y119.786 E12.9694
G1 X51.58 Y119.444 E12.9943
G1 X51.457 Y119.338 E13.00186
G1 X50.901 Y118.851 E13.03627
G1 X50.518 Y118.486 E13.06091
G1 X50.105 Y118.059 E13.08857
G1 X49.996 Y117.944 E13.09595
G1 X49.51 Y117.416 E13.12936
G1 X49.095 Y116.924 E13.15934
G1 X48.772 Y116.509 E13.18382
G1 X48.666 Y116.369 E13.192
G1 X48.233 Y115.78 E13.22604
G1 X47.892 Y115.272 E13.25453
G1 X47.55 Y114.713 E13.28504
G1 X47.176 Y114.072 E13.3196
G1 X46.879 Y113.506 E13.34936
G1 X46.658 Y113.042 E13.3733
G1 X46.587 Y112.888 E13.38119
G1 X46.289 Y112.217 E13.41538
G1 X46.042 Y111.59 E13.44676
G1 X45.843 Y111.017 E13.475
G1 X45.622 Y110.333 E13.50847
G1 X45.449 Y109.704 E13.53885
G1 X45.329 Y109.185 E13.56366
G1 X45.293 Y109.021 E13.57147
G1 X45.142 Y108.28 E13.60669
G1 X45.036 Y107.613 E13.63813
G1 X44.976 Y107.1 E13.66218
G1 X44.961 Y106.956 E13.66893
G1 X44.897 Y106.275 E13.70078
G1 X44.865 Y105.648 E13.73001
G1 X44.859 Y105.1 E13.75553
G1 X44.86 Y104.938 E13.76307
G1 X44.87 Y104.24 E13.79558
G1 X44.908 Y103.576 E13.82655
G1 X44.974 Y102.923 E13.85711
G1 X45.068 Y102.169 E13.89249
G1 X45.17 Y101.561 E13.9212
G1 X45.275 Y101.053 E13.94535
G1 X45.315 Y100.875 E13.95385
G1 X45.477 Y100.19 E13.98662
G1 X45.651 Y99.574 E14.01643
G1 X45.822 Y99.048 E14.04218
G1 X45.874 Y98.893 E14.0498
G1 X46.105 Y98.24 E14.08205
G1 X46.303 Y97.743 E14.10696
G1 X46.356 Y97.622 E14.11311
G1 X46.571 Y97.145 E14.13747
G1 X46.631 Y97.016 E14.1441
G1 X46.931 Y96.388 E14.17651
G1 X47.243 Y95.805 E14.2073
G1 X47.556 Y95.277 E14.23588
G1 X47.956 Y94.631 E14.27126
G1 X48.247 Y94.198 E14.29555
G1 X48.337 Y94.073 E14.30272
G1 X48.641 Y93.664 E14.32645
G1 X48.737 Y93.539 E14.33379
G1 X49.179 Y92.974 E14.36719
G1 X49.612 Y92.467 E14.39824
G1 X50.054 Y91.993 E14.42842
G1 X50.582 Y91.453 E14.46358
G1 X50.946 Y91.107 E14.48697
G1 X51.384 Y90.722 E14.51412
G1 X51.511 Y90.614 E14.52189
G1 X52.104 Y90.124 E14.55771
G1 X52.623 Y89.733 E14.58796
G1 X53.114 Y89.393 E14.61577
G1 X53.794 Y88.945 E14.65369
M204 S3000
M205 X10 Y10
G0 F3000 X54.102 Y89.412
M204 S1800
M205 X8 Y8
G1 F2400 X54.603 Y89.114 E14.68083
G1 X55.099 Y88.844 E14.70713
G1 X55.227 Y88.776 E14.71388
G1 X55.82 Y88.472 E14.74491
G1 X56.398 Y88.209 E14.77448
G1 X56.915 Y87.997 E14.8005
G1 X57.052 Y87.943 E14.80735
G1 X57.674 Y87.706 E14.83835
G1 X58.215 Y87.526 E14.8649
G1 X58.731 Y87.376 E14.88992
G1 X58.885 Y87.334 E14.89735
G1 X59.57 Y87.155 E14.93032
G1 X60.169 Y87.025 E14.95886
G1 X60.805 Y86.915 E14.98891
G1 X61.526 Y86.807 E15.02286
G1 X62.158 Y86.742 E15.05245
G1 X62.659 Y86.71 E15.07582
G1 X62.805 Y86.702 E15.08263
G1 X63.578 Y86.672 E15.11865
G1 X64.405 Y86.66 E15.15716
G1 X80.162 Y86.66 E15.89088
G1 X82.813 Y86.623 E16.01433
G1 X85.52 Y86.508 E16.14049
G1 X88.123 Y86.323 E16.26201
G1 X90.815 Y86.056 E16.38797
G1 X93.462 Y85.717 E16.51223
G1 X96.055 Y85.31 E16.63445
G1 X98.713 Y84.816 E16.76034
G1 X101.306 Y84.258 E16.88384
G1 X103.843 Y83.637 E17.00547
G1 X106.46 Y82.916 E17.13186
G1 X108.982 Y82.144 E17.25468
G1 X111.543 Y81.28 E17.38053
G1 X114.032 Y80.362 E17.50406
G1 X116.467 Y79.384 E17.62625
G1 X118.938 Y78.309 E17.75173
G1 X121.087 Y77.302 E17.86223
G1 X121.352 Y77.183 E17.87576
G1 X121.99 Y76.941 E17.90753
G1 X122.486 Y76.808 E17.93145
G1 X123.161 Y76.699 E17.96328
G1 X123.906 Y76.662 E17.99802
G1 X124.071 Y76.66 E18.0057
G1 X143.124 Y76.661 E18.89289
G1 X143.836 Y76.672 E18.92605
G1 X144.804 Y76.768 E18.97134
G1 X145.549 Y76.905 E19.00661
G1 X159.28 Y79.653 E19.65866
G1 X159.947 Y79.795 E19.69042
G1 X160.606 Y79.976 E19.72224
G1 X161.239 Y80.233 E19.75405
G1 X161.838 Y80.562 E19.78588
G1 X162.394 Y80.959 E19.81769
G1 X162.9 Y81.418 E19.8495
G1 X163.349 Y81.932 E19.88128
G1 X163.735 Y82.496 E19.9131
G1 X164.052 Y83.101 E19.94491
G1 X164.297 Y83.739 E19.97673
G1 X164.465 Y84.401 E20.00853
G1 X164.555 Y85.079 E20.04038
G1 X164.569 Y85.668 E20.06781
G1 X164.562 Y85.908 E20.07899
G1 X164.527 Y88.679 E20.20803
G1 X164.57 Y91.404 E20.33494
G1 X164.562 Y91.908 E20.35841
G1 X164.527 Y94.679 E20.48745
G1 X164.57 Y97.404 E20.61435
G1 X164.562 Y97.908 E20.63782
G1 X164.527 Y100.679 E20.76686
G1 X164.57 Y103.404 E20.89376
G1 X164.562 Y103.908 E20.91724
G1 X164.527 Y106.679 E21.04628
G1 X164.57 Y109.404 E21.17318
G1 X164.562 Y109.908 E21.19665
G1 X164.527 Y112.679 E21.32569
G1 X164.57 Y115.404 E21.45259
G1 X164.562 Y115.908 E21.47606
G1 X164.527 Y118.679 E21.6051
G1 X164.57 Y121.404 E21.73201
G1 X164.562 Y121.908 E21.75548
G1 X164.527 Y124.663 E21.88377
G1 X164.57 Y127.37 E22.00984
G1 X164.565 Y127.731 E22.02665
G1 X164.497 Y128.411 E22.05847
G1 X164.349 Y129.078 E22.09029
G1 X164.125 Y129.724 E22.12212
G1 X163.827 Y130.338 E22.1539
G1 X163.459 Y130.914 E22.18573
G1 X163.027 Y131.443 E22.21753
G1 X162.536 Y131.918 E22.24934
G1 X161.992 Y132.332 E22.28118
G1 X161.404 Y132.68 E22.31299
G1 X160.779 Y132.957 E22.34482
G1 X160.127 Y133.159 E22.37661
G1 X159.455 Y133.283 E22.40843
G1 X158.821 Y133.327 E22.43802
G1 X157.959 Y133.34 E22.47816
G1 X124.365 Y133.339 E24.04244
G1 X123.663 Y133.329 E24.07513
G1 X122.981 Y133.28 E24.10697
G1 X122.31 Y133.151 E24.13879
G1 X121.659 Y132.944 E24.1706
G1 X121.268 Y132.778 E24.19037
G1 X120.216 Y132.285 E24.24447
G1 X117.707 Y131.152 E24.37266
G1 X115.304 Y130.145 E24.49398
G1 X112.782 Y129.173 E24.61984
G1 X110.26 Y128.282 E24.74439
G1 X107.703 Y127.46 E24.86945
G1 X105.158 Y126.72 E24.99287
G1 X102.593 Y126.052 E25.11629
G1 X100.05 Y125.465 E25.23781
G1 X97.371 Y124.927 E25.36505
G1 X94.771 Y124.481 E25.48788
G1 X92.117 Y124.103 E25.61271
G1 X89.468 Y123.802 E25.73686
G1 X86.833 Y123.578 E25.85999
G1 X84.157 Y123.426 E25.9848
G1 X81.472 Y123.35 E26.10988
G1 X80.117 Y123.34 E26.17297
G1 X64.416 Y123.34 E26.90408
G1 X63.538 Y123.327 E26.94496
G1 X63.376 Y123.323 E26.95251
G1 X62.865 Y123.301 E26.97633
G1 X62.719 Y123.293 E26.98313
G1 X61.97 Y123.242 E27.01809
G1 X61.393 Y123.176 E27.04513
G1 X60.89 Y123.099 E27.06883
G1 X60.038 Y122.949 E27.10911
G1 X59.541 Y122.84 E27.1328
G1 X59.425 Y122.811 E27.13837
G1 X58.899 Y122.671 E27.16372
G1 X58.758 Y122.631 E27.17054
G1 X58.127 Y122.446 E27.20116
G1 X57.641 Y122.283 E27.22503
G1 X57.141 Y122.093 E27.24994
G1 X56.999 Y122.036 E27.25706
G1 X56.289 Y121.743 E27.29283
G1 X55.698 Y121.468 E27.32318
G1 X55.152 Y121.184 E27.35184
G1 X54.508 Y120.832 E27.38601
G1 X54.078 Y120.574 E27.40936
G1 X53.624 Y120.277 E27.43462
G1 X53.395 Y120.122 E27.4475
G1 X52.841 Y119.734 E27.47899
G1 X52.35 Y119.355 E27.50788
G1 X51.939 Y119.013 E27.53277
G1 X51.826 Y118.917 E27.53968
G1 X51.27 Y118.43 E27.57409
G1 X50.92 Y118.097 E27.59659
G1 X50.507 Y117.67 E27.62425
G1 X50.408 Y117.565 E27.63097
G1 X49.922 Y117.037 E27.66439
G1 X49.537 Y116.58 E27.69221
G1 X49.214 Y116.165 E27.7167
G1 X49.118 Y116.037 E27.72415
G1 X48.685 Y115.448 E27.75819
G1 X48.369 Y114.978 E27.78456
G1 X48.034 Y114.431 E27.81443
G1 X47.66 Y113.79 E27.84898
G1 X47.385 Y113.265 E27.87658
G1 X47.164 Y112.801 E27.90051
G1 X47.099 Y112.66 E27.90774
G1 X46.801 Y111.989 E27.94193
G1 X46.57 Y111.405 E27.97117
G1 X46.374 Y110.837 E27.99915
G1 X46.345 Y110.751 E28.00338
G1 X46.155 Y110.161 E28.03224
G1 X45.994 Y109.578 E28.0604
G1 X45.874 Y109.059 E28.08521
G1 X45.842 Y108.909 E28.09235
G1 X45.691 Y108.168 E28.12756
G1 X45.593 Y107.548 E28.15679
G1 X45.533 Y107.035 E28.18084
G1 X45.519 Y106.903 E28.18702
G1 X45.455 Y106.222 E28.21887
G1 X45.425 Y105.642 E28.24592
G1 X45.419 Y105.094 E28.27143
G1 X45.43 Y104.248 E28.31083
G1 X45.466 Y103.63 E28.33966
G1 X45.53 Y102.993 E28.36947
G1 X45.624 Y102.239 E28.40485
G1 X45.719 Y101.674 E28.43153
G1 X45.824 Y101.166 E28.45568
G1 X45.86 Y101.004 E28.46341
G1 X46.022 Y100.319 E28.49618
G1 X46.183 Y99.747 E28.52385
G1 X46.354 Y99.221 E28.54961
G1 X46.402 Y99.079 E28.55659
G1 X46.633 Y98.426 E28.58884
G1 X46.867 Y97.852 E28.6177
G1 X47.136 Y97.258 E28.64807
G1 X47.436 Y96.63 E28.68048
G1 X47.726 Y96.089 E28.70906
G1 X48.032 Y95.572 E28.73703
G1 X48.432 Y94.926 E28.77241
G1 X48.787 Y94.407 E28.80169
G1 X49.091 Y93.998 E28.82542
G1 X49.178 Y93.884 E28.8321
G1 X49.62 Y93.319 E28.8655
G1 X50.024 Y92.847 E28.89443
G1 X50.454 Y92.384 E28.92385
G1 X50.982 Y91.844 E28.95902
G1 X51.426 Y91.429 E28.98732
G1 X51.868 Y91.046 E29.01455
G1 X52.461 Y90.556 E29.05037
G1 X52.944 Y90.192 E29.07854
G1 X53.422 Y89.86 E29.10564
G1 X54.102 Y89.412 E29.14355
M204 S3000
M205 X10 Y10
G0 F3000 X54.41 Y89.88
M204 S1800
M205 X8 Y8
G1 F2400 X54.871 Y89.606 E29.16852
G1 X55.482 Y89.274 E29.2009
G1 X56.075 Y88.97 E29.23193
G1 X56.611 Y88.727 E29.25934
G1 X57.128 Y88.515 E29.28536
G1 X57.251 Y88.466 E29.29152
G1 X57.873 Y88.229 E29.32252
G1 X58.371 Y88.064 E29.34694
G1 X58.887 Y87.914 E29.37197
G1 X59.026 Y87.876 E29.37868
G1 X59.711 Y87.697 E29.41164
G1 X60.266 Y87.577 E29.43808
G1 X60.888 Y87.469 E29.46748
G1 X61.609 Y87.361 E29.50143
G1 X62.193 Y87.301 E29.52876
G1 X62.694 Y87.269 E29.55214
G1 X62.826 Y87.262 E29.5583
G1 X63.599 Y87.232 E29.59432
G1 X63.734 Y87.228 E29.60061
G1 X64.335 Y87.22 E29.62859
G1 X80.17 Y87.22 E30.36594
G1 X82.845 Y87.182 E30.49051
G1 X85.511 Y87.069 E30.61476
G1 X88.218 Y86.877 E30.74113
G1 X90.871 Y86.614 E30.86527
G1 X93.511 Y86.276 E30.9892
G1 X96.175 Y85.858 E31.11476
G1 X98.796 Y85.37 E31.23891
G1 X101.447 Y84.8 E31.36517
G1 X103.98 Y84.18 E31.4866
G1 X106.605 Y83.457 E31.61338
G1 X109.18 Y82.669 E31.73877
G1 X111.707 Y81.816 E31.86296
G1 X114.226 Y80.887 E31.98798
G1 X116.722 Y79.885 E32.11322
G1 X119.135 Y78.835 E32.23576
G1 X121.316 Y77.813 E32.34791
G1 X121.581 Y77.694 E32.36144
G1 X122.189 Y77.465 E32.39169
G1 X122.608 Y77.355 E32.41186
G1 X123.249 Y77.253 E32.44208
G1 X123.922 Y77.222 E32.47345
G1 X124.071 Y77.22 E32.48039
G1 X143.116 Y77.221 E33.36721
G1 X143.828 Y77.232 E33.40037
G1 X144.702 Y77.318 E33.44126
G1 X145.359 Y77.439 E33.47237
G1 X159.163 Y80.201 E34.12788
G1 X159.83 Y80.343 E34.15963
G1 X160.456 Y80.517 E34.18989
G1 X161.056 Y80.766 E34.22014
G1 X161.621 Y81.088 E34.25042
G1 X162.141 Y81.476 E34.28063
G1 X162.611 Y81.925 E34.3109
G1 X163.021 Y82.429 E34.34115
G1 X163.367 Y82.979 E34.3714
G1 X163.642 Y83.567 E34.40163
G1 X163.843 Y84.185 E34.43189
G1 X163.966 Y84.823 E34.46215
G1 X164.009 Y85.652 E34.5008
G1 X164.002 Y85.901 E34.5124
G1 X163.967 Y88.681 E34.64186
G1 X164.01 Y91.413 E34.76909
G1 X164.002 Y91.901 E34.79181
G1 X163.967 Y94.681 E34.92127
G1 X164.01 Y97.413 E35.0485
G1 X164.002 Y97.901 E35.07123
G1 X163.967 Y100.681 E35.20069
G1 X164.01 Y103.413 E35.32792
G1 X164.002 Y103.901 E35.35064
G1 X163.967 Y106.681 E35.4801
G1 X164.01 Y109.413 E35.60733
G1 X164.002 Y109.901 E35.63006
G1 X163.967 Y112.681 E35.75951
G1 X164.01 Y115.413 E35.88674
G1 X164.002 Y115.901 E35.90947
G1 X163.967 Y118.681 E36.03893
G1 X164.01 Y121.413 E36.16616
G1 X164.002 Y121.901 E36.18888
G1 X163.967 Y124.68 E36.3183
G1 X164.01 Y127.379 E36.44399
G1 X164.005 Y127.708 E36.45931
G1 X163.939 Y128.354 E36.48955
G1 X163.793 Y128.987 E36.5198
G1 X163.57 Y129.597 E36.55004
G1 X163.275 Y130.176 E36.5803
