;FLAVOR:Marlin
;TIME:9795
;Filament used: 8.94117m
;Layer height: 0.2
;MINX:54.943
;MINY:63.3
;MINZ:0.2
;MAXX:155.063
;MAXY:144.424
;MAXZ:12
;Generated with Cura_SteamEngine 4.7.1
M140 S60
M105
M190 S60
M104 S200
M105
M109 S200
M82 ;absolute extrusion mode
G21 ;metric values
G90 ;absolute positioning
M82 ;set extruder to absolute mode
M107 ;start with the fan off
G28 X0 Y0 ;move X/Y to min endstops
G28 Z0 ;move Z to min endstops
G1 Z15.0 F100 ;move the platform down 15mm
G92 E0 ;zero the extruded length
G1 F200 E3 ;extrude 3mm of feed stock
G92 E0 ;zero the extruded length again
G1 F100
G0 Y20 F100
M117 Printing...
G5
G92 E0
G92 E0
G1 F2400 E-6
;LAYER_COUNT:60
;LAYER:0
M106 S255
M204 S3000
M205 X10 Y10
G1 F600 Z0.275
G0 F3000 X108.165 Y65.536 Z0.275
M204 S1800
M205 X8 Y8
;TYPE:SKIRT
G1 F600 Z0.2
G1 F2400 E0
G1 X108.498 Y65.069 E0.02671
G1 X108.626 Y64.913 E0.0361
G1 X109.024 Y64.491 E0.06311
G1 X109.475 Y64.129 E0.09004
G1 X109.973 Y63.832 E0.11704
G1 X110.506 Y63.606 E0.144
G1 X111.127 Y63.444 E0.17388
G1 X111.476 Y63.381 E0.1904
G1 X112.155 Y63.315 E0.22216
G1 X113.101 Y63.3 E0.26622
G1 X148.665 Y63.3 E1.92223
G1 X149.461 Y63.351 E1.95937
G1 X150.095 Y63.452 E1.98926
G1 X150.548 Y63.56 E2.01095
G1 X151.145 Y63.75 E2.04012
G1 X151.569 Y63.921 E2.06141
G1 X152.156 Y64.213 E2.09194
G1 X152.54 Y64.443 E2.11278
G1 X153.159 Y64.895 E2.14847
G1 X153.615 Y65.297 E2.17678
G1 X154.023 Y65.71 E2.20381
G1 X154.369 Y66.174 E2.23076
G1 X154.648 Y66.681 E2.25771
G1 X154.855 Y67.223 E2.28472
G1 X155.007 Y67.939 E2.31881
G1 X155.033 Y68.152 E2.3288
G1 X155.063 Y68.731 E2.35579
G1 X155.014 Y69.308 E2.38276
G1 X154.885 Y69.873 E2.40974
G1 X154.68 Y70.415 E2.43673
G1 X154.317 Y71.051 E2.47083
G1 X153.882 Y71.678 E2.50636
G1 X152.835 Y73.131 E2.58975
G1 X151.385 Y75.334 E2.71256
G1 X149.993 Y77.593 E2.83612
G1 X148.673 Y79.889 E2.95944
G1 X147.445 Y82.206 E3.08154
G1 X146.286 Y84.602 E3.20548
G1 X145.767 Y85.76 E3.26457
G1 X145.463 Y86.474 E3.3007
G1 X145.241 Y87.001 E3.32733
G1 X144.786 Y88.136 E3.38427
G1 X144.78 Y88.156 E3.38524
G1 X144.316 Y89.397 E3.44693
G1 X143.996 Y90.321 E3.49247
G1 X143.78 Y90.952 E3.52352
G1 X143.275 Y92.584 E3.60307
G1 X143.022 Y93.502 E3.64741
G1 X142.835 Y94.19 E3.68061
G1 X142.457 Y95.778 E3.75662
G1 X142.131 Y97.391 E3.83324
G1 X141.865 Y99.033 E3.9107
G1 X141.745 Y99.991 E3.95566
G1 X141.664 Y100.654 E3.98676
G1 X141.579 Y101.627 E4.03224
G1 X141.523 Y102.307 E4.06401
G1 X141.465 Y103.397 E4.11483
G1 X141.436 Y104.533 E4.16775
G1 X141.438 Y105.655 E4.21999
G1 X141.471 Y106.759 E4.27142
G1 X141.506 Y107.405 E4.30155
G1 X141.537 Y107.906 E4.32492
G1 X141.626 Y108.984 E4.37529
G1 X141.755 Y110.15 E4.42991
G1 X141.901 Y111.225 E4.48043
G1 X142.087 Y112.364 E4.53417
G1 X142.289 Y113.429 E4.58464
G1 X142.536 Y114.58 E4.63946
G1 X142.683 Y115.195 E4.6689
G1 X142.806 Y115.699 E4.69306
G1 X142.969 Y116.32 E4.72296
G1 X143.095 Y116.789 E4.74557
G1 X143.406 Y117.862 E4.79759
G1 X144.121 Y120.056 E4.90504
G1 X144.929 Y122.23 E5.01303
G1 X145.837 Y124.399 E5.12253
G1 X146.401 Y125.625 E5.18536
G1 X146.803 Y126.493 E5.22991
G1 X147.425 Y127.735 E5.29459
G1 X147.853 Y128.584 E5.33886
G1 X148.994 Y130.684 E5.45014
G1 X150.189 Y132.737 E5.56076
G1 X151.429 Y134.734 E5.67021
G1 X152.062 Y135.686 E5.72345
G1 X152.785 Y136.815 E5.78587
G1 X153.063 Y137.323 E5.81284
G1 X153.303 Y137.985 E5.84563
G1 X153.421 Y138.422 E5.8667
G1 X153.533 Y138.99 E5.89366
G1 X153.566 Y139.569 E5.92067
G1 X153.525 Y140.114 E5.94612
G1 X153.417 Y140.683 E5.97308
G1 X153.126 Y141.464 E6.01189
G1 X152.918 Y141.889 E6.03393
G1 X152.628 Y142.391 E6.06092
G1 X152.272 Y142.848 E6.0879
G1 X151.787 Y143.309 E6.11905
G1 X151.693 Y143.385 E6.12468
G1 X151.218 Y143.717 E6.15167
G1 X150.702 Y143.981 E6.17866
G1 X150.089 Y144.189 E6.2088
G1 X149.677 Y144.294 E6.2286
G1 X149.107 Y144.398 E6.25558
G1 X148.64 Y144.424 E6.27735
G1 X112.489 Y144.423 E7.9607
G1 X111.819 Y144.369 E7.992
G1 X111.528 Y144.322 E8.00572
G1 X110.964 Y144.191 E8.03268
G1 X110.423 Y143.983 E8.05967
G1 X109.917 Y143.702 E8.08662
G1 X109.453 Y143.355 E8.1136
G1 X109.057 Y142.964 E8.13952
G1 X108.694 Y142.555 E8.16498
G1 X108.34 Y142.096 E8.19197
G1 X108.053 Y141.593 E8.21894
G1 X107.837 Y141.055 E8.24593
G1 X107.667 Y140.355 E8.27947
G1 X107.587 Y139.781 E8.30646
G1 X107.577 Y139.491 E8.31997
G1 X107.576 Y81.901 E11.0016
G1 X107.577 Y77.784 E11.19331
G1 X107.551 Y71.185 E11.50059
G1 X107.545 Y67.74 E11.661
G1 X107.584 Y67.162 E11.68798
G1 X107.702 Y66.595 E11.71494
G1 X107.897 Y66.05 E11.7419
G1 X108.165 Y65.536 E11.76889
M204 S3000
M205 X10 Y10
G0 F3000 X108.723 Y65.704
M204 S1800
M205 X8 Y8
G1 F2400 X109.059 Y65.268 E11.79452
G1 X109.431 Y64.878 E11.81962
G1 X109.857 Y64.547 E11.84474
G1 X110.326 Y64.282 E11.86982
G1 X110.83 Y64.09 E11.89493
G1 X111.575 Y63.932 E11.9304
G1 X112.164 Y63.874 E11.95796
G1 X113.043 Y63.86 E11.99889
G1 X148.665 Y63.86 E13.6576
G1 X149.415 Y63.909 E13.6926
G1 X149.965 Y63.996 E13.71853
G1 X150.418 Y64.104 E13.74021
G1 X150.935 Y64.269 E13.76548
G1 X151.359 Y64.44 E13.78677
G1 X151.868 Y64.693 E13.81324
G1 X152.252 Y64.923 E13.83408
G1 X152.789 Y65.316 E13.86507
G1 X153.245 Y65.718 E13.89337
G1 X153.622 Y66.103 E13.91846
G1 X153.938 Y66.54 E13.94357
G1 X154.186 Y67.019 E13.96869
G1 X154.36 Y67.529 E13.99378
G1 X154.477 Y68.22 E14.02642
G1 X154.503 Y68.759 E14.05154
G1 X154.448 Y69.295 E14.07663
G1 X154.315 Y69.818 E14.10176
G1 X154.107 Y70.315 E14.12685
G1 X153.857 Y70.733 E14.14953
G1 X153.428 Y71.351 E14.18456
G1 X152.375 Y72.812 E14.26842
G1 X150.912 Y75.035 E14.39233
G1 X149.512 Y77.308 E14.51664
G1 X148.729 Y78.667 E14.58967
G1 X148.175 Y79.633 E14.64153
G1 X147.451 Y80.997 E14.71343
G1 X146.941 Y81.962 E14.76426
G1 X145.778 Y84.366 E14.88861
G1 X145.237 Y85.573 E14.9502
G1 X144.725 Y86.783 E15.01138
G1 X144.26 Y87.942 E15.06953
G1 X144.255 Y87.959 E15.07035
G1 X143.812 Y89.142 E15.12917
G1 X143.467 Y90.138 E15.17825
G1 X143.247 Y90.782 E15.20994
G1 X142.746 Y92.397 E15.28868
G1 X142.294 Y94.041 E15.36807
G1 X141.911 Y95.653 E15.44522
G1 X141.579 Y97.295 E15.52323
G1 X141.42 Y98.271 E15.56927
G1 X141.315 Y98.929 E15.6003
G1 X141.189 Y99.922 E15.64691
G1 X141.107 Y100.596 E15.67853
G1 X141.023 Y101.561 E15.72363
G1 X140.965 Y102.266 E15.75657
G1 X140.905 Y103.39 E15.80898
G1 X140.876 Y104.521 E15.86166
G1 X140.878 Y105.673 E15.91531
G1 X140.91 Y106.748 E15.96538
G1 X140.947 Y107.439 E15.99761
G1 X140.978 Y107.934 E16.0207
G1 X141.031 Y108.593 E16.05148
G1 X141.07 Y109.052 E16.07293
G1 X141.193 Y110.169 E16.12526
G1 X141.354 Y111.354 E16.18095
G1 X141.532 Y112.441 E16.23224
G1 X141.745 Y113.562 E16.28537
G1 X141.997 Y114.734 E16.34119
G1 X142.139 Y115.327 E16.36958
G1 X142.26 Y115.825 E16.39345
G1 X142.428 Y116.465 E16.42426
G1 X142.557 Y116.943 E16.44731
G1 X142.873 Y118.033 E16.50016
G1 X143.595 Y120.248 E16.60864
G1 X144.407 Y122.433 E16.71718
G1 X145.313 Y124.598 E16.82646
G1 X145.893 Y125.86 E16.89113
G1 X146.307 Y126.754 E16.93701
G1 X146.925 Y127.987 E17.00123
G1 X147.362 Y128.854 E17.04644
G1 X148.496 Y130.941 E17.15704
G1 X149.717 Y133.039 E17.27007
G1 X150.931 Y134.995 E17.37727
G1 X151.59 Y135.988 E17.43276
G1 X152.313 Y137.117 E17.49519
G1 X152.57 Y137.591 E17.52029
G1 X152.762 Y138.131 E17.54698
G1 X152.88 Y138.568 E17.56806
G1 X152.982 Y139.098 E17.59319
G1 X153.004 Y139.636 E17.61826
G1 X152.969 Y140.047 E17.63747
G1 X152.865 Y140.577 E17.66262
G1 X152.623 Y141.218 E17.69452
G1 X152.415 Y141.643 E17.71656
G1 X152.143 Y142.109 E17.74168
G1 X151.805 Y142.529 E17.76678
G1 X151.435 Y142.874 E17.79034
G1 X151.341 Y142.95 E17.79597
G1 X150.897 Y143.257 E17.8211
G1 X150.413 Y143.495 E17.84622
G1 X149.539 Y143.751 E17.88863
G1 X149.008 Y143.845 E17.91374
G1 X148.64 Y143.864 E17.93089
G1 X112.489 Y143.863 E19.61424
G1 X111.909 Y143.816 E19.64133
G1 X111.618 Y143.769 E19.65506
G1 X111.093 Y143.644 E19.68019
G1 X110.593 Y143.443 E19.70528
G1 X110.128 Y143.17 E19.73039
G1 X109.708 Y142.831 E19.75552
G1 X109.476 Y142.592 E19.77103
G1 X109.113 Y142.183 E19.79649
G1 X108.785 Y141.754 E19.82164
G1 X108.525 Y141.282 E19.84673
G1 X108.273 Y140.516 E19.88428
G1 X108.215 Y140.24 E19.89741
G1 X108.137 Y139.491 E19.93248
G1 X108.136 Y81.901 E22.61411
G1 X108.137 Y77.785 E22.80577
G1 X108.111 Y71.184 E23.11314
G1 X108.105 Y67.739 E23.27356
G1 X108.144 Y67.201 E23.29867
G1 X108.262 Y66.675 E23.32377
G1 X108.457 Y66.172 E23.34889
G1 X108.723 Y65.704 E23.37396
M204 S3000
M205 X10 Y10
G0 F3000 X109.016 Y66.306
M204 S1800
M205 X8 Y8
G1 F2400 X109.364 Y65.779 E23.40337
G1 X109.836 Y65.266 E23.43583
G1 X110.234 Y64.97 E23.45892
G1 X110.673 Y64.74 E23.482
G1 X111.326 Y64.546 E23.51372
G1 X111.675 Y64.483 E23.53023
G1 X112.173 Y64.434 E23.55354
G1 X113.052 Y64.42 E23.59447
G1 X148.665 Y64.42 E25.25276
G1 X149.37 Y64.467 E25.28566
G1 X150.288 Y64.649 E25.32924
G1 X151.15 Y64.96 E25.37191
G1 X151.965 Y65.404 E25.41513
G1 X152.419 Y65.736 E25.44132
G1 X152.875 Y66.138 E25.46962
G1 X153.219 Y66.494 E25.49267
G1 X153.502 Y66.902 E25.51579
G1 X153.716 Y67.35 E25.53891
G1 X153.895 Y68.075 E25.57369
G1 X153.942 Y68.783 E25.60673
G1 X153.882 Y69.276 E25.62985
G1 X153.744 Y69.752 E25.65293
G1 X153.397 Y70.414 E25.68773
G1 X152.974 Y71.024 E25.7223
G1 X151.904 Y72.509 E25.80753
G1 X150.438 Y74.736 E25.93168
G1 X149.029 Y77.023 E26.05676
G1 X148.243 Y78.388 E26.1301
G1 X147.682 Y79.366 E26.1826
G1 X146.437 Y81.718 E26.30652
G1 X145.276 Y84.115 E26.43053
G1 X144.726 Y85.344 E26.49323
G1 X144.23 Y86.515 E26.55245
G1 X143.735 Y87.748 E26.61431
G1 X143.731 Y87.763 E26.61504
G1 X143.271 Y88.991 E26.6761
G1 X142.938 Y89.955 E26.72359
G1 X142.706 Y90.633 E26.75696
G1 X142.206 Y92.25 E26.83577
G1 X141.938 Y93.219 E26.88258
G1 X141.762 Y93.864 E26.91371
G1 X141.358 Y95.562 E26.99499
G1 X141.032 Y97.177 E27.07171
G1 X140.759 Y98.858 E27.15101
G1 X140.634 Y99.852 E27.19766
G1 X140.55 Y100.541 E27.22998
G1 X140.463 Y101.529 E27.27616
G1 X140.409 Y102.173 E27.30625
G1 X140.345 Y103.382 E27.36263
G1 X140.316 Y104.51 E27.41517
G1 X140.318 Y105.656 E27.46853
G1 X140.353 Y106.812 E27.52238
G1 X140.39 Y107.5 E27.55447
G1 X140.418 Y107.959 E27.57588
G1 X140.513 Y109.12 E27.63012
G1 X140.636 Y110.232 E27.68222
G1 X140.796 Y111.403 E27.73725
G1 X140.985 Y112.563 E27.79198
G1 X141.201 Y113.698 E27.84577
G1 X141.439 Y114.805 E27.8985
G1 X141.595 Y115.46 E27.92985
G1 X141.721 Y115.977 E27.95463
G1 X141.887 Y116.611 E27.98515
G1 X142.014 Y117.084 E28.00795
G1 X142.331 Y118.176 E28.0609
G1 X142.766 Y119.514 E28.12641
G1 X143.069 Y120.44 E28.17178
G1 X143.892 Y122.654 E28.28177
G1 X144.798 Y124.821 E28.39113
G1 X145.385 Y126.096 E28.45649
G1 X145.783 Y126.956 E28.50062
G1 X146.425 Y128.239 E28.56742
G1 X146.877 Y129.135 E28.61415
G1 X147.994 Y131.192 E28.72315
G1 X149.234 Y133.322 E28.83791
G1 X150.487 Y135.341 E28.94856
G1 X151.119 Y136.29 E29.00165
G1 X151.842 Y137.419 E29.06408
G1 X152.075 Y137.857 E29.08718
G1 X152.34 Y138.714 E29.12895
G1 X152.43 Y139.202 E29.15205
G1 X152.424 Y139.88 E29.18362
G1 X152.315 Y140.468 E29.21147
G1 X152.12 Y140.972 E29.23663
G1 X151.659 Y141.823 E29.2817
G1 X151.341 Y142.204 E29.30481
G1 X150.988 Y142.514 E29.32669
G1 X150.579 Y142.794 E29.34977
G1 X150.13 Y143.004 E29.37285
G1 X149.401 Y143.209 E29.40811
G1 X148.64 Y143.304 E29.44382
G1 X112.489 Y143.303 E31.12716
G1 X111.707 Y143.217 E31.16379
G1 X111.225 Y143.098 E31.18691
G1 X110.769 Y142.904 E31.20999
G1 X110.349 Y142.64 E31.23309
G1 X109.894 Y142.22 E31.26192
G1 X109.531 Y141.811 E31.28738
G1 X109.233 Y141.415 E31.31046
G1 X109.002 Y140.976 E31.33356
G1 X108.821 Y140.4 E31.36167
G1 X108.763 Y140.124 E31.37481
G1 X108.697 Y139.491 E31.40444
G1 X108.696 Y81.901 E34.08607
G1 X108.697 Y77.785 E34.27773
G1 X108.671 Y71.183 E34.58515
G1 X108.665 Y67.738 E34.74556
G1 X108.704 Y67.244 E34.76864
G1 X108.822 Y66.762 E34.79174
G1 X109.016 Y66.306 E34.81482
M204 S3000
M205 X10 Y10
G0 F3000 X109.575 Y66.453
M204 S1800
M205 X8 Y8
G1 F2400 X109.925 Y65.979 E34.84226
G1 X110.239 Y65.658 E34.86317
G1 X110.605 Y65.399 E34.88404
G1 X111.011 Y65.209 E34.90492
G1 X111.774 Y65.034 E34.94137
G1 X112.182 Y64.994 E34.96046
G1 X113.061 Y64.98 E35.00139
G1 X148.665 Y64.98 E36.65926
G1 X149.325 Y65.025 E36.69007
G1 X150.158 Y65.194 E36.72964
G1 X150.941 Y65.479 E36.76844
G1 X151.677 Y65.884 E36.80756
G1 X152.048 Y66.156 E36.82898
G1 X152.504 Y66.558 E36.85729
G1 X152.813 Y66.883 E36.87817
G1 X153.059 Y67.258 E36.89905
G1 X153.235 Y67.671 E36.91996
G1 X153.365 Y68.356 E36.95242
G1 X153.38 Y68.804 E36.9733
G1 X153.315 Y69.248 E36.99419
G1 X153.172 Y69.673 E37.01507
G1 X152.936 Y70.095 E37.03759
G1 X152.519 Y70.696 E37.07165
G1 X151.451 Y72.179 E37.15675
G1 X149.964 Y74.437 E37.28264
G1 X148.553 Y76.727 E37.40789
G1 X147.758 Y78.108 E37.48209
G1 X147.203 Y79.076 E37.53404
G1 X145.938 Y81.462 E37.65979
G1 X144.769 Y83.879 E37.78481
G1 X144.234 Y85.072 E37.84569
G1 X143.917 Y85.817 E37.88339
G1 X143.693 Y86.348 E37.91023
G1 X143.211 Y87.549 E37.97049
G1 X143.206 Y87.567 E37.97136
G1 X142.74 Y88.813 E38.0333
G1 X142.412 Y89.763 E38.0801
G1 X142.173 Y90.463 E38.11454
G1 X141.668 Y92.093 E38.194
G1 X141.401 Y93.061 E38.24076
G1 X141.211 Y93.76 E38.27449
G1 X140.811 Y95.443 E38.35504
G1 X140.479 Y97.086 E38.43309
G1 X140.202 Y98.791 E38.51352
G1 X140.078 Y99.782 E38.56003
G1 X139.993 Y100.483 E38.59291
G1 X139.905 Y101.48 E38.63951
G1 X139.847 Y102.179 E38.67217
G1 X139.785 Y103.339 E38.72627
G1 X139.756 Y104.481 E38.77946
G1 X139.758 Y105.674 E38.83501
G1 X139.794 Y106.859 E38.89021
G1 X139.829 Y107.509 E38.92052
G1 X139.858 Y107.976 E38.94231
G1 X139.954 Y109.153 E38.9973
G1 X140.084 Y110.329 E39.05239
G1 X140.243 Y111.496 E39.10724
G1 X140.429 Y112.634 E39.16093
G1 X140.646 Y113.778 E39.21515
G1 X140.903 Y114.974 E39.27211
G1 X141.051 Y115.592 E39.3017
G1 X141.179 Y116.118 E39.32691
G1 X141.346 Y116.756 E39.35762
G1 X141.476 Y117.238 E39.38086
G1 X141.797 Y118.347 E39.43462
G1 X142.234 Y119.689 E39.50034
G1 X142.541 Y120.625 E39.54621
G1 X143.365 Y122.844 E39.65643
G1 X144.3 Y125.079 E39.76924
G1 X144.877 Y126.331 E39.83343
G1 X145.298 Y127.24 E39.88008
G1 X145.925 Y128.491 E39.94524
G1 X146.379 Y129.391 E39.99217
G1 X147.517 Y131.487 E40.10323
G1 X148.751 Y133.606 E40.21741
G1 X150.017 Y135.644 E40.32913
G1 X150.647 Y136.592 E40.38213
G1 X151.37 Y137.721 E40.44456
G1 X151.577 Y138.119 E40.46545
G1 X151.799 Y138.86 E40.50147
G1 X151.877 Y139.302 E40.52237
G1 X151.868 Y139.814 E40.54621
G1 X151.764 Y140.354 E40.57182
G1 X151.409 Y141.151 E40.61244
G1 X151.177 Y141.535 E40.63333
G1 X150.73 Y142.003 E40.66347
G1 X150.264 Y142.328 E40.68992
G1 X149.674 Y142.561 E40.71946
G1 X149.262 Y142.666 E40.73926
G1 X148.64 Y142.744 E40.76845
G1 X112.489 Y142.743 E42.45179
G1 X111.796 Y142.664 E42.48427
G1 X111.362 Y142.553 E42.50513
G1 X110.953 Y142.367 E42.52605
G1 X110.585 Y142.112 E42.5469
G1 X110.313 Y141.849 E42.56452
G1 X109.95 Y141.44 E42.58998
G1 X109.684 Y141.079 E42.61086
G1 X109.485 Y140.677 E42.63175
G1 X109.311 Y140.009 E42.66389
G1 X109.257 Y139.491 E42.68814
G1 X109.256 Y81.901 E45.36977
G1 X109.257 Y77.785 E45.56143
G1 X109.231 Y71.182 E45.8689
G1 X109.225 Y67.737 E46.02931
G1 X109.264 Y67.291 E46.05016
G1 X109.382 Y66.858 E46.07105
G1 X109.575 Y66.453 E46.09194
M204 S3000
M205 X10 Y10
G0 F3000 X110.23 Y66.49
M204 S1800
M205 X8 Y8
G1 F2400 X110.638 Y66.055 E46.11971
G1 X110.969 Y65.838 E46.13814
G1 X111.525 Y65.648 E46.1655
G1 X112.191 Y65.554 E46.19682
G1 X113.07 Y65.54 E46.23776
G1 X148.665 Y65.54 E47.89521
G1 X149.28 Y65.583 E47.92392
G1 X150.029 Y65.738 E47.95953
G1 X150.731 Y65.998 E47.99439
G1 X151.389 Y66.365 E48.02947
G1 X151.678 Y66.576 E48.04614
G1 X152.134 Y66.978 E48.07444
G1 X152.403 Y67.268 E48.09286
G1 X152.608 Y67.606 E48.11127
G1 X152.784 Y68.211 E48.14061
G1 X152.818 Y68.819 E48.16896
G1 X152.746 Y69.208 E48.18738
G1 X152.476 Y69.777 E48.21671
G1 X152.065 Y70.369 E48.25027
G1 X150.979 Y71.876 E48.33676
G1 X149.51 Y74.108 E48.46118
G1 X148.071 Y76.442 E48.58886
G1 X147.272 Y77.829 E48.66339
G1 X146.71 Y78.809 E48.716
G1 X145.967 Y80.209 E48.7898
G1 X145.44 Y81.207 E48.84235
G1 X144.261 Y83.643 E48.96837
