;FLAVOR:Marlin
;TIME:8385
;Filament used: 9.39081m
;Layer height: 0.2
;MINX:72.8
;MINY:41.8
;MINZ:0.2
;MAXX:137.2
;MAXY:168
;MAXZ:16
;Generated with Cura_SteamEngine 4.7.1
M140 S60
M105
M190 S60
M104 S200
M105
M109 S200
M82 ;absolute extrusion mode
G21 ;metric values
G90 ;absolute positioning
M82 ;set extruder to absolute mode
M107 ;start with the fan off
G28 X0 Y0 ;move X/Y to min endstops
G28 Z0 ;move Z to min endstops
G1 Z15.0 F100 ;move the platform down 15mm
G92 E0 ;zero the extruded length
G1 F200 E3 ;extrude 3mm of feed stock
G92 E0 ;zero the extruded length again
G1 F100
G0 Y20 F100
M117 Printing...
G5
G92 E0
G92 E0
G1 F2400 E-6
;LAYER_COUNT:80
;LAYER:0
M106 S255
M204 S3000
M205 X10 Y10
G1 F600 Z0.275
G0 F3000 X93.155 Y44.474 Z0.275
M204 S1800
M205 X8 Y8
;TYPE:SKIRT
G1 F600 Z0.2
G1 F2400 E0
G1 X93.424 Y43.961 E0.02697
G1 X93.761 Y43.49 E0.05394
G1 X94.194 Y43.03 E0.08336
G1 X94.631 Y42.65 E0.11032
G1 X95.116 Y42.333 E0.1373
G1 X95.64 Y42.086 E0.16428
G1 X96.193 Y41.914 E0.19124
G1 X96.765 Y41.819 E0.21824
G1 X97.164 Y41.8 E0.23684
G1 X112.836 Y41.8 E0.9666
G1 X113.414 Y41.84 E0.99357
G1 X113.981 Y41.959 E1.02055
G1 X114.526 Y42.155 E1.04752
G1 X115.039 Y42.424 E1.07449
G1 X115.51 Y42.761 E1.10146
G1 X115.97 Y43.194 E1.13088
G1 X116.35 Y43.631 E1.15784
G1 X116.667 Y44.116 E1.18482
G1 X116.914 Y44.64 E1.2118
G1 X117.086 Y45.193 E1.23876
G1 X117.181 Y45.765 E1.26576
G1 X117.2 Y46.164 E1.28436
G1 X117.2 Y131.8 E5.27193
G1 X132.836 Y131.8 E6.00001
G1 X133.414 Y131.84 E6.02699
G1 X133.981 Y131.959 E6.05397
G1 X134.526 Y132.155 E6.08094
G1 X135.039 Y132.424 E6.10791
G1 X135.51 Y132.761 E6.13488
G1 X135.97 Y133.194 E6.16429
G1 X136.35 Y133.631 E6.19126
G1 X136.667 Y134.116 E6.21824
G1 X136.914 Y134.64 E6.24521
G1 X137.086 Y135.193 E6.27218
G1 X137.181 Y135.765 E6.29918
G1 X137.2 Y136.164 E6.31778
G1 X137.2 Y163.645 E7.59741
G1 X137.16 Y164.223 E7.62439
G1 X137.041 Y164.79 E7.65136
G1 X136.845 Y165.335 E7.67833
G1 X136.576 Y165.848 E7.70531
G1 X136.239 Y166.319 E7.73227
G1 X135.84 Y166.739 E7.75925
G1 X135.387 Y167.101 E7.78625
G1 X134.682 Y167.508 E7.82415
G1 X134.153 Y167.745 E7.85115
G1 X133.597 Y167.907 E7.87811
G1 X133.024 Y167.991 E7.90508
G1 X132.444 Y167.995 E7.93209
G1 X131.87 Y167.919 E7.95905
G1 X131.312 Y167.765 E7.986
G1 X130.78 Y167.536 E8.01297
G1 X130.374 Y167.298 E8.03489
G1 X126.958 Y165.021 E8.22605
G1 X126.845 Y165.335 E8.24159
G1 X126.576 Y165.848 E8.26856
G1 X126.239 Y166.319 E8.29553
G1 X125.84 Y166.739 E8.3225
G1 X125.387 Y167.101 E8.3495
G1 X124.682 Y167.508 E8.38741
G1 X124.153 Y167.745 E8.4144
G1 X123.597 Y167.907 E8.44137
G1 X123.024 Y167.991 E8.46833
G1 X122.444 Y167.995 E8.49534
G1 X121.87 Y167.919 E8.5223
G1 X121.312 Y167.765 E8.54926
G1 X120.78 Y167.536 E8.57623
G1 X120.374 Y167.298 E8.59814
G1 X116.958 Y165.021 E8.7893
G1 X116.845 Y165.335 E8.80484
G1 X116.576 Y165.848 E8.83181
G1 X116.239 Y166.319 E8.85878
G1 X115.84 Y166.739 E8.88576
G1 X115.387 Y167.101 E8.91276
G1 X114.682 Y167.508 E8.95066
G1 X114.153 Y167.745 E8.97765
G1 X113.597 Y167.907 E9.00462
G1 X113.024 Y167.991 E9.03159
G1 X112.444 Y167.995 E9.05859
G1 X111.87 Y167.919 E9.08556
G1 X111.312 Y167.765 E9.11251
G1 X110.78 Y167.536 E9.13948
G1 X110.374 Y167.298 E9.16139
G1 X105 Y163.715 E9.46215
G1 X99.626 Y167.298 E9.7629
G1 X99.123 Y167.585 E9.78987
G1 X98.585 Y167.8 E9.81685
G1 X98.023 Y167.94 E9.84382
G1 X97.447 Y168 E9.87078
G1 X96.868 Y167.981 E9.89776
G1 X96.297 Y167.882 E9.92474
G1 X95.745 Y167.706 E9.95172
G1 X95.022 Y167.35 E9.98925
G1 X94.531 Y167.043 E10.01621
G1 X94.087 Y166.671 E10.04318
G1 X93.698 Y166.241 E10.07018
G1 X93.373 Y165.762 E10.09714
G1 X93.116 Y165.243 E10.1241
G1 X93.042 Y165.02 E10.13504
G1 X89.626 Y167.298 E10.32623
G1 X89.123 Y167.585 E10.3532
G1 X88.585 Y167.8 E10.38017
G1 X88.023 Y167.94 E10.40714
G1 X87.447 Y168 E10.43411
G1 X86.868 Y167.981 E10.46108
G1 X86.297 Y167.882 E10.48807
G1 X85.745 Y167.706 E10.51505
G1 X85.022 Y167.35 E10.55257
G1 X84.531 Y167.043 E10.57954
G1 X84.087 Y166.671 E10.60651
G1 X83.698 Y166.241 E10.63351
G1 X83.373 Y165.762 E10.66046
G1 X83.116 Y165.243 E10.68743
G1 X83.042 Y165.02 E10.69837
G1 X79.626 Y167.298 E10.88956
G1 X79.123 Y167.585 E10.91653
G1 X78.585 Y167.8 E10.9435
G1 X78.023 Y167.94 E10.97047
G1 X77.447 Y168 E10.99744
G1 X76.868 Y167.981 E11.02441
G1 X76.297 Y167.882 E11.0514
G1 X75.745 Y167.706 E11.07838
G1 X75.022 Y167.35 E11.1159
G1 X74.531 Y167.043 E11.14287
G1 X74.087 Y166.671 E11.16984
G1 X73.698 Y166.241 E11.19684
G1 X73.373 Y165.762 E11.22379
G1 X73.116 Y165.243 E11.25076
G1 X72.933 Y164.693 E11.27775
G1 X72.827 Y164.124 E11.3047
G1 X72.8 Y163.645 E11.32704
G1 X72.8 Y136.164 E12.60667
G1 X72.84 Y135.586 E12.63365
G1 X72.959 Y135.019 E12.66063
G1 X73.155 Y134.474 E12.6876
G1 X73.424 Y133.961 E12.71457
G1 X73.761 Y133.49 E12.74154
G1 X74.194 Y133.03 E12.77095
G1 X74.631 Y132.65 E12.79792
G1 X75.116 Y132.333 E12.8249
G1 X75.64 Y132.086 E12.85187
G1 X76.193 Y131.914 E12.87884
G1 X76.765 Y131.819 E12.90584
G1 X77.164 Y131.8 E12.92444
G1 X92.8 Y131.8 E13.65252
G1 X92.8 Y46.164 E17.64009
G1 X92.84 Y45.586 E17.66707
G1 X92.959 Y45.019 E17.69404
G1 X93.155 Y44.474 E17.72101
M204 S3000
M205 X10 Y10
G0 F3000 X93.714 Y44.598
M204 S1800
M205 X8 Y8
G1 F2400 X93.982 Y44.129 E17.74616
G1 X94.426 Y43.59 E17.77868
G1 X94.59 Y43.426 E17.78948
G1 X94.999 Y43.074 E17.81461
G1 X95.455 Y42.786 E17.83972
G1 X95.948 Y42.569 E17.8648
G1 X96.468 Y42.427 E17.8899
G1 X97.164 Y42.36 E17.92246
G1 X112.836 Y42.36 E18.65221
G1 X113.374 Y42.4 E18.67734
G1 X113.9 Y42.519 E18.70245
G1 X114.402 Y42.714 E18.72752
G1 X114.871 Y42.982 E18.75268
G1 X115.41 Y43.426 E18.78519
G1 X115.574 Y43.59 E18.79599
G1 X115.926 Y43.999 E18.82112
G1 X116.214 Y44.455 E18.84623
G1 X116.431 Y44.948 E18.87131
G1 X116.573 Y45.468 E18.89641
G1 X116.64 Y46.164 E18.92897
G1 X116.64 Y132.36 E22.94262
G1 X132.836 Y132.36 E23.69677
G1 X133.374 Y132.4 E23.72189
G1 X133.9 Y132.519 E23.74701
G1 X134.402 Y132.714 E23.77208
G1 X134.871 Y132.982 E23.79724
G1 X135.41 Y133.426 E23.82975
G1 X135.574 Y133.59 E23.84055
G1 X135.926 Y133.999 E23.86568
G1 X136.214 Y134.455 E23.89079
G1 X136.431 Y134.948 E23.91587
G1 X136.573 Y135.468 E23.94097
G1 X136.64 Y136.164 E23.97353
G1 X136.64 Y163.645 E25.25316
G1 X136.6 Y164.183 E25.27828
G1 X136.481 Y164.709 E25.3034
G1 X136.286 Y165.211 E25.32847
G1 X136.018 Y165.68 E25.35362
G1 X135.685 Y166.103 E25.37869
G1 X135.292 Y166.473 E25.40383
G1 X134.714 Y166.856 E25.43611
G1 X134.418 Y167.014 E25.45174
G1 X133.925 Y167.232 E25.47684
G1 X133.405 Y167.375 E25.50195
G1 X132.869 Y167.439 E25.52709
G1 X132.33 Y167.424 E25.55219
G1 X131.8 Y167.329 E25.57727
G1 X131.289 Y167.157 E25.60237
G1 X130.685 Y166.832 E25.63431
G1 X126.605 Y164.112 E25.86264
G1 X126.6 Y164.183 E25.86595
G1 X126.481 Y164.709 E25.89106
G1 X126.286 Y165.211 E25.91614
G1 X126.018 Y165.68 E25.94129
G1 X125.685 Y166.103 E25.96636
G1 X125.292 Y166.473 E25.9915
G1 X124.714 Y166.856 E26.02378
G1 X124.418 Y167.014 E26.03941
G1 X123.925 Y167.232 E26.06451
G1 X123.405 Y167.375 E26.08962
G1 X122.869 Y167.439 E26.11475
G1 X122.33 Y167.424 E26.13986
G1 X121.8 Y167.329 E26.16493
G1 X121.289 Y167.157 E26.19004
G1 X120.685 Y166.832 E26.22198
G1 X116.605 Y164.112 E26.45031
G1 X116.6 Y164.183 E26.45362
G1 X116.481 Y164.709 E26.47873
G1 X116.286 Y165.211 E26.50381
G1 X116.018 Y165.68 E26.52896
G1 X115.685 Y166.103 E26.55403
G1 X115.292 Y166.473 E26.57917
G1 X114.714 Y166.856 E26.61145
G1 X114.418 Y167.014 E26.62708
G1 X113.925 Y167.232 E26.65218
G1 X113.405 Y167.375 E26.67729
G1 X112.869 Y167.439 E26.70242
G1 X112.33 Y167.424 E26.72753
G1 X111.8 Y167.329 E26.7526
G1 X111.289 Y167.157 E26.77771
G1 X110.685 Y166.832 E26.80965
G1 X105.047 Y163.073 E27.12518
G1 X104.999 Y163.035 E27.12803
G1 X104.953 Y163.073 E27.13081
G1 X99.315 Y166.832 E27.44633
G1 X98.846 Y167.097 E27.47142
G1 X98.342 Y167.289 E27.49653
G1 X97.815 Y167.406 E27.52167
G1 X97.277 Y167.443 E27.54678
G1 X96.74 Y167.4 E27.57186
G1 X96.215 Y167.279 E27.59695
G1 X95.582 Y167.014 E27.62891
G1 X95.286 Y166.856 E27.64453
G1 X94.83 Y166.568 E27.66964
G1 X94.422 Y166.215 E27.69476
G1 X94.071 Y165.806 E27.71986
G1 X93.784 Y165.35 E27.74495
G1 X93.567 Y164.856 E27.77007
G1 X93.426 Y164.335 E27.79521
G1 X93.404 Y164.106 E27.80592
G1 X89.315 Y166.832 E28.03475
G1 X88.846 Y167.097 E28.05984
G1 X88.342 Y167.289 E28.08495
G1 X87.815 Y167.406 E28.11009
G1 X87.277 Y167.443 E28.1352
G1 X86.74 Y167.4 E28.16028
G1 X86.215 Y167.279 E28.18537
G1 X85.582 Y167.014 E28.21732
G1 X85.286 Y166.856 E28.23295
G1 X84.83 Y166.568 E28.25806
G1 X84.422 Y166.215 E28.28318
G1 X84.071 Y165.806 E28.30828
G1 X83.784 Y165.35 E28.33337
G1 X83.567 Y164.856 E28.35849
G1 X83.426 Y164.335 E28.38362
G1 X83.404 Y164.106 E28.39434
G1 X79.315 Y166.832 E28.62317
G1 X78.846 Y167.097 E28.64825
G1 X78.342 Y167.289 E28.67337
G1 X77.815 Y167.406 E28.6985
G1 X77.277 Y167.443 E28.72361
G1 X76.74 Y167.4 E28.7487
G1 X76.215 Y167.279 E28.77379
G1 X75.582 Y167.014 E28.80574
G1 X75.286 Y166.856 E28.82136
G1 X74.83 Y166.568 E28.84648
G1 X74.422 Y166.215 E28.8716
G1 X74.071 Y165.806 E28.8967
G1 X73.784 Y165.35 E28.92179
G1 X73.567 Y164.856 E28.94691
G1 X73.426 Y164.335 E28.97204
G1 X73.36 Y163.645 E29.00432
G1 X73.36 Y136.164 E30.28395
G1 X73.4 Y135.626 E30.30907
G1 X73.519 Y135.1 E30.33418
G1 X73.714 Y134.598 E30.35926
G1 X73.982 Y134.129 E30.38441
G1 X74.426 Y133.59 E30.41693
G1 X74.59 Y133.426 E30.42773
G1 X74.999 Y133.074 E30.45285
G1 X75.455 Y132.786 E30.47797
G1 X75.948 Y132.569 E30.50305
G1 X76.468 Y132.427 E30.52815
G1 X77.164 Y132.36 E30.56071
G1 X93.36 Y132.36 E31.31486
G1 X93.36 Y46.164 E35.32851
G1 X93.4 Y45.626 E35.35363
G1 X93.519 Y45.1 E35.37874
G1 X93.714 Y44.598 E35.40382
M204 S3000
M205 X10 Y10
G0 F3000 X94.273 Y44.732
M204 S1800
M205 X8 Y8
G1 F2400 X94.538 Y44.313 E35.4269
G1 X94.986 Y43.822 E35.45785
G1 X95.364 Y43.501 E35.48094
G1 X95.788 Y43.244 E35.50403
G1 X96.249 Y43.059 E35.52716
G1 X96.732 Y42.95 E35.55022
G1 X97.164 Y42.92 E35.57038
G1 X112.836 Y42.92 E36.30013
G1 X113.33 Y42.96 E36.32321
G1 X113.812 Y43.079 E36.34633
G1 X114.268 Y43.273 E36.36941
G1 X114.687 Y43.538 E36.39249
G1 X115.178 Y43.986 E36.42344
G1 X115.499 Y44.364 E36.44653
G1 X115.756 Y44.788 E36.46962
G1 X115.941 Y45.249 E36.49275
G1 X116.05 Y45.732 E36.5158
G1 X116.08 Y46.164 E36.53597
G1 X116.08 Y132.92 E40.57569
G1 X132.836 Y132.92 E41.35592
G1 X133.33 Y132.96 E41.379
G1 X133.812 Y133.079 E41.40212
G1 X134.268 Y133.273 E41.42519
G1 X134.687 Y133.538 E41.44828
G1 X135.178 Y133.986 E41.47923
G1 X135.499 Y134.364 E41.50232
G1 X135.756 Y134.788 E41.52541
G1 X135.941 Y135.249 E41.54854
G1 X136.05 Y135.732 E41.57159
G1 X136.08 Y136.164 E41.59176
G1 X136.08 Y163.645 E42.87139
G1 X136.04 Y164.139 E42.89446
G1 X135.921 Y164.621 E42.91758
G1 X135.727 Y165.077 E42.94066
G1 X135.462 Y165.496 E42.96374
G1 X135.132 Y165.867 E42.98686
G1 X134.748 Y166.181 E43.00996
G1 X134.154 Y166.52 E43.04181
G1 X133.699 Y166.718 E43.06491
G1 X133.219 Y166.84 E43.08797
G1 X132.725 Y166.883 E43.11106
G1 X132.23 Y166.846 E43.13418
G1 X131.748 Y166.731 E43.15725
G1 X131.29 Y166.539 E43.18038
G1 X130.995 Y166.366 E43.1963
G1 X126.08 Y163.089 E43.47137
G1 X126.08 Y163.645 E43.49726
G1 X126.04 Y164.139 E43.52034
G1 X125.921 Y164.621 E43.54345
G1 X125.727 Y165.077 E43.56653
G1 X125.462 Y165.496 E43.58961
G1 X125.132 Y165.867 E43.61273
G1 X124.748 Y166.181 E43.63583
G1 X124.154 Y166.52 E43.66768
G1 X123.699 Y166.718 E43.69078
G1 X123.219 Y166.84 E43.71384
G1 X122.725 Y166.883 E43.73693
G1 X122.23 Y166.846 E43.76005
G1 X121.748 Y166.731 E43.78312
G1 X121.29 Y166.539 E43.80625
G1 X120.995 Y166.366 E43.82217
G1 X116.08 Y163.089 E44.09724
G1 X116.08 Y163.645 E44.12313
G1 X116.04 Y164.139 E44.14621
G1 X115.921 Y164.621 E44.16932
G1 X115.727 Y165.077 E44.1924
G1 X115.462 Y165.496 E44.21548
G1 X115.132 Y165.867 E44.2386
G1 X114.748 Y166.181 E44.2617
G1 X114.154 Y166.52 E44.29355
G1 X113.699 Y166.718 E44.31665
G1 X113.219 Y166.84 E44.33972
G1 X112.725 Y166.883 E44.36281
G1 X112.23 Y166.846 E44.38592
G1 X111.748 Y166.731 E44.40899
G1 X111.29 Y166.539 E44.43212
G1 X110.995 Y166.366 E44.44804
G1 X105.357 Y162.607 E44.76357
G1 X104.998 Y162.323 E44.78489
G1 X104.643 Y162.607 E44.80606
G1 X99.005 Y166.366 E45.12158
G1 X98.571 Y166.607 E45.1447
G1 X98.105 Y166.775 E45.16777
G1 X97.617 Y166.866 E45.19088
G1 X97.121 Y166.878 E45.21398
G1 X96.63 Y166.81 E45.23706
G1 X96.156 Y166.664 E45.26016
G1 X95.55 Y166.362 E45.29169
G1 X95.132 Y166.094 E45.31481
G1 X94.763 Y165.763 E45.33789
G1 X94.453 Y165.376 E45.36098
G1 X94.208 Y164.945 E45.38406
G1 X94.035 Y164.48 E45.40717
G1 X93.94 Y163.993 E45.43027
G1 X93.92 Y163.645 E45.4465
G1 X93.92 Y163.089 E45.47239
G1 X89.005 Y166.366 E45.74746
G1 X88.571 Y166.607 E45.77057
G1 X88.105 Y166.775 E45.79364
G1 X87.617 Y166.866 E45.81676
G1 X87.121 Y166.878 E45.83986
G1 X86.63 Y166.81 E45.86294
G1 X86.156 Y166.664 E45.88603
G1 X85.55 Y166.362 E45.91756
G1 X85.132 Y166.094 E45.94068
G1 X84.763 Y165.763 E45.96376
G1 X84.453 Y165.376 E45.98685
G1 X84.208 Y164.945 E46.00994
G1 X84.035 Y164.48 E46.03304
G1 X83.94 Y163.993 E46.05614
G1 X83.92 Y163.645 E46.07238
G1 X83.92 Y163.089 E46.09827
G1 X79.005 Y166.366 E46.37333
G1 X78.571 Y166.607 E46.39645
G1 X78.105 Y166.775 E46.41951
G1 X77.617 Y166.866 E46.44263
G1 X77.121 Y166.878 E46.46573
G1 X76.63 Y166.81 E46.48881
G1 X76.156 Y166.664 E46.51191
G1 X75.55 Y166.362 E46.54344
G1 X75.132 Y166.094 E46.56656
G1 X74.763 Y165.763 E46.58964
G1 X74.453 Y165.376 E46.61273
G1 X74.208 Y164.945 E46.63581
G1 X74.035 Y164.48 E46.65892
G1 X73.94 Y163.993 E46.68202
G1 X73.92 Y163.645 E46.69825
G1 X73.92 Y136.164 E47.97788
G1 X73.96 Y135.67 E48.00096
G1 X74.079 Y135.188 E48.02408
G1 X74.273 Y134.732 E48.04715
G1 X74.538 Y134.313 E48.07024
G1 X74.986 Y133.822 E48.10119
G1 X75.364 Y133.501 E48.12428
G1 X75.788 Y133.244 E48.14737
G1 X76.249 Y133.059 E48.1705
G1 X76.732 Y132.95 E48.19355
G1 X77.164 Y132.92 E48.21372
G1 X93.92 Y132.92 E48.99395
G1 X93.92 Y46.164 E53.03367
G1 X93.96 Y45.67 E53.05675
G1 X94.079 Y45.188 E53.07986
G1 X94.273 Y44.732 E53.10294
M204 S3000
M205 X10 Y10
G0 F3000 X94.638 Y45.285
M204 S1800
M205 X8 Y8
G1 F2400 X94.832 Y44.88 E53.12385
G1 X95.218 Y44.382 E53.15319
G1 X95.726 Y43.93 E53.18485
G1 X96.116 Y43.708 E53.20575
G1 X96.539 Y43.559 E53.22663
G1 X97.164 Y43.48 E53.25596
G1 X112.836 Y43.48 E53.98572
G1 X113.283 Y43.52 E54.00662
G1 X113.715 Y43.638 E54.02747
G1 X114.12 Y43.832 E54.04838
G1 X114.618 Y44.218 E54.07772
G1 X115.07 Y44.726 E54.10938
G1 X115.292 Y45.116 E54.13028
G1 X115.441 Y45.539 E54.15116
G1 X115.52 Y46.164 E54.18049
G1 X115.52 Y133.48 E58.24629
G1 X132.836 Y133.48 E59.0526
G1 X133.283 Y133.52 E59.07349
G1 X133.715 Y133.638 E59.09435
G1 X134.12 Y133.832 E59.11526
G1 X134.618 Y134.218 E59.1446
G1 X135.07 Y134.726 E59.17626
G1 X135.292 Y135.116 E59.19716
G1 X135.441 Y135.539 E59.21804
G1 X135.52 Y136.164 E59.24737
G1 X135.52 Y163.645 E60.527
G1 X135.48 Y164.092 E60.5479
G1 X135.362 Y164.524 E60.56875
G1 X135.168 Y164.929 E60.58966
G1 X134.906 Y165.293 E60.61055
G1 X134.584 Y165.605 E60.63142
G1 X133.891 Y166.026 E60.66918
G1 X133.478 Y166.201 E60.69007
G1 X133.04 Y166.3 E60.71098
G1 X132.592 Y166.321 E60.73186
G1 X132.148 Y166.261 E60.75272
G1 X131.721 Y166.123 E60.77362
G1 X131.306 Y165.9 E60.79556
G1 X125.668 Y162.141 E61.11109
G1 X125.52 Y162.022 E61.11993
G1 X125.52 Y163.645 E61.1955
G1 X125.48 Y164.092 E61.2164
G1 X125.362 Y164.524 E61.23725
G1 X125.168 Y164.929 E61.25816
G1 X124.906 Y165.293 E61.27905
G1 X124.584 Y165.605 E61.29992
G1 X123.891 Y166.026 E61.33768
G1 X123.478 Y166.201 E61.35857
G1 X123.04 Y166.3 E61.37948
G1 X122.592 Y166.321 E61.40036
G1 X122.148 Y166.261 E61.42122
G1 X121.721 Y166.123 E61.44212
G1 X121.306 Y165.9 E61.46406
G1 X115.668 Y162.141 E61.77958
G1 X115.52 Y162.022 E61.78843
G1 X115.52 Y163.645 E61.864
G1 X115.48 Y164.092 E61.8849
G1 X115.362 Y164.524 E61.90575
G1 X115.168 Y164.929 E61.92666
G1 X114.906 Y165.293 E61.94754
G1 X114.584 Y165.605 E61.96842
G1 X113.891 Y166.026 E62.00618
G1 X113.478 Y166.201 E62.02707
G1 X113.04 Y166.3 E62.04797
