;FLAVOR:Marlin
;TIME:1588
;Filament used: 1.31935m
;Layer height: 0.2
;MINX:81.8
;MINY:84.176
;MINZ:0.2
;MAXX:128.2
;MAXY:127.2
;MAXZ:10
;Generated with Cura_SteamEngine 4.7.1
M140 S60
M105
M190 S60
M104 S200
M105
M109 S200
M82 ;absolute extrusion mode
G21 ;metric values
G90 ;absolute positioning
M82 ;set extruder to absolute mode
M107 ;start with the fan off
G28 X0 Y0 ;move X/Y to min endstops
G28 Z0 ;move Z to min endstops
G1 Z15.0 F100 ;move the platform down 15mm
G92 E0 ;zero the extruded length
G1 F200 E3 ;extrude 3mm of feed stock
G92 E0 ;zero the extruded length again
G1 F100
G0 Y20 F100
M117 Printing...
G5
G92 E0
G92 E0
G1 F2400 E-6
;LAYER_COUNT:50
;LAYER:0
M106 S255
M204 S3000
M205 X10 Y10
G1 F600 Z0.275
G0 F3000 X83.229 Y85.411 Z0.275
M204 S1800
M205 X8 Y8
;TYPE:SKIRT
G1 F600 Z0.2
G1 F2400 E0
G1 X83.388 Y85.267 E0.00999
G1 X83.843 Y84.909 E0.03695
G1 X84.343 Y84.616 E0.06393
G1 X84.879 Y84.396 E0.09091
G1 X85.439 Y84.251 E0.11785
G1 X86.204 Y84.18 E0.15362
G1 X91.624 Y84.176 E0.406
G1 X97.655 Y84.177 E0.68683
G1 X98.233 Y84.217 E0.71381
G1 X98.775 Y84.323 E0.73952
G1 X99.331 Y84.487 E0.76652
G1 X99.859 Y84.725 E0.79348
G1 X100.488 Y85.139 E0.82855
G1 X100.812 Y85.397 E0.84783
G1 X101.24 Y85.789 E0.87486
G1 X101.609 Y86.235 E0.90181
G1 X101.913 Y86.728 E0.92878
G1 X102.147 Y87.258 E0.95576
G1 X102.315 Y87.812 E0.98272
G1 X102.434 Y88.379 E1.00969
G1 X102.474 Y88.957 E1.03667
G1 X102.409 Y89.694 E1.07112
G1 X102.346 Y90.048 E1.08787
G1 X102.205 Y90.61 E1.11485
G1 X102.018 Y91.086 E1.13866
G1 X101.452 Y92.3 E1.20103
G1 X101.191 Y92.902 E1.23158
G1 X100.949 Y93.49 E1.26119
G1 X100.749 Y93.996 E1.28653
G1 X100.515 Y94.626 E1.31782
G1 X100.295 Y95.259 E1.34902
G1 X100.113 Y95.814 E1.37622
G1 X99.923 Y96.435 E1.40646
G1 X99.749 Y97.054 E1.4364
G1 X99.604 Y97.608 E1.46307
G1 X99.46 Y98.216 E1.49216
G1 X99.338 Y98.789 E1.51944
G1 X99.218 Y99.421 E1.54939
G1 X99.126 Y99.989 E1.57619
G1 X99.036 Y100.623 E1.60601
G1 X98.972 Y101.171 E1.6317
G1 X98.91 Y101.829 E1.66247
G1 X98.869 Y102.423 E1.6902
G1 X98.841 Y103.039 E1.71891
G1 X98.826 Y103.655 E1.7476
G1 X98.827 Y104.243 E1.77498
G1 X98.842 Y104.869 E1.80414
G1 X98.87 Y105.452 E1.83132
G1 X98.914 Y106.053 E1.85938
G1 X98.974 Y106.694 E1.88935
G1 X99.038 Y107.243 E1.91509
G1 X99.131 Y107.909 E1.9464
G1 X99.226 Y108.508 E1.97464
G1 X99.341 Y109.133 E2.00424
G1 X99.456 Y109.701 E2.03122
G1 X99.603 Y110.36 E2.06266
G1 X99.833 Y111.293 E2.10741
G1 X100.099 Y112.251 E2.1537
G1 X100.396 Y113.228 E2.20125
G1 X100.701 Y114.152 E2.24656
G1 X101.055 Y115.146 E2.29569
G1 X101.427 Y116.115 E2.34402
G1 X101.778 Y116.978 E2.3874
G1 X102.196 Y117.95 E2.43667
G1 X102.832 Y119.329 E2.50739
G1 X103.12 Y119.934 E2.53859
G1 X103.333 Y120.473 E2.56557
G1 X103.469 Y121.036 E2.59254
G1 X103.526 Y121.612 E2.61949
G1 X103.504 Y122.191 E2.64647
G1 X103.402 Y122.761 E2.67344
G1 X103.222 Y123.312 E2.70043
G1 X102.878 Y123.983 E2.73554
G1 X102.713 Y124.244 E2.74992
G1 X102.37 Y124.711 E2.7769
G1 X101.967 Y125.127 E2.80387
G1 X101.51 Y125.483 E2.83084
G1 X101.008 Y125.773 E2.85784
G1 X100.472 Y125.991 E2.88478
G1 X99.91 Y126.133 E2.91177
G1 X99.163 Y126.2 E2.9467
G1 X97.542 Y126.2 E3.02218
G1 X97.369 Y126.35 E3.03284
G1 X96.884 Y126.667 E3.05982
G1 X96.36 Y126.914 E3.08679
G1 X95.807 Y127.086 E3.11376
G1 X95.235 Y127.181 E3.14076
G1 X94.836 Y127.2 E3.15936
G1 X87.093 Y127.2 E3.51991
G1 X86.515 Y127.16 E3.54688
G1 X85.948 Y127.041 E3.57386
G1 X85.403 Y126.845 E3.60083
G1 X84.874 Y126.566 E3.62868
G1 X84.739 Y126.482 E3.63608
G1 X84.27 Y126.143 E3.66303
G1 X83.851 Y125.742 E3.69003
G1 X83.492 Y125.288 E3.71699
G1 X83.201 Y124.794 E3.74368
G1 X82.257 Y122.906 E3.84197
G1 X82.035 Y122.372 E3.8689
G1 X81.913 Y121.939 E3.88985
G1 X81.819 Y121.367 E3.91684
G1 X81.8 Y120.969 E3.93539
G1 X81.801 Y88.995 E5.42424
G1 X81.869 Y88.107 E5.46571
G1 X81.966 Y87.536 E5.49268
G1 X82.141 Y86.984 E5.51964
G1 X82.39 Y86.461 E5.54661
G1 X82.709 Y85.977 E5.5736
G1 X83.229 Y85.411 E5.60939
M204 S3000
M205 X10 Y10
G0 F3000 X83.605 Y85.826
M204 S1800
M205 X8 Y8
G1 F2400 X83.764 Y85.682 E5.61938
G1 X84.189 Y85.351 E5.64447
G1 X84.659 Y85.086 E5.66959
G1 X85.162 Y84.893 E5.69468
G1 X85.689 Y84.777 E5.7198
G1 X86.204 Y84.74 E5.74385
G1 X91.624 Y84.736 E5.99622
G1 X97.655 Y84.737 E6.27705
G1 X98.437 Y84.822 E6.31368
G1 X98.655 Y84.87 E6.32407
G1 X99.171 Y85.025 E6.34916
G1 X99.659 Y85.254 E6.37426
G1 X100.139 Y85.578 E6.40123
G1 X100.463 Y85.836 E6.42052
G1 X100.859 Y86.202 E6.44562
G1 X101.197 Y86.622 E6.47073
G1 X101.468 Y87.088 E6.49583
G1 X101.698 Y87.69 E6.52584
G1 X101.776 Y87.965 E6.53915
G1 X101.884 Y88.493 E6.56424
G1 X101.913 Y89.031 E6.58933
G1 X101.858 Y89.596 E6.61576
G1 X101.795 Y89.95 E6.63251
G1 X101.661 Y90.472 E6.6576
G1 X101.51 Y90.85 E6.67655
G1 X100.939 Y92.075 E6.73949
G1 X100.704 Y92.616 E6.76695
G1 X100.429 Y93.282 E6.8005
G1 X100.224 Y93.802 E6.82653
G1 X99.984 Y94.449 E6.85866
G1 X99.763 Y95.083 E6.88993
G1 X99.565 Y95.688 E6.91957
G1 X99.395 Y96.244 E6.94664
G1 X99.227 Y96.841 E6.97552
G1 X99.054 Y97.502 E7.00734
G1 X98.922 Y98.057 E7.0339
G1 X98.789 Y98.673 E7.06325
G1 X98.788 Y98.685 E7.06381
G1 X98.661 Y99.356 E7.09561
G1 X98.57 Y99.913 E7.12189
G1 X98.482 Y100.534 E7.15109
G1 X98.41 Y101.164 E7.18062
G1 X98.352 Y101.777 E7.20929
G1 X98.308 Y102.401 E7.23842
G1 X98.282 Y102.979 E7.26536
G1 X98.266 Y103.642 E7.29624
G1 X98.267 Y104.256 E7.32483
G1 X98.282 Y104.873 E7.35357
G1 X98.313 Y105.519 E7.38368
G1 X98.353 Y106.078 E7.40978
G1 X98.414 Y106.728 E7.44018
G1 X98.49 Y107.369 E7.47024
G1 X98.576 Y107.987 E7.49929
G1 X98.676 Y108.612 E7.52876
G1 X98.788 Y109.225 E7.55778
G1 X98.915 Y109.851 E7.58752
G1 X99.056 Y110.481 E7.61758
G1 X99.292 Y111.441 E7.66362
G1 X99.566 Y112.427 E7.71127
G1 X99.86 Y113.391 E7.7582
G1 X100.173 Y114.339 E7.80468
G1 X100.531 Y115.346 E7.85445
G1 X100.896 Y116.295 E7.90179
G1 X101.291 Y117.264 E7.95052
G1 X101.681 Y118.17 E7.99645
G1 X102.327 Y119.569 E8.0682
G1 X102.615 Y120.174 E8.0994
G1 X102.81 Y120.677 E8.12452
G1 X102.928 Y121.203 E8.14962
G1 X102.968 Y121.741 E8.17474
G1 X102.928 Y122.279 E8.19987
G1 X102.808 Y122.805 E8.22499
G1 X102.613 Y123.307 E8.25006
G1 X102.24 Y123.945 E8.28448
G1 X101.919 Y124.378 E8.30957
G1 X101.537 Y124.759 E8.3347
G1 X101.103 Y125.08 E8.35983
G1 X100.627 Y125.333 E8.38493
G1 X100.119 Y125.512 E8.41001
G1 X99.589 Y125.615 E8.43516
G1 X99.163 Y125.64 E8.45503
G1 X97.333 Y125.64 E8.54024
G1 X97.001 Y125.926 E8.56064
G1 X96.545 Y126.214 E8.58576
G1 X96.052 Y126.431 E8.61084
G1 X95.532 Y126.573 E8.63594
G1 X94.836 Y126.64 E8.6685
G1 X87.093 Y126.64 E9.02904
G1 X86.555 Y126.6 E9.05416
G1 X86.029 Y126.481 E9.07927
G1 X85.527 Y126.286 E9.10435
G1 X85.035 Y126.007 E9.13069
G1 X84.599 Y125.689 E9.15582
G1 X84.216 Y125.31 E9.18091
G1 X83.892 Y124.878 E9.20605
G1 X83.702 Y124.544 E9.22394
G1 X82.758 Y122.656 E9.32223
G1 X82.554 Y122.157 E9.34734
G1 X82.458 Y121.809 E9.36415
G1 X82.373 Y121.277 E9.38923
G1 X82.36 Y120.969 E9.40359
G1 X82.361 Y88.995 E10.89243
G1 X82.426 Y88.163 E10.93129
G1 X82.519 Y87.631 E10.95644
G1 X82.69 Y87.12 E10.98153
G1 X82.934 Y86.639 E11.00664
G1 X83.247 Y86.2 E11.03175
G1 X83.605 Y85.826 E11.05586
M204 S3000
M205 X10 Y10
G0 F3000 X83.98 Y86.241
M204 S1800
M205 X8 Y8
G1 F2400 X84.533 Y85.795 E11.08894
G1 X84.969 Y85.56 E11.112
G1 X85.438 Y85.398 E11.1351
G1 X86.205 Y85.3 E11.17111
G1 X91.624 Y85.296 E11.42344
G1 X97.655 Y85.297 E11.70427
G1 X98.316 Y85.369 E11.73523
G1 X99.009 Y85.562 E11.76873
G1 X99.453 Y85.782 E11.7918
G1 X100.115 Y86.274 E11.83021
G1 X100.476 Y86.613 E11.85327
G1 X100.779 Y87.006 E11.87637
G1 X101.015 Y87.442 E11.89946
G1 X101.237 Y88.118 E11.93259
G1 X101.334 Y88.604 E11.95567
G1 X101.351 Y89.1 E11.97878
G1 X101.243 Y89.852 E12.01415
G1 X101.003 Y90.613 E12.05131
G1 X100.433 Y91.836 E12.11414
G1 X100.164 Y92.456 E12.14561
G1 X99.911 Y93.068 E12.17644
G1 X99.699 Y93.607 E12.20341
G1 X99.447 Y94.286 E12.23714
G1 X99.245 Y94.869 E12.26587
G1 X99.235 Y94.894 E12.26712
G1 X99.033 Y95.514 E12.29749
G1 X98.856 Y96.094 E12.32572
G1 X98.671 Y96.751 E12.3575
G1 X98.512 Y97.357 E12.38668
G1 X98.37 Y97.96 E12.41552
G1 X98.237 Y98.581 E12.4451
G1 X98.12 Y99.197 E12.47429
G1 X98.016 Y99.836 E12.50444
G1 X97.927 Y100.465 E12.53402
G1 X97.854 Y101.095 E12.56355
G1 X97.791 Y101.769 E12.59507
G1 X97.752 Y102.318 E12.6207
G1 X97.72 Y103.03 E12.65389
G1 X97.706 Y103.628 E12.68174
G1 X97.707 Y104.262 E12.71126
G1 X97.721 Y104.858 E12.73902
G1 X97.754 Y105.544 E12.771
G1 X97.796 Y106.13 E12.79836
G1 X97.859 Y106.799 E12.82965
G1 X97.937 Y107.46 E12.86064
G1 X98.017 Y108.039 E12.88786
G1 X98.124 Y108.709 E12.91945
G1 X98.235 Y109.311 E12.94795
G1 X98.367 Y109.964 E12.97898
G1 X98.51 Y110.602 E13.00942
G1 X98.753 Y111.589 E13.05675
G1 X99.038 Y112.614 E13.10629
G1 X99.323 Y113.553 E13.15198
G1 X99.637 Y114.506 E13.19871
G1 X99.646 Y114.527 E13.19977
G1 X100.004 Y115.534 E13.24954
G1 X100.388 Y116.533 E13.29937
G1 X100.749 Y117.42 E13.34396
G1 X101.166 Y118.39 E13.39313
G1 X101.837 Y119.843 E13.46765
G1 X102.109 Y120.415 E13.49714
G1 X102.285 Y120.879 E13.52025
G1 X102.385 Y121.365 E13.54336
G1 X102.406 Y121.86 E13.56643
G1 X102.346 Y122.353 E13.58955
G1 X102.209 Y122.829 E13.61262
G1 X101.931 Y123.385 E13.64156
G1 X101.468 Y124.042 E13.67899
G1 X101.111 Y124.386 E13.70207
G1 X100.703 Y124.668 E13.72517
G1 X100.254 Y124.88 E13.74829
G1 X99.778 Y125.018 E13.77137
G1 X99.163 Y125.08 E13.80015
G1 X97.112 Y125.08 E13.89565
G1 X96.636 Y125.499 E13.92518
G1 X96.212 Y125.756 E13.94827
G1 X95.751 Y125.941 E13.9714
G1 X95.268 Y126.05 E13.99445
G1 X94.836 Y126.08 E14.01462
G1 X87.093 Y126.08 E14.37516
G1 X86.599 Y126.04 E14.39824
G1 X86.117 Y125.921 E14.42136
G1 X85.466 Y125.615 E14.45485
G1 X84.932 Y125.236 E14.48535
G1 X84.586 Y124.881 E14.50843
G1 X84.203 Y124.293 E14.5411
G1 X83.259 Y122.405 E14.63939
G1 X83.017 Y121.739 E14.67239
G1 X83.003 Y121.68 E14.67521
G1 X82.92 Y120.969 E14.70855
G1 X82.921 Y88.995 E16.19739
G1 X82.983 Y88.218 E16.23368
G1 X83.072 Y87.73 E16.25678
G1 X83.238 Y87.263 E16.27986
G1 X83.477 Y86.828 E16.30297
G1 X83.98 Y86.241 E16.33897
M204 S3000
M205 X10 Y10
G0 F3000 X84.356 Y86.656
M204 S1800
M205 X8 Y8
G1 F2400 X84.873 Y86.242 E16.36981
G1 X85.274 Y86.039 E16.39074
G1 X85.703 Y85.911 E16.41158
G1 X86.205 Y85.86 E16.43508
G1 X91.623 Y85.856 E16.68736
G1 X97.654 Y85.857 E16.96819
G1 X98.196 Y85.916 E16.99358
G1 X98.842 Y86.099 E17.02484
G1 X99.442 Y86.454 E17.05731
G1 X100.09 Y87.021 E17.0974
G1 X100.355 Y87.383 E17.11829
G1 X100.62 Y87.995 E17.14934
G1 X100.782 Y88.711 E17.18353
G1 X100.755 Y89.4 E17.21563
G1 X100.692 Y89.754 E17.23238
G1 X100.495 Y90.377 E17.2628
G1 X99.92 Y91.611 E17.32619
G1 X99.65 Y92.233 E17.35777
G1 X99.395 Y92.85 E17.38885
G1 X99.174 Y93.412 E17.41697
G1 X98.932 Y94.064 E17.44936
G1 X98.706 Y94.712 E17.48131
G1 X98.501 Y95.34 E17.51207
G1 X98.326 Y95.909 E17.53979
G1 X98.132 Y96.599 E17.57317
G1 X97.972 Y97.207 E17.60244
G1 X97.827 Y97.822 E17.63187
G1 X97.687 Y98.477 E17.66306
G1 X97.565 Y99.121 E17.69358
G1 X97.463 Y99.746 E17.72306
G1 X97.369 Y100.407 E17.75415
G1 X97.299 Y101.014 E17.7826
G1 X97.236 Y101.682 E17.81385
G1 X97.189 Y102.356 E17.84531
G1 X97.162 Y102.953 E17.87313
G1 X97.146 Y103.599 E17.90322
G1 X97.147 Y104.286 E17.93521
G1 X97.162 Y104.909 E17.96423
G1 X97.194 Y105.575 E17.99528
G1 X97.238 Y106.182 E18.02362
G1 X97.298 Y106.826 E18.05374
G1 X97.377 Y107.499 E18.08529
G1 X97.471 Y108.17 E18.11684
G1 X97.567 Y108.77 E18.14513
G1 X97.692 Y109.451 E18.17737
G1 X97.827 Y110.117 E18.20901
G1 X97.961 Y110.717 E18.23764
G1 X98.21 Y111.729 E18.28617
G1 X98.483 Y112.713 E18.33372
G1 X98.802 Y113.762 E18.38477
G1 X99.112 Y114.703 E18.43091
G1 X99.118 Y114.715 E18.43153
G1 X99.476 Y115.722 E18.4813
G1 X99.856 Y116.711 E18.53063
G1 X100.247 Y117.671 E18.5789
G1 X100.667 Y118.647 E18.62837
G1 X101.328 Y120.078 E18.70177
G1 X101.603 Y120.656 E18.73158
G1 X101.759 Y121.076 E18.75244
G1 X101.838 Y121.518 E18.77335
G1 X101.838 Y121.967 E18.79426
G1 X101.758 Y122.408 E18.81512
G1 X101.601 Y122.828 E18.836
G1 X101.293 Y123.347 E18.86411
G1 X101.021 Y123.703 E18.88497
G1 X100.689 Y124.005 E18.90587
G1 X100.31 Y124.244 E18.92673
G1 X99.894 Y124.412 E18.94762
G1 X99.454 Y124.503 E18.96854
G1 X99.163 Y124.52 E18.98212
G1 X96.858 Y124.52 E19.08945
G1 X96.618 Y124.782 E19.10599
G1 X96.274 Y125.07 E19.12688
G1 X95.884 Y125.292 E19.14778
G1 X95.461 Y125.441 E19.16866
G1 X94.836 Y125.52 E19.19799
G1 X87.093 Y125.52 E19.55854
G1 X86.646 Y125.48 E19.57944
G1 X86.214 Y125.362 E19.60029
G1 X85.762 Y125.14 E19.62374
G1 X85.268 Y124.786 E19.65204
G1 X84.964 Y124.457 E19.6729
G1 X84.704 Y124.043 E19.69566
G1 X83.76 Y122.155 E19.79395
G1 X83.562 Y121.61 E19.82095
G1 X83.548 Y121.551 E19.82377
G1 X83.48 Y120.969 E19.85106
G1 X83.481 Y88.995 E21.3399
G1 X83.54 Y88.274 E21.37359
G1 X83.625 Y87.833 E21.3945
G1 X83.785 Y87.414 E21.41538
G1 X84.018 Y87.031 E21.43626
G1 X84.356 Y86.656 E21.45977
M204 S3000
M205 X10 Y10
G0 F3000 X84.891 Y86.927
M204 S1800
M205 X8 Y8
G1 F2400 X85.21 Y86.693 E21.47819
G1 X85.569 Y86.527 E21.49661
G1 X85.954 Y86.436 E21.51503
G1 X86.206 Y86.42 E21.52679
G1 X91.623 Y86.416 E21.77902
G1 X97.654 Y86.417 E22.05985
G1 X98.293 Y86.511 E22.08993
G1 X98.669 Y86.634 E22.10835
G1 X99.093 Y86.892 E22.13146
G1 X99.7 Y87.426 E22.1691
G1 X99.922 Y87.754 E22.18755
G1 X100.16 Y88.423 E22.22061
G1 X100.229 Y88.813 E22.23905
G1 X100.204 Y89.301 E22.26181
G1 X100.141 Y89.655 E22.27855
G1 X99.988 Y90.14 E22.30223
G1 X99.397 Y91.408 E22.36737
G1 X99.136 Y92.01 E22.39792
G1 X98.877 Y92.639 E22.4296
G1 X98.649 Y93.217 E22.45853
G1 X98.397 Y93.896 E22.49226
G1 X98.187 Y94.502 E22.52212
G1 X98.174 Y94.535 E22.52377
G1 X97.979 Y95.132 E22.55302
G1 X97.787 Y95.758 E22.5835
G1 X97.593 Y96.448 E22.61688
G1 X97.422 Y97.1 E22.64827
G1 X97.279 Y97.704 E22.67717
G1 X97.14 Y98.348 E22.70785
G1 X97.137 Y98.372 E22.70897
G1 X97.01 Y99.043 E22.74077
G1 X96.911 Y99.651 E22.76946
G1 X96.812 Y100.351 E22.80238
G1 X96.737 Y101.003 E22.83294
G1 X96.679 Y101.618 E22.8617
G1 X96.633 Y102.268 E22.89204
G1 X96.601 Y102.98 E22.92523
G1 X96.586 Y103.596 E22.95392
G1 X96.587 Y104.3 E22.9867
G1 X96.602 Y104.912 E23.01521
G1 X96.635 Y105.602 E23.04737
G1 X96.684 Y106.276 E23.07884
G1 X96.744 Y106.915 E23.10873
G1 X96.819 Y107.553 E23.13864
G1 X96.915 Y108.243 E23.17108
G1 X97.016 Y108.871 E23.2007
G1 X97.137 Y109.533 E23.23203
G1 X97.27 Y110.19 E23.26325
G1 X97.426 Y110.887 E23.2965
G1 X97.66 Y111.839 E23.34215
G1 X97.958 Y112.911 E23.39396
G1 X98.255 Y113.888 E23.44151
G1 X98.586 Y114.893 E23.49078
G1 X98.591 Y114.903 E23.4913
G1 X98.958 Y115.934 E23.54226
G1 X99.336 Y116.919 E23.59139
G1 X99.734 Y117.895 E23.64047
G1 X100.142 Y118.844 E23.68857
G1 X100.81 Y120.292 E23.76282
G1 X101.098 Y120.897 E23.79402
G1 X101.231 Y121.269 E23.81242
G1 X101.286 Y121.661 E23.83085
G1 X101.262 Y122.055 E23.84923
G1 X101.159 Y122.437 E23.86765
G1 X100.82 Y123.047 E23.90015
G1 X100.576 Y123.359 E23.91859
G1 X100.274 Y123.615 E23.93703
G1 X99.928 Y123.805 E23.95541
G1 X99.55 Y123.921 E23.97382
G1 X99.163 Y123.96 E23.99193
G1 X96.605 Y123.96 E24.11104
G1 X96.222 Y124.386 E24.13772
G1 X95.916 Y124.636 E24.15611
G1 X95.565 Y124.819 E24.17455
G1 X95.185 Y124.929 E24.19297
G1 X94.836 Y124.96 E24.20928
G1 X87.093 Y124.96 E24.56983
G1 X86.7 Y124.92 E24.58822
G1 X86.322 Y124.802 E24.60666
G1 X85.923 Y124.58 E24.62792
G1 X85.61 Y124.338 E24.64635
G1 X85.351 Y124.039 E24.66477
G1 X85.205 Y123.793 E24.67809
G1 X84.261 Y121.905 E24.77638
G1 X84.093 Y121.422 E24.80019
G1 X84.04 Y120.969 E24.82143
G1 X84.041 Y88.995 E26.31027
G1 X84.098 Y88.329 E26.34139
G1 X84.176 Y87.942 E26.35978
G1 X84.331 Y87.578 E26.3782
G1 X84.556 Y87.253 E26.3966
G1 X84.891 Y86.927 E26.41837
M204 S3000
M205 X10 Y10
G0 F3000 X85.267 Y87.342
M204 S1800
M205 X8 Y8
G1 F2400 X85.54 Y87.149 E26.43394
G1 X85.85 Y87.026 E26.44947
G1 X86.206 Y86.98 E26.46618
G1 X91.623 Y86.976 E26.71842
G1 X97.654 Y86.977 E26.99925
G1 X98.173 Y87.058 E27.02371
G1 X98.488 Y87.168 E27.03925
G1 X99.068 Y87.588 E27.07259
G1 X99.303 Y87.826 E27.08816
G1 X99.543 Y88.301 E27.11295
