;FLAVOR:Marlin
;TIME:8017
;Filament used: 6.87165m
;Layer height: 0.2
;MINX:60.7
;MINY:13.792
;MINZ:0.2
;MAXX:149.3
;MAXY:141.011
;MAXZ:22.8
;Generated with Cura_SteamEngine 4.7.1
M140 S60
M105
M190 S60
M104 S200
M105
M109 S200
M82 ;absolute extrusion mode
G21 ;metric values
G90 ;absolute positioning
M82 ;set extruder to absolute mode
M107 ;start with the fan off
G28 X0 Y0 ;move X/Y to min endstops
G28 Z0 ;move Z to min endstops
G1 Z15.0 F100 ;move the platform down 15mm
G92 E0 ;zero the extruded length
G1 F200 E3 ;extrude 3mm of feed stock
G92 E0 ;zero the extruded length again
G1 F100
G0 Y20 F100
M117 Printing...
G5
G92 E0
G92 E0
G1 F2400 E-6
;LAYER_COUNT:114
;LAYER:0
M106 S255
M204 S3000
M205 X10 Y10
G1 F600 Z0.275
G0 F3000 X99.892 Y17.538 Z0.275
M204 S1800
M205 X8 Y8
;TYPE:SKIRT
G1 F600 Z0.2
G1 F2400 E0
G1 X100.017 Y16.972 E0.02699
G1 X100.218 Y16.429 E0.05395
G1 X100.491 Y15.918 E0.08093
G1 X100.833 Y15.45 E0.10792
G1 X101.259 Y15.004 E0.13664
G1 X101.699 Y14.626 E0.16365
G1 X102.186 Y14.313 E0.19061
G1 X102.711 Y14.069 E0.21756
G1 X103.265 Y13.9 E0.24453
G1 X103.837 Y13.809 E0.2715
G1 X104.211 Y13.792 E0.28894
G1 X105.818 Y13.792 E0.36376
G1 X106.396 Y13.832 E0.39074
G1 X106.963 Y13.951 E0.41772
G1 X107.508 Y14.147 E0.44469
G1 X108.021 Y14.416 E0.47166
G1 X108.492 Y14.753 E0.49863
G1 X108.951 Y15.185 E0.52798
G1 X109.331 Y15.622 E0.55494
G1 X109.648 Y16.107 E0.58192
G1 X109.895 Y16.631 E0.6089
G1 X110.067 Y17.184 E0.63587
G1 X110.162 Y17.756 E0.66286
G1 X110.181 Y18.132 E0.6804
G1 X110.233 Y27.744 E1.12798
G1 X110.151 Y36.651 E1.54274
G1 X110.15 Y73.847 E3.27474
G1 X110.199 Y80.255 E3.57314
G1 X110.259 Y80.247 E3.57595
G1 X110.838 Y80.252 E3.60292
G1 X111.411 Y80.337 E3.62989
G1 X111.967 Y80.499 E3.65686
G1 X112.495 Y80.737 E3.68382
G1 X112.986 Y81.046 E3.71084
G1 X113.429 Y81.418 E3.73777
G1 X113.672 Y81.673 E3.75418
G1 X139.328 Y110.997 E5.56846
G1 X139.678 Y111.459 E5.59545
G1 X139.962 Y111.964 E5.62243
G1 X140.174 Y112.503 E5.6494
G1 X140.309 Y113.066 E5.67636
G1 X140.365 Y113.643 E5.70335
G1 X140.343 Y114.2 E5.72931
G1 X140.353 Y114.202 E5.72978
G1 X140.898 Y114.398 E5.75675
G1 X141.411 Y114.667 E5.78372
G1 X141.882 Y115.004 E5.81069
G1 X142.342 Y115.437 E5.84011
G1 X142.722 Y115.874 E5.86707
G1 X143.039 Y116.359 E5.89405
G1 X143.286 Y116.883 E5.92103
G1 X143.458 Y117.436 E5.94799
G1 X143.553 Y118.008 E5.97499
G1 X143.57 Y118.361 E5.99145
G1 X143.632 Y118.353 E5.99436
G1 X144.211 Y118.362 E6.02133
G1 X144.784 Y118.452 E6.04833
G1 X145.339 Y118.619 E6.07532
G1 X145.865 Y118.861 E6.10228
G1 X146.353 Y119.173 E6.12925
G1 X146.793 Y119.549 E6.1562
G1 X147.014 Y119.782 E6.17116
G1 X148.234 Y121.177 E6.25745
G1 X148.584 Y121.638 E6.2844
G1 X148.972 Y122.382 E6.32347
G1 X149 Y122.452 E6.32698
G1 X149.177 Y123.004 E6.35398
G1 X149.277 Y123.574 E6.38092
G1 X149.3 Y124.012 E6.40135
G1 X149.3 Y131.068 E6.7299
G1 X149.26 Y131.646 E6.75688
G1 X149.141 Y132.213 E6.78386
G1 X148.945 Y132.758 E6.81083
G1 X148.676 Y133.271 E6.8378
G1 X148.339 Y133.742 E6.86477
G1 X147.953 Y134.155 E6.89109
G1 X147.516 Y134.535 E6.91806
G1 X147.031 Y134.852 E6.94504
G1 X146.507 Y135.099 E6.97201
G1 X145.954 Y135.271 E6.99898
G1 X145.382 Y135.366 E7.02598
G1 X144.983 Y135.385 E7.04458
G1 X139.489 Y135.385 E7.3004
G1 X138.911 Y135.345 E7.32738
G1 X138.344 Y135.226 E7.35436
G1 X137.843 Y135.046 E7.37915
G1 X137.843 Y136.694 E7.45588
G1 X137.803 Y137.272 E7.48286
G1 X137.684 Y137.839 E7.50984
G1 X137.488 Y138.384 E7.53681
G1 X137.219 Y138.897 E7.56378
G1 X136.882 Y139.368 E7.59075
G1 X136.496 Y139.781 E7.61707
G1 X136.059 Y140.161 E7.64404
G1 X135.574 Y140.478 E7.67102
G1 X135.05 Y140.725 E7.69799
G1 X134.497 Y140.897 E7.72496
G1 X133.925 Y140.992 E7.75196
G1 X133.526 Y141.011 E7.77056
G1 X130.896 Y141.011 E7.89302
G1 X130.318 Y140.971 E7.92
G1 X129.751 Y140.852 E7.94698
G1 X129.206 Y140.656 E7.97394
G1 X128.693 Y140.387 E8.00092
G1 X128.222 Y140.05 E8.02788
G1 X127.903 Y139.781 E8.04731
G1 X127.466 Y140.161 E8.07428
G1 X126.981 Y140.478 E8.10126
G1 X126.457 Y140.725 E8.12823
G1 X125.904 Y140.897 E8.1552
G1 X125.332 Y140.992 E8.1822
G1 X124.933 Y141.011 E8.2008
G1 X122.303 Y141.011 E8.32326
G1 X121.725 Y140.971 E8.35024
G1 X121.158 Y140.852 E8.37722
G1 X120.613 Y140.656 E8.40419
G1 X120.1 Y140.387 E8.43116
G1 X119.629 Y140.05 E8.45813
G1 X119.31 Y139.781 E8.47756
G1 X118.873 Y140.161 E8.50452
G1 X118.388 Y140.478 E8.5315
G1 X117.864 Y140.725 E8.55848
G1 X117.311 Y140.897 E8.58545
G1 X116.739 Y140.992 E8.61245
G1 X116.34 Y141.011 E8.63105
G1 X113.71 Y141.011 E8.75351
G1 X113.132 Y140.971 E8.78049
G1 X112.565 Y140.852 E8.80746
G1 X112.02 Y140.656 E8.83443
G1 X111.507 Y140.387 E8.86141
G1 X111.036 Y140.05 E8.88837
G1 X110.623 Y139.664 E8.9147
G1 X110.243 Y139.227 E8.94166
G1 X109.926 Y138.742 E8.96864
G1 X109.679 Y138.218 E8.99562
G1 X109.507 Y137.665 E9.02258
G1 X109.412 Y137.093 E9.04958
G1 X109.393 Y136.694 E9.06818
G1 X109.393 Y135.917 E9.10436
G1 X107.781 Y129.47 E9.4138
G1 X107.68 Y128.899 E9.4408
G1 X107.658 Y128.321 E9.46774
G1 X107.673 Y128.171 E9.47476
G1 X102.338 Y128.171 E9.72318
G1 X102.345 Y128.231 E9.72599
G1 X102.336 Y128.81 E9.75295
G1 X102.225 Y129.472 E9.78421
G1 X100.607 Y135.931 E10.09426
G1 X100.607 Y136.694 E10.12979
G1 X100.567 Y137.272 E10.15677
G1 X100.448 Y137.839 E10.18375
G1 X100.252 Y138.384 E10.21071
G1 X99.983 Y138.897 E10.23769
G1 X99.646 Y139.368 E10.26465
G1 X99.26 Y139.781 E10.29098
G1 X98.823 Y140.161 E10.31794
G1 X98.338 Y140.478 E10.34492
G1 X97.814 Y140.725 E10.3719
G1 X97.261 Y140.897 E10.39886
G1 X96.689 Y140.992 E10.42586
G1 X96.29 Y141.011 E10.44446
G1 X93.66 Y141.011 E10.56693
G1 X93.082 Y140.971 E10.59391
G1 X92.515 Y140.852 E10.62088
G1 X91.97 Y140.656 E10.64785
G1 X91.457 Y140.387 E10.67482
G1 X90.986 Y140.05 E10.70179
G1 X90.667 Y139.781 E10.72122
G1 X90.23 Y140.161 E10.74819
G1 X89.745 Y140.478 E10.77517
G1 X89.221 Y140.725 E10.80214
G1 X88.668 Y140.897 E10.82911
G1 X88.096 Y140.992 E10.85611
G1 X87.697 Y141.011 E10.87471
G1 X85.067 Y141.011 E10.99717
G1 X84.489 Y140.971 E11.02415
G1 X83.922 Y140.852 E11.05113
G1 X83.377 Y140.656 E11.0781
G1 X82.864 Y140.387 E11.10507
G1 X82.393 Y140.05 E11.13204
G1 X82.074 Y139.781 E11.15147
G1 X81.637 Y140.161 E11.17843
G1 X81.152 Y140.478 E11.20541
G1 X80.628 Y140.725 E11.23239
G1 X80.075 Y140.897 E11.25935
G1 X79.503 Y140.992 E11.28635
G1 X79.104 Y141.011 E11.30495
G1 X76.474 Y141.011 E11.42742
G1 X75.896 Y140.971 E11.45439
G1 X75.329 Y140.852 E11.48137
G1 X74.784 Y140.656 E11.50834
G1 X74.271 Y140.387 E11.53531
G1 X73.8 Y140.05 E11.56228
G1 X73.387 Y139.664 E11.5886
G1 X73.007 Y139.227 E11.61557
G1 X72.69 Y138.742 E11.64255
G1 X72.443 Y138.218 E11.66952
G1 X72.271 Y137.665 E11.69649
G1 X72.176 Y137.093 E11.72349
G1 X72.157 Y136.694 E11.74209
G1 X72.157 Y135.041 E11.81906
G1 X72.035 Y135.099 E11.82535
G1 X71.482 Y135.271 E11.85232
G1 X70.91 Y135.366 E11.87932
G1 X70.511 Y135.385 E11.89792
G1 X65.017 Y135.385 E12.15374
G1 X64.439 Y135.345 E12.18072
G1 X63.872 Y135.226 E12.2077
G1 X63.327 Y135.03 E12.23466
G1 X62.814 Y134.761 E12.26164
G1 X62.343 Y134.424 E12.2886
G1 X61.93 Y134.038 E12.31493
G1 X61.55 Y133.601 E12.34189
G1 X61.233 Y133.116 E12.36887
G1 X60.986 Y132.592 E12.39585
G1 X60.814 Y132.039 E12.42281
G1 X60.719 Y131.467 E12.44981
G1 X60.7 Y131.068 E12.46841
G1 X60.7 Y124.012 E12.79697
G1 X60.74 Y123.434 E12.82395
G1 X60.859 Y122.867 E12.85093
G1 X61.028 Y122.382 E12.87484
G1 X61.28 Y121.86 E12.90183
G1 X61.766 Y121.177 E12.94087
G1 X62.986 Y119.782 E13.02716
G1 X63.397 Y119.373 E13.05416
G1 X63.86 Y119.025 E13.08113
G1 X64.366 Y118.744 E13.10808
G1 X64.907 Y118.535 E13.13509
G1 X65.47 Y118.402 E13.16202
G1 X66.047 Y118.348 E13.18901
G1 X66.431 Y118.365 E13.20691
G1 X66.468 Y117.829 E13.23192
G1 X66.587 Y117.262 E13.2589
G1 X66.783 Y116.717 E13.28587
G1 X67.052 Y116.204 E13.31284
G1 X67.389 Y115.733 E13.33981
G1 X67.822 Y115.273 E13.36922
G1 X68.259 Y114.893 E13.39619
G1 X68.744 Y114.576 E13.42317
G1 X69.268 Y114.329 E13.45014
G1 X69.666 Y114.205 E13.46956
G1 X69.639 Y113.983 E13.47997
G1 X69.648 Y113.404 E13.50693
G1 X69.738 Y112.831 E13.53394
G1 X69.905 Y112.276 E13.56093
G1 X70.147 Y111.75 E13.58789
G1 X70.459 Y111.262 E13.61486
G1 X70.672 Y110.997 E13.63069
G1 X96.338 Y81.662 E15.44567
G1 X96.749 Y81.254 E15.47264
G1 X97.212 Y80.906 E15.49961
G1 X97.718 Y80.624 E15.52658
G1 X98.258 Y80.415 E15.55354
G1 X98.822 Y80.283 E15.58052
G1 X99.399 Y80.229 E15.6075
G1 X99.795 Y80.247 E15.62596
G1 X99.819 Y73.83 E15.92476
G1 X99.82 Y36.609 E17.65793
G1 X99.767 Y26.859 E18.11194
G1 X99.847 Y18.116 E18.51906
G1 X99.892 Y17.538 E18.54606
M204 S3000
M205 X10 Y10
G0 F3000 X100.452 Y17.583
M204 S1800
M205 X8 Y8
G1 F2400 X100.576 Y17.058 E18.57118
G1 X100.776 Y16.558 E18.59625
G1 X101.047 Y16.092 E18.62136
G1 X101.489 Y15.564 E18.65342
G1 X101.653 Y15.402 E18.66415
G1 X102.064 Y15.053 E18.68926
G1 X102.521 Y14.768 E18.71434
G1 X103.016 Y14.554 E18.73945
G1 X103.537 Y14.415 E18.76456
G1 X104.211 Y14.352 E18.79608
G1 X105.818 Y14.352 E18.87091
G1 X106.356 Y14.392 E18.89603
G1 X106.882 Y14.511 E18.92114
G1 X107.384 Y14.706 E18.94622
G1 X107.853 Y14.974 E18.97137
G1 X108.392 Y15.418 E19.00389
G1 X108.555 Y15.581 E19.01462
G1 X108.907 Y15.99 E19.03975
G1 X109.195 Y16.446 E19.06486
G1 X109.412 Y16.939 E19.08994
G1 X109.554 Y17.459 E19.11504
G1 X109.621 Y18.135 E19.14667
G1 X109.673 Y27.739 E19.59388
G1 X109.591 Y36.646 E20.00865
G1 X109.59 Y73.847 E21.74088
G1 X109.644 Y80.905 E22.06954
G1 X110.163 Y80.816 E22.09406
G1 X110.702 Y80.804 E22.11917
G1 X111.237 Y80.872 E22.14428
G1 X111.756 Y81.019 E22.1694
G1 X112.248 Y81.24 E22.19451
G1 X112.701 Y81.532 E22.21961
G1 X113.25 Y82.042 E22.2545
G1 X138.906 Y111.366 E24.06879
G1 X139.231 Y111.797 E24.09392
G1 X139.487 Y112.271 E24.11901
G1 X139.671 Y112.778 E24.14412
G1 X139.778 Y113.307 E24.16925
G1 X139.806 Y113.845 E24.19434
G1 X139.754 Y114.382 E24.21946
G1 X139.69 Y114.639 E24.23179
G1 X139.746 Y114.643 E24.23441
G1 X140.272 Y114.762 E24.25952
G1 X140.774 Y114.957 E24.2846
G1 X141.243 Y115.225 E24.30975
G1 X141.782 Y115.669 E24.34226
G1 X141.946 Y115.833 E24.35306
G1 X142.298 Y116.242 E24.37819
G1 X142.586 Y116.698 E24.4033
G1 X142.803 Y117.191 E24.42839
G1 X142.945 Y117.711 E24.45349
G1 X143.012 Y118.407 E24.48604
G1 X143.012 Y119.006 E24.51394
G1 X143.532 Y118.921 E24.53847
G1 X144.071 Y118.914 E24.56357
G1 X144.606 Y118.986 E24.58871
G1 X145.124 Y119.136 E24.61382
G1 X145.614 Y119.362 E24.63895
G1 X146.065 Y119.657 E24.66404
G1 X146.592 Y120.151 E24.69767
G1 X147.812 Y121.546 E24.78397
G1 X148.136 Y121.977 E24.80908
G1 X148.452 Y122.59 E24.84119
G1 X148.48 Y122.66 E24.8447
G1 X148.642 Y123.174 E24.86979
G1 X148.727 Y123.707 E24.89493
G1 X148.74 Y124.012 E24.90914
G1 X148.74 Y131.068 E25.2377
G1 X148.7 Y131.606 E25.26282
G1 X148.581 Y132.132 E25.28793
G1 X148.386 Y132.634 E25.31301
G1 X148.118 Y133.103 E25.33816
G1 X147.674 Y133.642 E25.37068
G1 X147.557 Y133.759 E25.37838
G1 X147.148 Y134.111 E25.40351
G1 X146.692 Y134.399 E25.42862
G1 X146.199 Y134.616 E25.4537
G1 X145.679 Y134.758 E25.4788
G1 X144.983 Y134.825 E25.51136
G1 X139.489 Y134.825 E25.76719
G1 X138.951 Y134.785 E25.79231
G1 X138.425 Y134.666 E25.81742
G1 X137.923 Y134.471 E25.8425
G1 X137.454 Y134.203 E25.86765
G1 X137.283 Y134.062 E25.87797
G1 X137.283 Y136.694 E26.00052
G1 X137.243 Y137.232 E26.02565
G1 X137.124 Y137.758 E26.05076
G1 X136.929 Y138.26 E26.07583
G1 X136.661 Y138.729 E26.10099
G1 X136.217 Y139.268 E26.1335
G1 X136.1 Y139.385 E26.14121
G1 X135.691 Y139.737 E26.16634
G1 X135.235 Y140.025 E26.19145
G1 X134.742 Y140.242 E26.21653
G1 X134.222 Y140.384 E26.24163
G1 X133.526 Y140.451 E26.27419
G1 X130.896 Y140.451 E26.39665
G1 X130.358 Y140.411 E26.42177
G1 X129.832 Y140.292 E26.44689
G1 X129.33 Y140.097 E26.47196
G1 X128.861 Y139.829 E26.49711
G1 X128.322 Y139.385 E26.52963
G1 X127.908 Y138.923 E26.55852
G1 X127.507 Y139.385 E26.587
G1 X127.098 Y139.737 E26.61213
G1 X126.642 Y140.025 E26.63724
G1 X126.149 Y140.242 E26.66233
G1 X125.629 Y140.384 E26.68743
G1 X124.933 Y140.451 E26.71998
G1 X122.303 Y140.451 E26.84245
G1 X121.765 Y140.411 E26.86757
G1 X121.239 Y140.292 E26.89268
G1 X120.737 Y140.097 E26.91776
G1 X120.268 Y139.829 E26.94291
G1 X119.729 Y139.385 E26.97543
G1 X119.315 Y138.923 E27.00431
G1 X118.914 Y139.385 E27.0328
G1 X118.505 Y139.737 E27.05793
G1 X118.049 Y140.025 E27.08304
G1 X117.556 Y140.242 E27.10812
G1 X117.036 Y140.384 E27.13322
G1 X116.34 Y140.451 E27.16578
G1 X113.71 Y140.451 E27.28824
G1 X113.172 Y140.411 E27.31336
G1 X112.646 Y140.292 E27.33848
G1 X112.144 Y140.097 E27.36355
G1 X111.675 Y139.829 E27.3887
G1 X111.136 Y139.385 E27.42122
G1 X111.019 Y139.268 E27.42893
G1 X110.667 Y138.859 E27.45405
G1 X110.379 Y138.403 E27.47917
G1 X110.162 Y137.91 E27.50425
G1 X110.02 Y137.39 E27.52935
G1 X109.953 Y136.694 E27.56191
G1 X109.953 Y135.845 E27.60144
G1 X108.325 Y129.334 E27.91395
G1 X108.233 Y128.803 E27.93905
G1 X108.221 Y128.263 E27.9642
G1 X108.288 Y127.728 E27.9893
G1 X108.321 Y127.611 E27.99496
G1 X101.692 Y127.611 E28.30364
G1 X101.777 Y128.131 E28.32817
G1 X101.784 Y128.67 E28.35327
G1 X101.682 Y129.336 E28.38465
G1 X100.047 Y135.863 E28.69796
G1 X100.047 Y136.694 E28.73666
G1 X100.007 Y137.232 E28.76178
G1 X99.888 Y137.758 E28.78689
G1 X99.693 Y138.26 E28.81197
G1 X99.425 Y138.729 E28.83712
G1 X98.981 Y139.268 E28.86964
G1 X98.864 Y139.385 E28.87734
G1 X98.455 Y139.737 E28.90247
G1 X97.999 Y140.025 E28.92758
G1 X97.506 Y140.242 E28.95266
G1 X96.986 Y140.384 E28.97776
G1 X96.29 Y140.451 E29.01032
G1 X93.66 Y140.451 E29.13278
G1 X93.122 Y140.411 E29.15791
G1 X92.596 Y140.292 E29.18302
G1 X92.094 Y140.097 E29.20809
G1 X91.625 Y139.829 E29.23325
G1 X91.086 Y139.385 E29.26576
G1 X90.672 Y138.923 E29.29465
G1 X90.271 Y139.385 E29.32314
G1 X89.862 Y139.737 E29.34826
G1 X89.406 Y140.025 E29.37338
G1 X88.913 Y140.242 E29.39846
G1 X88.393 Y140.384 E29.42356
G1 X87.697 Y140.451 E29.45612
G1 X85.067 Y140.451 E29.57858
G1 X84.529 Y140.411 E29.6037
G1 X84.003 Y140.292 E29.62881
G1 X83.501 Y140.097 E29.65389
G1 X83.032 Y139.829 E29.67904
G1 X82.493 Y139.385 E29.71156
G1 X82.079 Y138.923 E29.74044
G1 X81.678 Y139.385 E29.76893
G1 X81.269 Y139.737 E29.79406
G1 X80.813 Y140.025 E29.81917
G1 X80.32 Y140.242 E29.84425
G1 X79.8 Y140.384 E29.86935
G1 X79.104 Y140.451 E29.90191
G1 X76.474 Y140.451 E30.02437
G1 X75.936 Y140.411 E30.0495
G1 X75.41 Y140.292 E30.07461
G1 X74.908 Y140.097 E30.09968
G1 X74.439 Y139.829 E30.12484
G1 X73.9 Y139.385 E30.15735
G1 X73.783 Y139.268 E30.16506
G1 X73.431 Y138.859 E30.19019
G1 X73.143 Y138.403 E30.2153
G1 X72.926 Y137.91 E30.24038
G1 X72.784 Y137.39 E30.26548
G1 X72.717 Y136.694 E30.29804
G1 X72.717 Y134.076 E30.41994
G1 X72.676 Y134.111 E30.42245
G1 X72.22 Y134.399 E30.44757
G1 X71.727 Y134.616 E30.47265
G1 X71.207 Y134.758 E30.49775
G1 X70.511 Y134.825 E30.53031
G1 X65.017 Y134.825 E30.78613
G1 X64.479 Y134.785 E30.81125
G1 X63.953 Y134.666 E30.83636
G1 X63.451 Y134.471 E30.86144
G1 X62.982 Y134.203 E30.88659
G1 X62.443 Y133.759 E30.91911
G1 X62.326 Y133.642 E30.92681
G1 X61.974 Y133.233 E30.95194
G1 X61.686 Y132.777 E30.97705
G1 X61.469 Y132.284 E31.00214
G1 X61.327 Y131.764 E31.02724
G1 X61.26 Y131.068 E31.05979
G1 X61.26 Y124.012 E31.38835
G1 X61.3 Y123.474 E31.41347
G1 X61.419 Y122.948 E31.43858
G1 X61.548 Y122.59 E31.4563
G1 X61.785 Y122.106 E31.4814
G1 X62.188 Y121.546 E31.51352
G1 X63.408 Y120.151 E31.59982
G1 X63.792 Y119.772 E31.62494
G1 X64.228 Y119.455 E31.65004
G1 X64.706 Y119.205 E31.67516
G1 X65.215 Y119.028 E31.70025
G1 X65.746 Y118.929 E31.7254
G1 X66.284 Y118.91 E31.75047
G1 X66.82 Y118.97 E31.77559
G1 X66.988 Y119.014 E31.78367
G1 X66.988 Y118.407 E31.81194
G1 X67.028 Y117.869 E31.83706
G1 X67.147 Y117.343 E31.86217
G1 X67.342 Y116.841 E31.88725
G1 X67.61 Y116.372 E31.9124
G1 X68.054 Y115.833 E31.94492
G1 X68.218 Y115.669 E31.95572
G1 X68.627 Y115.317 E31.98084
G1 X69.083 Y115.029 E32.00596
G1 X69.576 Y114.812 E32.03104
G1 X70.096 Y114.67 E32.05614
G1 X70.305 Y114.65 E32.06591
G1 X70.294 Y114.615 E32.06762
G1 X70.207 Y114.083 E32.09272
G1 X70.2 Y113.544 E32.11782
