;FLAVOR:Marlin
;TIME:10129
;Filament used: 11.7953m
;Layer height: 0.2
;MINX:11.115
;MINY:89.85
;MINZ:0.2
;MAXX:198.885
;MAXY:120.15
;MAXZ:12.4
;Generated with Cura_SteamEngine 4.7.1
M140 S60
M105
M190 S60
M104 S200
M105
M109 S200
M82 ;absolute extrusion mode
G21 ;metric values
G90 ;absolute positioning
M82 ;set extruder to absolute mode
M107 ;start with the fan off
G28 X0 Y0 ;move X/Y to min endstops
G28 Z0 ;move Z to min endstops
G1 Z15.0 F100 ;move the platform down 15mm
G92 E0 ;zero the extruded length
G1 F200 E3 ;extrude 3mm of feed stock
G92 E0 ;zero the extruded length again
G1 F100
G0 Y20 F100
M117 Printing...
G5
G92 E0
G92 E0
G1 F2400 E-6
;LAYER_COUNT:62
;LAYER:0
M106 S255
M204 S3000
M205 X10 Y10
G1 F600 Z0.275
G0 F3000 X27.869 Y91.633 Z0.275
M204 S1800
M205 X8 Y8
;TYPE:SKIRT
G1 F600 Z0.2
G1 F2400 E0
G1 X28.789 Y91.351 E0.04481
G1 X29.797 Y91.053 E0.09375
G1 X30.82 Y90.76 E0.1433
G1 X31.71 Y90.511 E0.18634
G1 X32.707 Y90.241 E0.23443
G1 X33.381 Y90.069 E0.26682
G1 X34.083 Y89.931 E0.30014
G1 X34.838 Y89.871 E0.3354
G1 X35.857 Y89.851 E0.38286
G1 X174.293 Y89.85 E6.82902
G1 X175.052 Y89.86 E6.86437
G1 X175.766 Y89.909 E6.89769
G1 X176.53 Y90.053 E6.93389
G1 X177.455 Y90.286 E6.97831
G1 X178.337 Y90.524 E7.02085
G1 X179.22 Y90.771 E7.06354
G1 X180.256 Y91.069 E7.11374
G1 X181.267 Y91.369 E7.16284
G1 X182.175 Y91.647 E7.20706
G1 X183.128 Y91.947 E7.25358
G1 X183.874 Y92.191 E7.29013
G1 X185.097 Y92.606 E7.35027
G1 X185.497 Y92.747 E7.37002
G1 X186.771 Y93.213 E7.43319
G1 X187.053 Y93.321 E7.44725
G1 X188.297 Y93.816 E7.50959
G1 X188.5 Y93.901 E7.51984
G1 X189.972 Y94.546 E7.59467
G1 X190.159 Y94.632 E7.60426
G1 X190.899 Y94.985 E7.64243
G1 X191.287 Y95.181 E7.66267
G1 X191.998 Y95.561 E7.70021
G1 X192.556 Y95.877 E7.73007
G1 X192.704 Y95.964 E7.73807
G1 X193.172 Y96.248 E7.76356
G1 X193.608 Y96.526 E7.78764
G1 X193.854 Y96.693 E7.80148
G1 X194.304 Y97.014 E7.82722
G1 X194.591 Y97.231 E7.84397
G1 X195.091 Y97.632 E7.87382
G1 X195.413 Y97.904 E7.89344
G1 X195.836 Y98.3 E7.92043
G1 X196.258 Y98.733 E7.94858
G1 X196.56 Y99.059 E7.96927
G1 X197.011 Y99.614 E8.00257
G1 X197.52 Y100.36 E8.04462
G1 X197.879 Y100.978 E8.0779
G1 X198.257 Y101.828 E8.12122
G1 X198.445 Y102.32 E8.14575
G1 X198.649 Y103.006 E8.17907
G1 X198.754 Y103.554 E8.20505
G1 X198.839 Y104.201 E8.23544
G1 X198.885 Y104.915 E8.26875
G1 X198.844 Y105.685 E8.30466
G1 X198.787 Y106.188 E8.32823
G1 X198.742 Y106.518 E8.34374
G1 X198.593 Y107.217 E8.37702
G1 X198.389 Y107.838 E8.40746
G1 X198.201 Y108.319 E8.4315
G1 X198.11 Y108.535 E8.44242
G1 X197.796 Y109.177 E8.4757
G1 X197.582 Y109.532 E8.495
G1 X197.298 Y109.97 E8.5193
G1 X197.09 Y110.276 E8.53653
G1 X196.614 Y110.882 E8.57242
G1 X196.268 Y111.264 E8.59641
G1 X195.967 Y111.575 E8.61657
G1 X195.557 Y111.962 E8.64282
G1 X195.05 Y112.401 E8.67405
G1 X194.447 Y112.88 E8.70991
G1 X193.906 Y113.267 E8.74088
G1 X193.4 Y113.608 E8.76929
G1 X192.944 Y113.896 E8.79441
G1 X192.72 Y114.03 E8.80656
G1 X192.099 Y114.384 E8.83985
G1 X191.946 Y114.468 E8.84797
G1 X191.424 Y114.747 E8.87553
G1 X191.26 Y114.832 E8.88414
G1 X190.491 Y115.215 E8.92414
G1 X190.093 Y115.401 E8.94459
G1 X188.498 Y116.099 E9.02566
G1 X188.301 Y116.182 E9.03562
G1 X187.056 Y116.678 E9.09802
G1 X186.772 Y116.786 E9.11217
G1 X185.421 Y117.28 E9.17915
G1 X185.024 Y117.419 E9.19874
G1 X183.805 Y117.832 E9.25867
G1 X183.062 Y118.074 E9.29506
G1 X182.131 Y118.367 E9.3405
G1 X181.211 Y118.649 E9.38531
G1 X180.203 Y118.947 E9.43425
G1 X179.18 Y119.24 E9.48381
G1 X178.29 Y119.489 E9.52684
G1 X177.293 Y119.759 E9.57494
G1 X176.619 Y119.931 E9.60733
G1 X175.917 Y120.069 E9.64064
G1 X175.162 Y120.129 E9.67591
G1 X174.143 Y120.149 E9.72336
G1 X35.707 Y120.15 E16.16952
G1 X34.948 Y120.14 E16.20487
G1 X34.235 Y120.091 E16.23815
G1 X33.472 Y119.948 E16.2743
G1 X32.546 Y119.715 E16.31876
G1 X31.663 Y119.476 E16.36135
G1 X30.78 Y119.229 E16.40405
G1 X29.744 Y118.931 E16.45424
G1 X28.733 Y118.631 E16.50335
G1 X27.825 Y118.353 E16.54757
G1 X26.872 Y118.053 E16.59409
G1 X26.126 Y117.809 E16.63064
G1 X24.903 Y117.394 E16.69077
G1 X24.503 Y117.253 E16.71052
G1 X23.229 Y116.787 E16.77369
G1 X22.947 Y116.679 E16.78775
G1 X21.703 Y116.184 E16.85009
G1 X21.5 Y116.099 E16.86034
G1 X20.028 Y115.454 E16.93518
G1 X19.841 Y115.368 E16.94476
G1 X19.101 Y115.015 E16.98294
G1 X18.71 Y114.818 E17.00332
G1 X18.004 Y114.441 E17.04059
G1 X17.444 Y114.123 E17.07058
G1 X17.292 Y114.034 E17.07878
G1 X16.823 Y113.749 E17.10434
G1 X16.396 Y113.477 E17.12791
G1 X16.144 Y113.306 E17.14209
G1 X15.693 Y112.984 E17.16789
G1 X15.409 Y112.769 E17.18448
G1 X14.91 Y112.369 E17.21426
G1 X14.587 Y112.096 E17.23395
G1 X14.164 Y111.7 E17.26093
G1 X13.742 Y111.267 E17.28909
G1 X13.44 Y110.941 E17.30978
G1 X12.984 Y110.379 E17.34348
G1 X12.48 Y109.64 E17.38513
G1 X12.121 Y109.022 E17.41841
G1 X11.743 Y108.172 E17.46173
G1 X11.501 Y107.499 E17.49503
G1 X11.322 Y106.793 E17.52894
G1 X11.193 Y106.071 E17.5631
G1 X11.16 Y105.795 E17.57604
G1 X11.115 Y105.081 E17.60935
G1 X11.155 Y104.317 E17.64498
G1 X11.212 Y103.812 E17.66864
G1 X11.24 Y103.599 E17.67864
G1 X11.376 Y102.897 E17.71194
G1 X11.623 Y102.128 E17.74955
G1 X11.813 Y101.649 E17.77354
G1 X11.891 Y101.464 E17.78289
G1 X12.205 Y100.821 E17.81621
G1 X12.418 Y100.468 E17.83541
G1 X12.702 Y100.03 E17.85972
G1 X13.044 Y99.553 E17.88705
G1 X13.281 Y99.252 E17.90489
G1 X13.702 Y98.769 E17.93472
G1 X14.025 Y98.434 E17.95639
G1 X14.443 Y98.038 E17.9832
G1 X14.95 Y97.599 E18.01443
G1 X15.553 Y97.12 E18.05029
G1 X16.094 Y96.733 E18.08126
G1 X16.601 Y96.391 E18.10974
G1 X17.063 Y96.1 E18.13516
G1 X17.28 Y95.97 E18.14694
G1 X17.901 Y95.616 E18.18023
G1 X18.054 Y95.532 E18.18836
G1 X18.576 Y95.253 E18.21592
G1 X18.74 Y95.168 E18.22452
G1 X19.509 Y94.785 E18.26452
G1 X19.907 Y94.599 E18.28498
G1 X21.502 Y93.901 E18.36605
G1 X21.699 Y93.818 E18.376
G1 X22.944 Y93.322 E18.4384
G1 X23.228 Y93.214 E18.45255
G1 X24.579 Y92.72 E18.51953
G1 X24.976 Y92.581 E18.53912
G1 X26.195 Y92.168 E18.59905
G1 X26.938 Y91.926 E18.63544
G1 X27.869 Y91.633 E18.68089
M204 S3000
M205 X10 Y10
G0 F3000 X28.033 Y92.169
M204 S1800
M205 X8 Y8
G1 F2400 X28.948 Y91.888 E18.72546
G1 X29.952 Y91.591 E18.77421
G1 X30.971 Y91.299 E18.82357
G1 X31.857 Y91.051 E18.86641
G1 X32.846 Y90.783 E18.91412
G1 X33.52 Y90.611 E18.94651
G1 X34.191 Y90.481 E18.97834
G1 X34.849 Y90.431 E19.00906
G1 X35.868 Y90.411 E19.05652
G1 X174.293 Y90.41 E25.50217
G1 X175.045 Y90.42 E25.53719
G1 X175.726 Y90.469 E25.56898
G1 X176.393 Y90.596 E25.6006
G1 X177.419 Y90.855 E25.64987
G1 X178.186 Y91.063 E25.68688
G1 X179.065 Y91.309 E25.72938
G1 X180.097 Y91.606 E25.77938
G1 X181.103 Y91.904 E25.82824
G1 X182.007 Y92.181 E25.87227
G1 X182.954 Y92.479 E25.91849
G1 X183.695 Y92.721 E25.95479
G1 X184.911 Y93.134 E26.01459
G1 X185.304 Y93.273 E26.034
G1 X186.578 Y93.739 E26.09717
G1 X186.846 Y93.842 E26.11054
G1 X188.09 Y94.337 E26.17288
G1 X188.275 Y94.414 E26.18221
G1 X189.747 Y95.059 E26.25704
G1 X189.917 Y95.137 E26.26575
G1 X190.657 Y95.49 E26.30393
G1 X191.023 Y95.674 E26.32301
G1 X191.734 Y96.054 E26.36054
G1 X192.279 Y96.363 E26.38972
G1 X192.414 Y96.442 E26.397
G1 X192.882 Y96.726 E26.42249
G1 X193.305 Y96.997 E26.44588
G1 X193.528 Y97.149 E26.45845
G1 X193.978 Y97.47 E26.48419
G1 X194.241 Y97.668 E26.49952
G1 X194.741 Y98.069 E26.52936
G1 X195.049 Y98.329 E26.54813
G1 X195.435 Y98.691 E26.57277
G1 X195.857 Y99.124 E26.60093
G1 X196.146 Y99.436 E26.62073
G1 X196.558 Y99.942 E26.65111
G1 X197.052 Y100.668 E26.692
G1 X197.394 Y101.259 E26.7238
G1 X197.742 Y102.047 E26.76391
G1 X197.918 Y102.509 E26.78693
G1 X198.111 Y103.165 E26.81877
G1 X198.23 Y103.839 E26.85064
G1 X198.283 Y104.268 E26.87077
G1 X198.325 Y104.95 E26.90258
G1 X198.288 Y105.622 E26.93392
G1 X198.231 Y106.125 E26.9575
G1 X198.188 Y106.432 E26.97193
G1 X198.044 Y107.1 E27.00375
G1 X197.867 Y107.637 E27.03008
G1 X197.594 Y108.317 E27.0642
G1 X197.292 Y108.93 E27.09602
G1 X197.112 Y109.227 E27.11219
G1 X196.828 Y109.665 E27.1365
G1 X196.629 Y109.958 E27.15299
G1 X196.195 Y110.511 E27.18572
G1 X195.564 Y111.185 E27.22871
G1 X195.191 Y111.539 E27.25266
G1 X194.684 Y111.978 E27.28389
G1 X194.121 Y112.425 E27.31736
G1 X193.58 Y112.812 E27.34833
G1 X193.09 Y113.142 E27.37584
G1 X192.647 Y113.421 E27.40022
G1 X192.442 Y113.544 E27.41135
G1 X191.821 Y113.898 E27.44464
G1 X191.682 Y113.974 E27.45201
G1 X191.16 Y114.253 E27.47957
G1 X191.011 Y114.331 E27.48741
G1 X190.242 Y114.714 E27.52741
G1 X189.868 Y114.888 E27.54662
G1 X188.273 Y115.586 E27.62769
G1 X188.093 Y115.661 E27.63677
G1 X186.774 Y116.186 E27.70287
G1 X186.58 Y116.26 E27.71254
G1 X185.236 Y116.752 E27.77918
G1 X184.845 Y116.889 E27.79847
G1 X183.631 Y117.3 E27.85816
G1 X182.894 Y117.54 E27.89425
G1 X181.967 Y117.831 E27.93949
G1 X181.052 Y118.112 E27.98406
G1 X180.048 Y118.409 E28.03281
G1 X179.029 Y118.701 E28.08217
G1 X178.143 Y118.949 E28.12501
G1 X177.154 Y119.217 E28.17272
G1 X176.48 Y119.389 E28.20511
G1 X175.809 Y119.519 E28.23694
G1 X175.151 Y119.569 E28.26767
G1 X174.132 Y119.589 E28.31513
G1 X35.707 Y119.59 E34.76077
G1 X34.956 Y119.58 E34.79575
G1 X34.274 Y119.531 E34.82759
G1 X33.609 Y119.404 E34.85911
G1 X32.581 Y119.145 E34.90847
G1 X31.814 Y118.937 E34.94548
G1 X30.935 Y118.691 E34.98798
G1 X29.903 Y118.394 E35.03799
G1 X28.897 Y118.096 E35.08684
G1 X27.993 Y117.819 E35.13087
G1 X27.046 Y117.521 E35.1771
G1 X26.305 Y117.279 E35.21339
G1 X25.089 Y116.866 E35.27319
G1 X24.696 Y116.727 E35.2926
G1 X23.422 Y116.261 E35.35577
G1 X23.154 Y116.158 E35.36914
G1 X21.91 Y115.663 E35.43148
G1 X21.725 Y115.586 E35.44081
G1 X20.253 Y114.941 E35.51565
G1 X20.083 Y114.863 E35.52436
G1 X19.343 Y114.51 E35.56253
G1 X18.974 Y114.324 E35.58177
G1 X18.268 Y113.947 E35.61904
G1 X17.721 Y113.637 E35.64832
G1 X17.583 Y113.556 E35.65577
G1 X17.114 Y113.271 E35.68132
G1 X16.47 Y112.85 E35.71715
G1 X16.019 Y112.528 E35.74295
G1 X15.759 Y112.332 E35.75812
G1 X15.26 Y111.932 E35.78789
G1 X14.951 Y111.671 E35.80673
G1 X14.565 Y111.309 E35.83137
G1 X14.143 Y110.876 E35.85952
G1 X13.854 Y110.564 E35.87933
G1 X13.438 Y110.051 E35.91008
G1 X12.948 Y109.332 E35.9506
G1 X12.606 Y108.741 E35.98239
G1 X12.258 Y107.953 E36.0225
G1 X11.952 Y107.021 E36.06818
G1 X11.867 Y106.664 E36.08527
G1 X11.749 Y106.004 E36.11649
G1 X11.716 Y105.728 E36.12943
G1 X11.675 Y105.046 E36.16125
G1 X11.712 Y104.38 E36.1923
G1 X11.769 Y103.875 E36.21597
G1 X11.795 Y103.675 E36.22536
G1 X11.926 Y103.005 E36.25715
G1 X12.144 Y102.332 E36.29009
G1 X12.329 Y101.866 E36.31344
G1 X12.407 Y101.681 E36.32278
G1 X12.709 Y101.068 E36.3546
G1 X12.888 Y100.773 E36.37067
G1 X13.172 Y100.335 E36.39498
G1 X13.484 Y99.899 E36.41994
G1 X13.721 Y99.598 E36.43778
G1 X14.105 Y99.157 E36.46501
G1 X14.428 Y98.822 E36.48668
G1 X14.809 Y98.461 E36.51112
G1 X15.316 Y98.022 E36.54235
G1 X15.879 Y97.575 E36.57582
G1 X16.42 Y97.188 E36.6068
G1 X16.911 Y96.858 E36.63434
G1 X17.359 Y96.575 E36.65902
G1 X17.558 Y96.456 E36.66981
G1 X18.179 Y96.102 E36.7031
G1 X18.318 Y96.026 E36.71047
G1 X18.84 Y95.747 E36.73804
G1 X18.989 Y95.669 E36.74587
G1 X19.758 Y95.286 E36.78587
G1 X20.132 Y95.112 E36.80508
G1 X21.727 Y94.414 E36.88615
G1 X21.907 Y94.339 E36.89523
G1 X23.226 Y93.814 E36.96133
G1 X23.42 Y93.74 E36.971
G1 X24.764 Y93.248 E37.03764
G1 X25.155 Y93.111 E37.05694
G1 X26.369 Y92.7 E37.11662
G1 X27.106 Y92.46 E37.15271
G1 X28.033 Y92.169 E37.19795
M204 S3000
M205 X10 Y10
G0 F3000 X28.197 Y92.704
M204 S1800
M205 X8 Y8
G1 F2400 X29.107 Y92.425 E37.24227
G1 X30.106 Y92.13 E37.29077
G1 X31.122 Y91.838 E37.34
G1 X32.004 Y91.592 E37.38263
G1 X32.984 Y91.326 E37.42992
G1 X33.658 Y91.154 E37.46231
G1 X34.297 Y91.032 E37.4926
G1 X34.86 Y90.991 E37.51889
G1 X35.983 Y90.97 E37.57119
G1 X174.363 Y90.97 E44.01474
G1 X175.037 Y90.979 E44.04613
G1 X175.685 Y91.028 E44.07639
G1 X176.257 Y91.139 E44.10352
G1 X177.182 Y91.372 E44.14793
G1 X178.035 Y91.602 E44.18907
G1 X178.911 Y91.848 E44.23144
G1 X179.938 Y92.143 E44.2812
G1 X180.939 Y92.439 E44.3298
G1 X181.839 Y92.715 E44.37364
G1 X182.781 Y93.012 E44.41963
G1 X183.515 Y93.252 E44.45559
G1 X184.725 Y93.662 E44.51508
G1 X185.112 Y93.799 E44.53419
G1 X186.386 Y94.265 E44.59736
G1 X186.639 Y94.362 E44.60998
G1 X187.883 Y94.857 E44.67232
G1 X188.05 Y94.927 E44.68075
G1 X189.522 Y95.572 E44.75558
G1 X189.676 Y95.642 E44.76346
G1 X190.416 Y95.995 E44.80164
G1 X190.759 Y96.168 E44.81953
G1 X191.47 Y96.548 E44.85707
G1 X192.001 Y96.849 E44.88549
G1 X192.123 Y96.921 E44.89208
G1 X192.591 Y97.205 E44.91757
G1 X193.203 Y97.605 E44.95162
G1 X193.653 Y97.926 E44.97736
G1 X193.89 Y98.105 E44.99119
G1 X194.39 Y98.506 E45.02103
G1 X195.034 Y99.082 E45.06126
G1 X195.456 Y99.515 E45.08942
G1 X195.732 Y99.813 E45.10833
G1 X196.104 Y100.271 E45.13581
G1 X196.585 Y100.976 E45.17555
G1 X197.033 Y101.812 E45.21971
G1 X197.336 Y102.546 E45.25669
G1 X197.391 Y102.699 E45.26426
G1 X197.572 Y103.323 E45.29451
G1 X197.676 Y103.921 E45.32277
G1 X197.727 Y104.335 E45.3422
G1 X197.765 Y104.983 E45.37242
G1 X197.731 Y105.559 E45.39929
G1 X197.674 Y106.062 E45.42286
G1 X197.635 Y106.346 E45.43621
G1 X197.496 Y106.981 E45.46648
G1 X197.23 Y107.732 E45.50358
G1 X197.078 Y108.1 E45.52212
G1 X196.642 Y108.923 E45.56549
G1 X196.358 Y109.361 E45.58979
G1 X196.168 Y109.639 E45.60547
G1 X195.776 Y110.139 E45.63506
G1 X195.162 Y110.796 E45.67693
G1 X194.824 Y111.116 E45.6986
G1 X194.317 Y111.555 E45.72983
G1 X193.795 Y111.969 E45.76085
G1 X193.254 Y112.356 E45.79183
G1 X192.78 Y112.675 E45.81843
G1 X192.35 Y112.947 E45.84212
G1 X192.165 Y113.057 E45.85215
G1 X191.544 Y113.411 E45.88543
G1 X191.418 Y113.481 E45.89214
G1 X190.896 Y113.76 E45.9197
G1 X190.761 Y113.829 E45.92676
G1 X189.992 Y114.212 E45.96677
G1 X189.644 Y114.375 E45.98466
G1 X188.049 Y115.073 E46.06573
G1 X187.886 Y115.141 E46.07395
G1 X186.574 Y115.663 E46.1397
G1 X186.387 Y115.734 E46.14902
G1 X185.05 Y116.223 E46.21531
G1 X184.665 Y116.358 E46.2343
G1 X183.458 Y116.767 E46.29365
G1 X182.726 Y117.006 E46.3295
G1 X181.803 Y117.296 E46.37455
G1 X180.893 Y117.575 E46.41887
G1 X179.894 Y117.87 E46.46738
G1 X178.878 Y118.162 E46.5166
G1 X177.996 Y118.408 E46.55924
G1 X177.016 Y118.674 E46.60652
G1 X176.342 Y118.846 E46.63891
G1 X175.703 Y118.968 E46.6692
G1 X175.14 Y119.009 E46.69549
G1 X174.017 Y119.03 E46.74779
G1 X35.636 Y119.03 E53.19139
G1 X34.963 Y119.021 E53.22273
G1 X34.316 Y118.972 E53.25294
G1 X33.746 Y118.861 E53.27998
G1 X32.728 Y118.604 E53.32887
G1 X31.965 Y118.398 E53.36567
G1 X31.089 Y118.152 E53.40804
G1 X30.062 Y117.857 E53.4578
G1 X29.061 Y117.561 E53.5064
G1 X28.161 Y117.285 E53.55024
G1 X27.219 Y116.988 E53.59623
G1 X26.485 Y116.748 E53.63219
G1 X25.275 Y116.338 E53.69168
G1 X24.888 Y116.201 E53.71079
G1 X23.614 Y115.735 E53.77396
G1 X23.361 Y115.638 E53.78658
G1 X22.117 Y115.143 E53.84892
G1 X21.95 Y115.073 E53.85735
G1 X20.478 Y114.428 E53.93218
G1 X20.324 Y114.358 E53.94006
G1 X19.584 Y114.005 E53.97824
G1 X19.238 Y113.83 E53.99629
G1 X18.532 Y113.453 E54.03356
G1 X17.999 Y113.151 E54.06209
G1 X17.874 Y113.077 E54.06885
G1 X17.405 Y112.792 E54.09441
G1 X16.795 Y112.394 E54.12832
G1 X16.344 Y112.072 E54.15412
G1 X16.11 Y111.895 E54.16779
G1 X15.611 Y111.495 E54.19757
G1 X14.966 Y110.918 E54.23786
G1 X14.544 Y110.485 E54.26602
G1 X14.268 Y110.187 E54.28493
G1 X13.892 Y109.723 E54.31274
G1 X13.415 Y109.024 E54.35214
G1 X12.967 Y108.188 E54.39631
G1 X12.774 Y107.734 E54.41928
G1 X12.497 Y106.891 E54.4606
G1 X12.412 Y106.534 E54.47769
G1 X12.305 Y105.938 E54.50588
G1 X12.272 Y105.662 E54.51883
G1 X12.235 Y105.013 E54.5491
G1 X12.268 Y104.443 E54.57568
G1 X12.325 Y103.938 E54.59935
G1 X12.349 Y103.751 E54.60812
G1 X12.477 Y103.114 E54.63838
G1 X12.665 Y102.537 E54.66664
G1 X12.923 Y101.899 E54.69868
G1 X13.358 Y101.077 E54.74199
G1 X13.642 Y100.639 E54.76629
G1 X14.161 Y99.945 E54.80665
G1 X14.508 Y99.546 E54.83127
G1 X15.176 Y98.884 E54.87506
G1 X15.683 Y98.445 E54.90629
G1 X16.205 Y98.031 E54.93731
G1 X16.746 Y97.644 E54.96828
G1 X17.221 Y97.324 E54.99495
G1 X17.656 Y97.05 E55.01889
G1 X17.835 Y96.943 E55.0286
G1 X18.456 Y96.589 E55.06189
G1 X18.582 Y96.519 E55.0686
