;FLAVOR:Marlin
;TIME:16397
;Filament used: 19.1087m
;Layer height: 0.2
;MINX:11.112
;MINY:81.1
;MINZ:0.2
;MAXX:198.889
;MAXY:128.9
;MAXZ:15
;Generated with Cura_SteamEngine 4.7.1
M140 S60
M105
M190 S60
M104 S200
M105
M109 S200
M82 ;absolute extrusion mode
G21 ;metric values
G90 ;absolute positioning
M82 ;set extruder to absolute mode
M107 ;start with the fan off
G28 X0 Y0 ;move X/Y to min endstops
G28 Z0 ;move Z to min endstops
G1 Z15.0 F100 ;move the platform down 15mm
G92 E0 ;zero the extruded length
G1 F200 E3 ;extrude 3mm of feed stock
G92 E0 ;zero the extruded length again
G1 F100
G0 Y20 F100
M117 Printing...
G5
G92 E0
G92 E0
G1 F2400 E-6
;LAYER_COUNT:75
;LAYER:0
M106 S255
M204 S3000
M205 X10 Y10
G1 F600 Z0.275
G0 F3000 X35.056 Y83.53 Z0.275
M204 S1800
M205 X8 Y8
;TYPE:SKIRT
G1 F600 Z0.2
G1 F2400 E0
G1 X36.855 Y82.808 E0.09026
G1 X37.781 Y82.446 E0.13656
G1 X39.645 Y81.739 E0.22939
G1 X40.324 Y81.493 E0.26302
G1 X41.009 Y81.287 E0.29632
G1 X41.713 Y81.159 E0.32964
G1 X42.264 Y81.115 E0.35538
G1 X42.971 Y81.1 E0.38831
G1 X166.793 Y81.1 E6.15398
G1 X167.6 Y81.112 E6.19156
G1 X168.314 Y81.163 E6.22489
G1 X169.017 Y81.293 E6.25818
G1 X169.59 Y81.462 E6.286
G1 X170.207 Y81.683 E6.31652
G1 X172.275 Y82.468 E6.41952
G1 X173.196 Y82.828 E6.46556
G1 X175.012 Y83.558 E6.5567
G1 X176.161 Y84.035 E6.61463
G1 X177.636 Y84.666 E6.68933
G1 X178.942 Y85.245 E6.75585
G1 X180.169 Y85.807 E6.8187
G1 X181.497 Y86.438 E6.88716
G1 X182.457 Y86.911 E6.93699
G1 X183.904 Y87.652 E7.01269
G1 X184.613 Y88.03 E7.0501
G1 X186.243 Y88.939 E7.13701
G1 X186.886 Y89.313 E7.17165
G1 X187.772 Y89.847 E7.21982
G1 X187.925 Y89.942 E7.2282
G1 X188.796 Y90.501 E7.27639
G1 X189.51 Y90.976 E7.31632
G1 X189.64 Y91.065 E7.32366
G1 X190.134 Y91.412 E7.35177
G1 X190.651 Y91.786 E7.38148
G1 X191.086 Y92.109 E7.40671
G1 X191.252 Y92.236 E7.41644
G1 X192.079 Y92.893 E7.46563
G1 X192.331 Y93.1 E7.48081
G1 X192.872 Y93.558 E7.51382
G1 X193.268 Y93.913 E7.53858
G1 X193.835 Y94.453 E7.57504
G1 X194.269 Y94.884 E7.60352
G1 X194.538 Y95.169 E7.62177
G1 X195.238 Y95.956 E7.67082
G1 X195.37 Y96.108 E7.68019
G1 X195.703 Y96.507 E7.70439
G1 X196.049 Y96.962 E7.73101
G1 X196.469 Y97.568 E7.76534
G1 X196.575 Y97.726 E7.7742
G1 X196.9 Y98.226 E7.80197
G1 X197.26 Y98.855 E7.83571
G1 X197.59 Y99.516 E7.87011
G1 X197.877 Y100.133 E7.9018
G1 X198.106 Y100.701 E7.93032
G1 X198.339 Y101.432 E7.96604
G1 X198.383 Y101.582 E7.97332
G1 X198.555 Y102.207 E8.00351
G1 X198.732 Y103.093 E8.04558
G1 X198.796 Y103.646 E8.0715
G1 X198.809 Y103.807 E8.07902
G1 X198.864 Y104.414 E8.1074
G1 X198.889 Y105.129 E8.14071
G1 X198.869 Y105.508 E8.15839
G1 X198.821 Y106.101 E8.18609
G1 X198.802 Y106.296 E8.19521
G1 X198.746 Y106.797 E8.21869
G1 X198.585 Y107.679 E8.26044
G1 X198.426 Y108.271 E8.28898
G1 X198.387 Y108.403 E8.29539
G1 X198.19 Y109.048 E8.32679
G1 X197.94 Y109.726 E8.36044
G1 X197.625 Y110.412 E8.39559
G1 X197.277 Y111.114 E8.43207
G1 X196.917 Y111.746 E8.46594
G1 X196.552 Y112.309 E8.49718
G1 X196.448 Y112.465 E8.50591
G1 X196.095 Y112.976 E8.53483
G1 X195.755 Y113.424 E8.56102
G1 X195.249 Y114.034 E8.59793
G1 X195.129 Y114.174 E8.60651
G1 X194.765 Y114.588 E8.63218
G1 X194.494 Y114.878 E8.65066
G1 X193.751 Y115.624 E8.69969
G1 X193.595 Y115.776 E8.70983
G1 X193.11 Y116.231 E8.7408
G1 X192.427 Y116.822 E8.78286
G1 X191.942 Y117.221 E8.8121
G1 X191.423 Y117.632 E8.84293
G1 X190.512 Y118.315 E8.89594
G1 X190.15 Y118.576 E8.91672
G1 X189.474 Y119.049 E8.95514
G1 X188.958 Y119.393 E8.98402
G1 X188.183 Y119.893 E9.02697
G1 X187.304 Y120.441 E9.0752
G1 X187.141 Y120.539 E9.08405
G1 X186.35 Y121 E9.12669
G1 X186.243 Y121.061 E9.13242
G1 X184.504 Y122.029 E9.2251
G1 X183.903 Y122.348 E9.25678
G1 X182.377 Y123.128 E9.33658
G1 X181.415 Y123.602 E9.38652
G1 X180.169 Y124.193 E9.45073
G1 X178.869 Y124.787 E9.51728
G1 X177.564 Y125.365 E9.58374
G1 X176.099 Y125.991 E9.65793
G1 X174.946 Y126.469 E9.71605
G1 X173.143 Y127.193 E9.80652
G1 X172.219 Y127.554 E9.85271
G1 X170.352 Y128.262 E9.94569
G1 X169.672 Y128.508 E9.97936
G1 X168.987 Y128.714 E10.01267
G1 X168.283 Y128.841 E10.04598
G1 X167.737 Y128.885 E10.07148
G1 X167.029 Y128.9 E10.10446
G1 X43.207 Y128.9 E15.87013
G1 X42.416 Y128.889 E15.90696
G1 X41.703 Y128.839 E15.94025
G1 X41 Y128.71 E15.97353
G1 X40.509 Y128.57 E15.9973
G1 X39.792 Y128.317 E16.03271
G1 X37.725 Y127.532 E16.13566
G1 X36.798 Y127.17 E16.182
G1 X34.988 Y126.442 E16.27284
G1 X33.836 Y125.964 E16.33092
G1 X32.363 Y125.333 E16.40554
G1 X31.057 Y124.754 E16.47206
G1 X29.832 Y124.192 E16.53482
G1 X28.5 Y123.56 E16.60347
G1 X27.535 Y123.084 E16.65357
G1 X26.005 Y122.3 E16.73362
G1 X25.387 Y121.97 E16.76625
G1 X23.757 Y121.061 E16.85315
G1 X23.114 Y120.687 E16.88779
G1 X22.228 Y120.153 E16.93596
G1 X22.073 Y120.057 E16.94445
G1 X21.111 Y119.438 E16.99771
G1 X20.492 Y119.026 E17.03234
G1 X20.36 Y118.935 E17.0398
G1 X19.866 Y118.588 E17.06791
G1 X19.349 Y118.214 E17.09763
G1 X18.914 Y117.891 E17.12285
G1 X18.748 Y117.764 E17.13259
G1 X17.921 Y117.107 E17.18177
G1 X17.668 Y116.899 E17.19702
G1 X17.126 Y116.44 E17.23009
G1 X16.732 Y116.087 E17.25472
G1 X16.165 Y115.547 E17.29118
G1 X15.728 Y115.113 E17.31986
G1 X15.458 Y114.827 E17.33818
G1 X14.761 Y114.043 E17.38702
G1 X14.63 Y113.892 E17.39633
G1 X14.297 Y113.493 E17.42053
G1 X13.948 Y113.033 E17.44742
G1 X13.526 Y112.423 E17.48196
G1 X13.422 Y112.269 E17.49061
G1 X13.101 Y111.775 E17.51804
G1 X12.745 Y111.154 E17.55137
G1 X12.413 Y110.491 E17.5859
G1 X12.318 Y110.292 E17.59617
G1 X12.109 Y109.836 E17.61952
G1 X11.838 Y109.14 E17.6543
G1 X11.662 Y108.571 E17.68204
G1 X11.618 Y108.42 E17.68936
G1 X11.446 Y107.796 E17.7195
G1 X11.269 Y106.916 E17.7613
G1 X11.202 Y106.332 E17.78867
G1 X11.191 Y106.19 E17.7953
G1 X11.136 Y105.58 E17.82382
G1 X11.112 Y104.865 E17.85713
G1 X11.131 Y104.486 E17.8748
G1 X11.179 Y103.896 E17.90237
G1 X11.199 Y103.69 E17.912
G1 X11.257 Y103.181 E17.93586
G1 X11.418 Y102.312 E17.97701
G1 X11.574 Y101.729 E18.00511
G1 X11.613 Y101.597 E18.01152
G1 X11.81 Y100.952 E18.04293
G1 X12.06 Y100.274 E18.07657
G1 X12.375 Y99.588 E18.11172
G1 X12.73 Y98.873 E18.14889
G1 X13.092 Y98.24 E18.18285
G1 X13.452 Y97.686 E18.21361
G1 X13.552 Y97.535 E18.22205
G1 X13.905 Y97.024 E18.25097
G1 X14.245 Y96.576 E18.27715
G1 X14.751 Y95.966 E18.31406
G1 X14.871 Y95.826 E18.32265
G1 X15.235 Y95.412 E18.34831
G1 X15.506 Y95.122 E18.3668
G1 X16.249 Y94.376 E18.41582
G1 X16.406 Y94.224 E18.426
G1 X16.906 Y93.755 E18.45792
G1 X17.581 Y93.172 E18.49945
G1 X18.056 Y92.781 E18.5281
G1 X18.591 Y92.357 E18.55989
G1 X19.491 Y91.683 E18.61224
G1 X19.85 Y91.424 E18.63286
G1 X20.526 Y90.951 E18.67127
G1 X21.04 Y90.608 E18.70005
G1 X21.817 Y90.107 E18.7431
G1 X22.696 Y89.559 E18.79133
G1 X22.862 Y89.459 E18.80035
G1 X23.757 Y88.939 E18.84855
G1 X25.387 Y88.03 E18.93546
G1 X26 Y87.702 E18.96783
G1 X27.635 Y86.865 E19.05336
G1 X28.585 Y86.398 E19.10265
G1 X29.831 Y85.807 E19.16686
G1 X31.132 Y85.212 E19.23348
G1 X32.436 Y84.635 E19.29988
G1 X33.901 Y84.009 E19.37406
G1 X35.056 Y83.53 E19.43228
M204 S3000
M205 X10 Y10
G0 F3000 X35.265 Y84.05
M204 S1800
M205 X8 Y8
G1 F2400 X37.059 Y83.329 E19.52231
G1 X37.98 Y82.969 E19.56836
G1 X39.836 Y82.265 E19.66079
G1 X40.515 Y82.019 E19.69442
G1 X41.17 Y81.824 E19.72624
G1 X41.843 Y81.708 E19.75804
G1 X42.418 Y81.669 E19.78488
G1 X42.978 Y81.66 E19.81096
G1 X166.793 Y81.66 E25.5763
G1 X167.592 Y81.672 E25.61351
G1 X168.273 Y81.722 E25.64531
G1 X168.944 Y81.852 E25.67713
G1 X169.546 Y82.039 E25.70648
G1 X170.089 Y82.236 E25.73338
G1 X172.019 Y82.969 E25.82951
G1 X172.987 Y83.348 E25.87792
G1 X174.797 Y84.075 E25.96874
G1 X175.941 Y84.55 E26.02642
G1 X177.409 Y85.178 E26.10077
G1 X178.709 Y85.754 E26.16698
G1 X179.929 Y86.313 E26.22947
G1 X181.175 Y86.904 E26.29368
G1 X182.202 Y87.41 E26.34699
G1 X183.732 Y88.194 E26.42705
G1 X184.241 Y88.465 E26.4539
G1 X186.06 Y89.48 E26.55089
G1 X186.597 Y89.792 E26.57981
G1 X187.483 Y90.326 E26.62798
G1 X187.622 Y90.413 E26.63562
G1 X188.577 Y91.027 E26.68848
G1 X189.2 Y91.442 E26.72334
G1 X189.318 Y91.523 E26.73
G1 X189.807 Y91.866 E26.75782
G1 X190.318 Y92.235 E26.78717
G1 X190.753 Y92.558 E26.81239
G1 X190.904 Y92.674 E26.82126
G1 X191.731 Y93.331 E26.87044
G1 X191.969 Y93.528 E26.88483
G1 X192.51 Y93.986 E26.91783
G1 X192.884 Y94.32 E26.94118
G1 X193.446 Y94.857 E26.97738
G1 X193.874 Y95.281 E27.00543
G1 X194.12 Y95.541 E27.0221
G1 X194.82 Y96.328 E27.07114
G1 X194.94 Y96.467 E27.07969
G1 X195.273 Y96.866 E27.10389
G1 X195.589 Y97.281 E27.12818
G1 X196.009 Y97.887 E27.16251
G1 X196.106 Y98.031 E27.1706
G1 X196.431 Y98.531 E27.19837
G1 X196.759 Y99.105 E27.22915
G1 X197.089 Y99.766 E27.26355
G1 X197.368 Y100.367 E27.29441
G1 X197.577 Y100.885 E27.32042
G1 X197.803 Y101.594 E27.35507
G1 X197.843 Y101.73 E27.36167
G1 X198.015 Y102.355 E27.39185
G1 X198.177 Y103.164 E27.43027
G1 X198.238 Y103.691 E27.45497
G1 X198.256 Y103.913 E27.46534
G1 X198.306 Y104.465 E27.49115
G1 X198.311 Y105.463 E27.53762
G1 X198.263 Y106.056 E27.56533
G1 X198.246 Y106.234 E27.57365
G1 X198.19 Y106.735 E27.59713
G1 X198.042 Y107.539 E27.63519
G1 X197.887 Y108.119 E27.66315
G1 X197.654 Y108.885 E27.70043
G1 X197.427 Y109.503 E27.73109
G1 X197.118 Y110.174 E27.76549
G1 X197.059 Y110.296 E27.7718
G1 X196.776 Y110.865 E27.80139
G1 X196.447 Y111.441 E27.83227
G1 X196.082 Y112.004 E27.86352
G1 X195.987 Y112.146 E27.87147
G1 X195.634 Y112.657 E27.90039
G1 X195.324 Y113.067 E27.92433
G1 X194.818 Y113.677 E27.96123
G1 X194.709 Y113.804 E27.96902
G1 X194.345 Y114.218 E27.99469
G1 X194.097 Y114.483 E28.01159
G1 X193.354 Y115.229 E28.06062
G1 X193.212 Y115.367 E28.06984
G1 X192.727 Y115.822 E28.10081
G1 X192.066 Y116.394 E28.14151
G1 X191.657 Y116.731 E28.16619
G1 X191.232 Y117.071 E28.19153
G1 X191.087 Y117.184 E28.20009
G1 X190.176 Y117.867 E28.25311
G1 X189.829 Y118.117 E28.27302
G1 X189.153 Y118.59 E28.31144
G1 X188.649 Y118.926 E28.33965
G1 X187.887 Y119.418 E28.38188
G1 X187.008 Y119.966 E28.43011
G1 X186.859 Y120.056 E28.43822
G1 X186.068 Y120.517 E28.48085
G1 X184.241 Y121.535 E28.57824
G1 X183.648 Y121.85 E28.6095
G1 X182.13 Y122.626 E28.68889
G1 X181.175 Y123.096 E28.73845
G1 X179.855 Y123.721 E28.80646
G1 X178.642 Y124.275 E28.86855
G1 X177.343 Y124.85 E28.9347
G1 X175.884 Y125.474 E29.00859
G1 X174.737 Y125.95 E29.06642
G1 X172.94 Y126.672 E29.15659
G1 X172.021 Y127.031 E29.20253
G1 X170.162 Y127.736 E29.29511
G1 X169.482 Y127.982 E29.32879
G1 X168.827 Y128.176 E29.36059
G1 X168.154 Y128.293 E29.3924
G1 X167.584 Y128.331 E29.419
G1 X167.022 Y128.34 E29.44518
G1 X43.207 Y128.34 E35.21052
G1 X42.424 Y128.329 E35.24698
G1 X41.743 Y128.28 E35.27878
G1 X41.072 Y128.151 E35.31059
G1 X40.535 Y127.989 E35.33671
G1 X39.984 Y127.791 E35.36397
G1 X37.928 Y127.011 E35.46637
G1 X37.007 Y126.651 E35.51241
G1 X35.203 Y125.925 E35.60296
G1 X34.057 Y125.449 E35.66074
G1 X32.59 Y124.821 E35.73505
G1 X31.29 Y124.245 E35.80126
G1 X30.072 Y123.686 E35.86366
G1 X28.747 Y123.058 E35.93194
G1 X27.79 Y122.586 E35.98163
G1 X26.268 Y121.806 E36.06126
G1 X25.759 Y121.535 E36.08811
G1 X23.94 Y120.52 E36.18511
G1 X23.403 Y120.208 E36.21403
G1 X22.517 Y119.674 E36.2622
G1 X22.376 Y119.586 E36.26994
G1 X21.421 Y118.972 E36.3228
G1 X20.802 Y118.56 E36.35743
G1 X20.193 Y118.134 E36.39203
G1 X19.682 Y117.765 E36.42138
G1 X19.247 Y117.442 E36.44661
G1 X19.096 Y117.326 E36.45548
G1 X18.269 Y116.669 E36.50466
G1 X18.03 Y116.472 E36.51908
G1 X17.488 Y116.013 E36.55215
G1 X16.888 Y115.465 E36.58999
G1 X16.485 Y115.076 E36.61607
G1 X16.123 Y114.716 E36.63984
G1 X15.876 Y114.455 E36.65658
G1 X15.179 Y113.671 E36.70542
G1 X15.06 Y113.533 E36.71391
G1 X14.727 Y113.134 E36.73811
G1 X14.408 Y112.715 E36.76263
G1 X13.986 Y112.105 E36.79717
G1 X13.892 Y111.964 E36.80506
G1 X13.571 Y111.47 E36.83249
G1 X13.246 Y110.903 E36.86292
G1 X12.914 Y110.24 E36.89745
G1 X12.827 Y110.058 E36.90684
G1 X12.618 Y109.602 E36.9302
G1 X12.371 Y108.968 E36.96188
G1 X12.198 Y108.409 E36.98913
G1 X12.158 Y108.271 E36.99582
G1 X11.986 Y107.647 E37.02596
G1 X11.824 Y106.844 E37.06411
G1 X11.76 Y106.288 E37.09017
G1 X11.743 Y106.071 E37.1003
G1 X11.694 Y105.529 E37.12564
G1 X11.689 Y104.531 E37.17211
G1 X11.737 Y103.941 E37.19968
G1 X11.756 Y103.754 E37.20843
G1 X11.814 Y103.245 E37.23228
G1 X11.96 Y102.452 E37.26983
G1 X12.113 Y101.881 E37.29736
G1 X12.346 Y101.115 E37.33464
G1 X12.573 Y100.497 E37.36529
G1 X12.882 Y99.826 E37.39969
G1 X13.231 Y99.123 E37.43624
G1 X13.561 Y98.545 E37.46723
G1 X13.921 Y97.991 E37.498
G1 X14.013 Y97.854 E37.50568
G1 X14.366 Y97.343 E37.5346
G1 X14.676 Y96.933 E37.55853
G1 X15.182 Y96.323 E37.59544
G1 X15.291 Y96.196 E37.60323
G1 X15.655 Y95.782 E37.6289
G1 X15.903 Y95.517 E37.6458
G1 X16.646 Y94.771 E37.69483
G1 X16.789 Y94.633 E37.70408
G1 X17.289 Y94.164 E37.736
G1 X17.941 Y93.601 E37.77612
G1 X18.406 Y93.218 E37.80417
G1 X18.926 Y92.806 E37.83506
G1 X19.826 Y92.132 E37.88742
G1 X20.171 Y91.883 E37.90723
G1 X20.847 Y91.41 E37.94564
G1 X21.349 Y91.075 E37.97375
G1 X22.113 Y90.582 E38.01609
G1 X22.992 Y90.034 E38.06432
G1 X23.144 Y89.943 E38.07257
G1 X23.936 Y89.482 E38.11524
G1 X25.755 Y88.467 E38.21223
G1 X26.263 Y88.196 E38.23904
G1 X27.882 Y87.368 E38.32372
G1 X28.825 Y86.904 E38.37266
G1 X30.143 Y86.28 E38.44056
G1 X31.359 Y85.724 E38.50282
G1 X32.657 Y85.15 E38.5689
G1 X34.116 Y84.526 E38.64279
G1 X35.265 Y84.05 E38.70071
M204 S3000
M205 X10 Y10
G0 F3000 X35.473 Y84.569
M204 S1800
M205 X8 Y8
G1 F2400 X37.263 Y83.851 E38.79051
G1 X38.178 Y83.493 E38.83626
G1 X40.026 Y82.792 E38.9283
G1 X40.705 Y82.546 E38.96192
G1 X41.329 Y82.362 E38.99222
G1 X41.97 Y82.257 E39.02246
G1 X42.573 Y82.225 E39.05058
G1 X42.985 Y82.22 E39.06977
G1 X166.793 Y82.22 E44.83479
G1 X167.583 Y82.232 E44.87158
G1 X168.231 Y82.282 E44.90184
G1 X168.867 Y82.411 E44.93206
G1 X169.363 Y82.568 E44.95628
G1 X169.891 Y82.76 E44.98244
G1 X171.868 Y83.511 E45.08092
G1 X172.779 Y83.867 E45.12646
G1 X174.582 Y84.592 E45.21695
G1 X175.721 Y85.065 E45.27438
G1 X177.182 Y85.69 E45.34837
G1 X178.476 Y86.263 E45.41427
G1 X179.689 Y86.819 E45.4764
G1 X181.003 Y87.443 E45.54414
G1 X181.947 Y87.908 E45.59314
G1 X183.468 Y88.688 E45.67273
G1 X183.977 Y88.959 E45.69958
G1 X185.779 Y89.964 E45.79566
G1 X186.308 Y90.272 E45.82416
G1 X187.194 Y90.806 E45.87233
G1 X187.32 Y90.884 E45.87923
G1 X188.191 Y91.443 E45.92742
G1 X188.997 Y91.981 E45.97255
G1 X189.427 Y92.283 E45.99701
G1 X189.984 Y92.685 E46.029
G1 X190.419 Y93.008 E46.05423
G1 X190.555 Y93.113 E46.06223
G1 X191.462 Y93.834 E46.11618
G1 X191.608 Y93.955 E46.12501
G1 X192.149 Y94.413 E46.15802
G1 X192.727 Y94.943 E46.19453
G1 X193.12 Y95.321 E46.21992
G1 X193.479 Y95.678 E46.2435
G1 X193.701 Y95.913 E46.25855
G1 X194.401 Y96.7 E46.3076
G1 X194.51 Y96.826 E46.31535
G1 X194.843 Y97.225 E46.33955
G1 X195.129 Y97.6 E46.36151
G1 X195.549 Y98.206 E46.39585
G1 X195.636 Y98.336 E46.40313
G1 X195.961 Y98.836 E46.4309
G1 X196.258 Y99.356 E46.45878
G1 X196.588 Y100.017 E46.49318
G1 X196.859 Y100.601 E46.52316
G1 X197.048 Y101.069 E46.54667
G1 X197.267 Y101.755 E46.5802
G1 X197.303 Y101.879 E46.58621
G1 X197.475 Y102.504 E46.61639
G1 X197.621 Y103.235 E46.6511
G1 X197.68 Y103.736 E46.67459
G1 X197.697 Y103.958 E46.68496
G1 X197.748 Y104.516 E46.71105
G1 X197.753 Y105.418 E46.75305
G1 X197.705 Y106.011 E46.78076
G1 X197.689 Y106.172 E46.78829
G1 X197.633 Y106.673 E46.81176
G1 X197.5 Y107.4 E46.84618
G1 X197.348 Y107.967 E46.87351
G1 X197.316 Y108.076 E46.8788
G1 X197.119 Y108.721 E46.91021
G1 X196.913 Y109.28 E46.93795
G1 X196.611 Y109.936 E46.97157
G1 X196.558 Y110.046 E46.97726
G1 X196.275 Y110.615 E47.00685
G1 X195.977 Y111.136 E47.0348
G1 X195.612 Y111.699 E47.06604
G1 X195.526 Y111.828 E47.07326
G1 X195.173 Y112.339 E47.10218
G1 X194.893 Y112.709 E47.12379
G1 X194.387 Y113.319 E47.16069
G1 X194.288 Y113.434 E47.16776
G1 X193.924 Y113.848 E47.19343
G1 X193.7 Y114.088 E47.20871
G1 X192.957 Y114.834 E47.25774
G1 X192.829 Y114.959 E47.26607
G1 X192.344 Y115.414 E47.29704
G1 X191.705 Y115.966 E47.33636
G1 X191.301 Y116.299 E47.36073
G1 X190.882 Y116.634 E47.38571
G1 X190.751 Y116.736 E47.39345
