;FLAVOR:Marlin
;TIME:12852
;Filament used: 11.3947m
;Layer height: 0.2
;MINX:51.8
;MINY:29.038
;MINZ:0.2
;MAXX:158.2
;MAXY:182.7
;MAXZ:27.8
;Generated with Cura_SteamEngine 4.7.1
M140 S60
M105
M190 S60
M104 S200
M105
M109 S200
M82 ;absolute extrusion mode
G21 ;metric values
G90 ;absolute positioning
M82 ;set extruder to absolute mode
M107 ;start with the fan off
G28 X0 Y0 ;move X/Y to min endstops
G28 Z0 ;move Z to min endstops
G1 Z15.0 F100 ;move the platform down 15mm
G92 E0 ;zero the extruded length
G1 F200 E3 ;extrude 3mm of feed stock
G92 E0 ;zero the extruded length again
G1 F100
G0 Y20 F100
M117 Printing...
G5
G92 E0
G92 E0
G1 F2400 E-6
;LAYER_COUNT:140
;LAYER:0
M106 S255
M204 S3000
M205 X10 Y10
G1 F600 Z0.275
G0 F3000 X52.761 Y37.84 Z0.275
M204 S1800
M205 X8 Y8
;TYPE:SKIRT
G1 F600 Z0.2
G1 F2400 E0
G1 X53.147 Y37.427 E0.02632
G1 X53.584 Y37.047 E0.05329
G1 X54.069 Y36.73 E0.08027
G1 X54.593 Y36.483 E0.10724
G1 X55.146 Y36.311 E0.13421
G1 X55.718 Y36.216 E0.16121
G1 X56.117 Y36.197 E0.17981
G1 X62.883 Y36.197 E0.49486
G1 X63.461 Y36.237 E0.52184
G1 X64.028 Y36.356 E0.54882
G1 X64.573 Y36.552 E0.57579
G1 X65.086 Y36.821 E0.60276
G1 X65.557 Y37.158 E0.62973
G1 X65.8 Y37.379 E0.64502
G1 X65.8 Y33.355 E0.8324
G1 X65.84 Y32.777 E0.85937
G1 X65.959 Y32.21 E0.88635
G1 X66.155 Y31.665 E0.91332
G1 X66.424 Y31.152 E0.94029
G1 X66.761 Y30.681 E0.96726
G1 X67.147 Y30.268 E0.99358
G1 X67.584 Y29.888 E1.02055
G1 X68.069 Y29.571 E1.04753
G1 X68.593 Y29.324 E1.0745
G1 X69.146 Y29.152 E1.10147
G1 X69.718 Y29.057 E1.12847
G1 X70.117 Y29.038 E1.14707
G1 X73.383 Y29.038 E1.29915
G1 X73.961 Y29.078 E1.32613
G1 X74.528 Y29.197 E1.3531
G1 X75.073 Y29.393 E1.38007
G1 X75.586 Y29.662 E1.40704
G1 X76.057 Y29.999 E1.43401
G1 X76.47 Y30.385 E1.46033
G1 X76.85 Y30.822 E1.4873
G1 X76.998 Y31.049 E1.49992
G1 X77.53 Y30.385 E1.53954
G1 X77.647 Y30.268 E1.54724
G1 X78.084 Y29.888 E1.57421
G1 X78.569 Y29.571 E1.60119
G1 X79.093 Y29.324 E1.62816
G1 X79.646 Y29.152 E1.65513
G1 X80.218 Y29.057 E1.68213
G1 X80.617 Y29.038 E1.70073
G1 X83.883 Y29.038 E1.85281
G1 X84.461 Y29.078 E1.87979
G1 X85.028 Y29.197 E1.90676
G1 X85.573 Y29.393 E1.93373
G1 X86.086 Y29.662 E1.9607
G1 X86.557 Y29.999 E1.98767
G1 X86.97 Y30.385 E2.01399
G1 X87.35 Y30.822 E2.04096
G1 X87.498 Y31.049 E2.05358
G1 X88.03 Y30.385 E2.0932
G1 X88.147 Y30.268 E2.1009
G1 X88.584 Y29.888 E2.12787
G1 X89.069 Y29.571 E2.15485
G1 X89.593 Y29.324 E2.18182
G1 X90.146 Y29.152 E2.20879
G1 X90.718 Y29.057 E2.23579
G1 X91.117 Y29.038 E2.25439
G1 X94.383 Y29.038 E2.40647
G1 X94.961 Y29.078 E2.43344
G1 X95.528 Y29.197 E2.46042
G1 X96.073 Y29.393 E2.48739
G1 X96.586 Y29.662 E2.51436
G1 X97.057 Y29.999 E2.54133
G1 X97.47 Y30.385 E2.56765
G1 X97.85 Y30.822 E2.59462
G1 X98.167 Y31.307 E2.6216
G1 X98.414 Y31.831 E2.64857
G1 X98.586 Y32.384 E2.67554
G1 X98.681 Y32.956 E2.70254
G1 X98.7 Y33.355 E2.72114
G1 X98.7 Y34.495 E2.77422
G1 X100.955 Y43.5 E3.20648
G1 X101.057 Y44.07 E3.23344
G1 X101.079 Y44.649 E3.26042
G1 X101.064 Y44.8 E3.26749
G1 X108.932 Y44.8 E3.63386
G1 X108.925 Y44.74 E3.63667
G1 X108.934 Y44.161 E3.66363
G1 X109.045 Y43.5 E3.69484
G1 X111.3 Y34.495 E4.1271
G1 X111.3 Y33.355 E4.18018
G1 X111.34 Y32.777 E4.20716
G1 X111.459 Y32.21 E4.23414
G1 X111.655 Y31.665 E4.26111
G1 X111.924 Y31.152 E4.28808
G1 X112.261 Y30.681 E4.31505
G1 X112.647 Y30.268 E4.34137
G1 X113.084 Y29.888 E4.36834
G1 X113.569 Y29.571 E4.39532
G1 X114.093 Y29.324 E4.42229
G1 X114.646 Y29.152 E4.44926
G1 X115.218 Y29.057 E4.47626
G1 X115.617 Y29.038 E4.49486
G1 X118.883 Y29.038 E4.64694
G1 X119.461 Y29.078 E4.67391
G1 X120.028 Y29.197 E4.70089
G1 X120.573 Y29.393 E4.72786
G1 X121.086 Y29.662 E4.75483
G1 X121.557 Y29.999 E4.7818
G1 X121.97 Y30.385 E4.80812
G1 X122.35 Y30.822 E4.83509
G1 X122.498 Y31.049 E4.84771
G1 X123.03 Y30.385 E4.88732
G1 X123.147 Y30.268 E4.89503
G1 X123.584 Y29.888 E4.922
G1 X124.069 Y29.571 E4.94897
G1 X124.593 Y29.324 E4.97595
G1 X125.146 Y29.152 E5.00292
G1 X125.718 Y29.057 E5.02992
G1 X126.117 Y29.038 E5.04852
G1 X129.383 Y29.038 E5.20059
G1 X129.961 Y29.078 E5.22757
G1 X130.528 Y29.197 E5.25455
G1 X131.073 Y29.393 E5.28152
G1 X131.586 Y29.662 E5.30849
G1 X132.057 Y29.999 E5.33546
G1 X132.47 Y30.385 E5.36178
G1 X132.85 Y30.822 E5.38875
G1 X132.998 Y31.049 E5.40137
G1 X133.53 Y30.385 E5.44098
G1 X133.647 Y30.268 E5.44869
G1 X134.084 Y29.888 E5.47565
G1 X134.569 Y29.571 E5.50263
G1 X135.093 Y29.324 E5.52961
G1 X135.646 Y29.152 E5.55658
G1 X136.218 Y29.057 E5.58357
G1 X136.617 Y29.038 E5.60217
G1 X139.883 Y29.038 E5.75425
G1 X140.461 Y29.078 E5.78123
G1 X141.028 Y29.197 E5.80821
G1 X141.573 Y29.393 E5.83518
G1 X142.086 Y29.662 E5.86215
G1 X142.557 Y29.999 E5.88912
G1 X142.97 Y30.385 E5.91544
G1 X143.35 Y30.822 E5.94241
G1 X143.667 Y31.307 E5.96939
G1 X143.914 Y31.831 E5.99636
G1 X144.086 Y32.384 E6.02333
G1 X144.181 Y32.956 E6.05033
G1 X144.2 Y33.355 E6.06893
G1 X144.2 Y37.381 E6.25639
G1 X144.584 Y37.047 E6.28009
G1 X145.069 Y36.73 E6.30707
G1 X145.593 Y36.483 E6.33405
G1 X146.146 Y36.311 E6.36101
G1 X146.718 Y36.216 E6.38801
G1 X147.117 Y36.197 E6.40661
G1 X153.883 Y36.197 E6.72167
G1 X154.461 Y36.237 E6.74864
G1 X155.028 Y36.356 E6.77562
G1 X155.573 Y36.552 E6.80259
G1 X156.086 Y36.821 E6.82956
G1 X156.557 Y37.158 E6.85653
G1 X156.97 Y37.544 E6.88285
G1 X157.35 Y37.981 E6.90982
G1 X157.667 Y38.466 E6.9368
G1 X157.914 Y38.99 E6.96377
G1 X158.086 Y39.543 E6.99074
G1 X158.181 Y40.115 E7.01774
G1 X158.2 Y40.514 E7.03634
G1 X158.2 Y48.958 E7.42953
G1 X158.16 Y49.536 E7.45651
G1 X158.041 Y50.103 E7.48348
G1 X157.859 Y50.617 E7.50887
G1 X157.604 Y51.137 E7.53584
G1 X157.132 Y51.795 E7.57355
G1 X154.641 Y54.642 E7.7497
G1 X154.23 Y55.05 E7.77666
G1 X153.767 Y55.399 E7.80366
G1 X153.261 Y55.68 E7.83061
G1 X152.72 Y55.889 E7.85762
G1 X152.157 Y56.021 E7.88454
G1 X151.58 Y56.075 E7.91153
G1 X151.185 Y56.057 E7.92994
G1 X151.16 Y56.414 E7.94661
G1 X151.041 Y56.981 E7.97358
G1 X150.845 Y57.526 E8.00055
G1 X150.576 Y58.039 E8.02752
G1 X150.239 Y58.51 E8.05449
G1 X149.806 Y58.97 E8.08391
G1 X149.369 Y59.35 E8.11087
G1 X148.884 Y59.667 E8.13785
G1 X148.36 Y59.914 E8.16483
G1 X148.114 Y59.99 E8.17682
G1 X148.147 Y60.26 E8.18948
G1 X148.138 Y60.839 E8.21645
G1 X148.048 Y61.412 E8.24345
G1 X147.881 Y61.967 E8.27044
G1 X147.639 Y62.493 E8.2974
G1 X147.327 Y62.981 E8.32437
G1 X147.114 Y63.246 E8.3402
G1 X114.758 Y100.227 E10.62826
G1 X114.738 Y100.265 E10.63026
G1 X114.401 Y100.736 E10.65722
G1 X114.002 Y101.156 E10.6842
G1 X113.549 Y101.518 E10.7112
G1 X113.051 Y101.813 E10.73815
G1 X112.517 Y102.038 E10.76514
G1 X111.957 Y102.186 E10.79211
G1 X111.382 Y102.256 E10.81908
G1 X110.803 Y102.247 E10.84604
G1 X110.333 Y102.173 E10.8682
G1 X110.302 Y110.266 E11.24504
G1 X110.302 Y155.751 E13.36302
G1 X110.342 Y163.237 E13.7116
G1 X110.202 Y178.377 E14.41661
G1 X110.157 Y178.954 E14.44356
G1 X110.032 Y179.52 E14.47055
G1 X109.831 Y180.064 E14.49756
G1 X109.557 Y180.574 E14.52452
G1 X109.216 Y181.042 E14.55148
G1 X108.79 Y181.488 E14.5802
G1 X108.35 Y181.866 E14.60721
G1 X107.863 Y182.179 E14.63416
G1 X107.338 Y182.423 E14.66112
G1 X106.784 Y182.592 E14.68809
G1 X106.212 Y182.683 E14.71506
G1 X105.838 Y182.7 E14.7325
G1 X104.061 Y182.7 E14.81524
G1 X103.483 Y182.66 E14.84222
G1 X102.916 Y182.541 E14.8692
G1 X102.371 Y182.345 E14.89616
G1 X101.858 Y182.076 E14.92314
G1 X101.387 Y181.739 E14.9501
G1 X100.928 Y181.307 E14.97945
G1 X100.548 Y180.87 E15.00642
G1 X100.231 Y180.385 E15.0334
G1 X99.984 Y179.861 E15.06037
G1 X99.812 Y179.308 E15.08734
G1 X99.717 Y178.736 E15.11434
G1 X99.698 Y178.36 E15.13187
G1 X99.658 Y171.013 E15.47398
G1 X99.8 Y155.709 E16.18663
G1 X99.801 Y110.249 E18.30344
G1 X99.739 Y102.162 E18.68002
G1 X99.189 Y102.247 E18.70593
G1 X98.61 Y102.256 E18.73289
G1 X98.035 Y102.184 E18.75988
G1 X97.475 Y102.034 E18.78687
G1 X96.942 Y101.809 E18.81381
G1 X96.444 Y101.512 E18.84081
G1 X95.992 Y101.15 E18.86778
G1 X95.594 Y100.729 E18.89475
G1 X95.258 Y100.257 E18.92173
G1 X95.243 Y100.227 E18.92329
G1 X62.884 Y63.246 E21.21144
G1 X62.534 Y62.784 E21.23843
G1 X62.25 Y62.279 E21.26541
G1 X62.038 Y61.74 E21.29238
G1 X61.903 Y61.177 E21.31933
G1 X61.847 Y60.6 E21.34633
G1 X61.87 Y60.021 E21.37331
G1 X61.876 Y59.989 E21.37483
G1 X61.474 Y59.845 E21.39471
G1 X60.961 Y59.576 E21.42168
G1 X60.49 Y59.239 E21.44865
G1 X60.03 Y58.806 E21.47807
G1 X59.65 Y58.369 E21.50503
G1 X59.333 Y57.884 E21.53201
G1 X59.086 Y57.36 E21.55899
G1 X58.914 Y56.807 E21.58595
G1 X58.819 Y56.235 E21.61295
G1 X58.811 Y56.068 E21.62074
G1 X58.74 Y56.077 E21.62407
G1 X58.161 Y56.068 E21.65103
G1 X57.588 Y55.978 E21.67804
G1 X57.033 Y55.811 E21.70503
G1 X56.507 Y55.569 E21.73199
G1 X56.019 Y55.257 E21.75896
G1 X55.579 Y54.881 E21.78591
G1 X55.361 Y54.651 E21.80067
G1 X52.874 Y51.812 E21.97641
G1 X52.523 Y51.35 E22.00343
G1 X52.143 Y50.629 E22.04138
G1 X52.11 Y50.548 E22.04545
G1 X51.929 Y49.997 E22.07246
G1 X51.826 Y49.427 E22.09943
G1 X51.8 Y48.963 E22.12107
G1 X51.8 Y40.514 E22.51449
G1 X51.84 Y39.936 E22.54147
G1 X51.959 Y39.369 E22.56845
G1 X52.155 Y38.824 E22.59541
G1 X52.424 Y38.311 E22.62239
G1 X52.761 Y37.84 E22.64935
M204 S3000
M205 X10 Y10
G0 F3000 X53.426 Y37.94
M204 S1800
M205 X8 Y8
G1 F2400 X53.543 Y37.823 E22.65706
G1 X53.952 Y37.471 E22.68219
G1 X54.408 Y37.183 E22.7073
G1 X54.901 Y36.966 E22.73238
G1 X55.421 Y36.824 E22.75748
G1 X56.117 Y36.757 E22.79004
G1 X62.883 Y36.757 E23.10509
G1 X63.421 Y36.797 E23.13021
G1 X63.947 Y36.916 E23.15533
G1 X64.449 Y37.111 E23.1804
G1 X64.918 Y37.379 E23.20555
G1 X65.457 Y37.823 E23.23807
G1 X65.574 Y37.94 E23.24578
G1 X65.926 Y38.349 E23.2709
G1 X66.214 Y38.805 E23.29602
G1 X66.431 Y39.298 E23.3211
G1 X66.573 Y39.818 E23.3462
G1 X66.64 Y40.514 E23.37876
G1 X66.64 Y40.652 E23.38518
G1 X67.925 Y42.151 E23.47712
G1 X68.244 Y42.585 E23.5022
G1 X68.496 Y43.062 E23.52732
G1 X68.675 Y43.571 E23.55244
G1 X68.777 Y44.1 E23.57753
G1 X68.799 Y44.639 E23.60265
G1 X68.742 Y45.175 E23.62775
G1 X68.693 Y45.36 E23.63666
G1 X70.085 Y45.36 E23.70148
G1 X66.954 Y40.489 E23.97111
G1 X66.697 Y40.015 E23.99621
G1 X66.51 Y39.501 E24.02168
G1 X66.395 Y38.974 E24.0468
G1 X66.36 Y38.467 E24.07046
G1 X66.36 Y33.355 E24.3085
G1 X66.4 Y32.817 E24.33362
G1 X66.519 Y32.291 E24.35873
G1 X66.714 Y31.789 E24.38381
G1 X66.982 Y31.32 E24.40896
G1 X67.426 Y30.781 E24.44148
G1 X67.543 Y30.664 E24.44918
G1 X67.952 Y30.312 E24.47431
G1 X68.408 Y30.024 E24.49942
G1 X68.901 Y29.807 E24.5245
G1 X69.421 Y29.665 E24.5496
G1 X70.117 Y29.598 E24.58216
G1 X73.383 Y29.598 E24.73424
G1 X73.921 Y29.638 E24.75936
G1 X74.447 Y29.757 E24.78447
G1 X74.949 Y29.952 E24.80955
G1 X75.418 Y30.22 E24.8347
G1 X75.957 Y30.664 E24.86722
G1 X76.074 Y30.781 E24.87492
G1 X76.426 Y31.19 E24.90005
G1 X76.714 Y31.646 E24.92517
G1 X76.931 Y32.139 E24.95025
G1 X76.998 Y32.384 E24.96207
G1 X77.019 Y32.291 E24.96651
G1 X77.214 Y31.789 E24.99159
G1 X77.482 Y31.32 E25.01674
G1 X77.926 Y30.781 E25.04926
G1 X78.043 Y30.664 E25.05696
G1 X78.452 Y30.312 E25.08209
G1 X78.908 Y30.024 E25.1072
G1 X79.401 Y29.807 E25.13229
G1 X79.921 Y29.665 E25.15739
G1 X80.617 Y29.598 E25.18994
G1 X83.883 Y29.598 E25.34202
G1 X84.421 Y29.638 E25.36714
G1 X84.947 Y29.757 E25.39226
G1 X85.449 Y29.952 E25.41733
G1 X85.918 Y30.22 E25.44249
G1 X86.457 Y30.664 E25.475
G1 X86.574 Y30.781 E25.48271
G1 X86.926 Y31.19 E25.50783
G1 X87.214 Y31.646 E25.53295
G1 X87.431 Y32.139 E25.55803
G1 X87.498 Y32.384 E25.56986
G1 X87.519 Y32.291 E25.5743
G1 X87.714 Y31.789 E25.59937
G1 X87.982 Y31.32 E25.62452
G1 X88.426 Y30.781 E25.65704
G1 X88.543 Y30.664 E25.66475
G1 X88.952 Y30.312 E25.68987
G1 X89.408 Y30.024 E25.71499
G1 X89.901 Y29.807 E25.74007
G1 X90.421 Y29.665 E25.76517
G1 X91.117 Y29.598 E25.79773
G1 X94.383 Y29.598 E25.94981
G1 X94.921 Y29.638 E25.97493
G1 X95.447 Y29.757 E26.00004
G1 X95.949 Y29.952 E26.02511
G1 X96.418 Y30.22 E26.05027
G1 X96.957 Y30.664 E26.08278
G1 X97.074 Y30.781 E26.09049
G1 X97.426 Y31.19 E26.11562
G1 X97.714 Y31.646 E26.14073
G1 X97.931 Y32.139 E26.16581
G1 X98.073 Y32.659 E26.19091
G1 X98.14 Y33.355 E26.22347
G1 X98.14 Y34.563 E26.27972
G1 X100.412 Y43.636 E26.71524
G1 X100.504 Y44.167 E26.74033
G1 X100.516 Y44.706 E26.76544
G1 X100.449 Y45.241 E26.79055
G1 X100.416 Y45.36 E26.7963
G1 X109.578 Y45.36 E27.22292
G1 X109.493 Y44.84 E27.24745
G1 X109.486 Y44.301 E27.27255
G1 X109.588 Y43.636 E27.30388
G1 X111.86 Y34.563 E27.7394
G1 X111.86 Y33.355 E27.79565
G1 X111.9 Y32.817 E27.82077
G1 X112.019 Y32.291 E27.84588
G1 X112.214 Y31.789 E27.87096
G1 X112.482 Y31.32 E27.89611
G1 X112.926 Y30.781 E27.92863
G1 X113.043 Y30.664 E27.93633
G1 X113.452 Y30.312 E27.96146
G1 X113.908 Y30.024 E27.98657
G1 X114.401 Y29.807 E28.01166
G1 X114.921 Y29.665 E28.03676
G1 X115.617 Y29.598 E28.06931
G1 X118.883 Y29.598 E28.22139
G1 X119.421 Y29.638 E28.24651
G1 X119.947 Y29.757 E28.27162
G1 X120.449 Y29.952 E28.2967
G1 X120.918 Y30.22 E28.32185
G1 X121.457 Y30.664 E28.35437
G1 X121.574 Y30.781 E28.36208
G1 X121.926 Y31.19 E28.3872
G1 X122.214 Y31.646 E28.41232
G1 X122.431 Y32.139 E28.4374
G1 X122.498 Y32.384 E28.44922
G1 X122.519 Y32.291 E28.45366
G1 X122.714 Y31.789 E28.47874
G1 X122.982 Y31.32 E28.50389
G1 X123.426 Y30.781 E28.53641
G1 X123.543 Y30.664 E28.54412
G1 X123.952 Y30.312 E28.56924
G1 X124.408 Y30.024 E28.59436
G1 X124.901 Y29.807 E28.61944
G1 X125.421 Y29.665 E28.64454
G1 X126.117 Y29.598 E28.6771
G1 X129.383 Y29.598 E28.82917
G1 X129.921 Y29.638 E28.8543
G1 X130.447 Y29.757 E28.87941
G1 X130.949 Y29.952 E28.90448
G1 X131.418 Y30.22 E28.92964
G1 X131.957 Y30.664 E28.96215
G1 X132.074 Y30.781 E28.96986
G1 X132.426 Y31.19 E28.99498
G1 X132.714 Y31.646 E29.0201
G1 X132.931 Y32.139 E29.04518
G1 X132.998 Y32.384 E29.05701
G1 X133.019 Y32.291 E29.06145
G1 X133.214 Y31.789 E29.08652
G1 X133.482 Y31.32 E29.11168
G1 X133.926 Y30.781 E29.14419
G1 X134.043 Y30.664 E29.1519
G1 X134.452 Y30.312 E29.17702
G1 X134.908 Y30.024 E29.20214
G1 X135.401 Y29.807 E29.22722
G1 X135.921 Y29.665 E29.25232
G1 X136.617 Y29.598 E29.28488
G1 X139.883 Y29.598 E29.43696
G1 X140.421 Y29.638 E29.46208
G1 X140.947 Y29.757 E29.48719
G1 X141.449 Y29.952 E29.51227
G1 X141.918 Y30.22 E29.53742
G1 X142.457 Y30.664 E29.56994
G1 X142.574 Y30.781 E29.57764
G1 X142.926 Y31.19 E29.60277
G1 X143.214 Y31.646 E29.62788
G1 X143.431 Y32.139 E29.65296
G1 X143.573 Y32.659 E29.67806
G1 X143.64 Y33.355 E29.71062
G1 X143.64 Y38.468 E29.9487
G1 X143.6 Y39.006 E29.97382
G1 X143.486 Y39.514 E29.99807
G1 X143.468 Y39.574 E30.00098
G1 X143.276 Y40.078 E30.0261
G1 X143.045 Y40.495 E30.04829
G1 X139.92 Y45.36 E30.31754
G1 X141.296 Y45.36 E30.38161
G1 X141.211 Y44.84 E30.40614
G1 X141.204 Y44.301 E30.43125
G1 X141.276 Y43.766 E30.45638
G1 X141.426 Y43.248 E30.48149
G1 X141.652 Y42.758 E30.50662
G1 X142.073 Y42.152 E30.54098
G1 X143.36 Y40.65 E30.63308
G1 X143.36 Y40.514 E30.63941
G1 X143.4 Y39.976 E30.66453
G1 X143.519 Y39.45 E30.68965
G1 X143.714 Y38.948 E30.71472
G1 X143.982 Y38.479 E30.73988
G1 X144.426 Y37.94 E30.77239
G1 X144.543 Y37.823 E30.7801
G1 X144.952 Y37.471 E30.80522
G1 X145.408 Y37.183 E30.83034
G1 X145.901 Y36.966 E30.85542
G1 X146.421 Y36.824 E30.88052
G1 X147.117 Y36.757 E30.91308
G1 X153.883 Y36.757 E31.22813
G1 X154.421 Y36.797 E31.25325
G1 X154.947 Y36.916 E31.27836
G1 X155.449 Y37.111 E31.30344
G1 X155.918 Y37.379 E31.32859
G1 X156.457 Y37.823 E31.36111
G1 X156.574 Y37.94 E31.36881
G1 X156.926 Y38.349 E31.39394
G1 X157.214 Y38.805 E31.41905
G1 X157.431 Y39.298 E31.44414
G1 X157.573 Y39.818 E31.46924
G1 X157.64 Y40.514 E31.50179
G1 X157.64 Y48.958 E31.89498
G1 X157.6 Y49.496 E31.9201
G1 X157.481 Y50.022 E31.94522
G1 X157.341 Y50.405 E31.9642
G1 X157.1 Y50.888 E31.98934
G1 X156.71 Y51.426 E32.02028
G1 X154.219 Y54.273 E32.19643
G1 X153.835 Y54.651 E32.22152
G1 X153.399 Y54.969 E32.24665
G1 X152.921 Y55.218 E32.27174
G1 X152.412 Y55.395 E32.29684
G1 X151.882 Y55.494 E32.32194
G1 X151.343 Y55.513 E32.34706
G1 X150.807 Y55.453 E32.37217
G1 X150.64 Y55.409 E32.38021
G1 X150.64 Y55.836 E32.40009
G1 X150.6 Y56.374 E32.42522
G1 X150.481 Y56.9 E32.45033
G1 X150.286 Y57.402 E32.4754
G1 X150.018 Y57.871 E32.50056
