;FLAVOR:Marlin
;TIME:2336
;Filament used: 2.17592m
;Layer height: 0.2
;MINX:73.303
;MINY:82.053
;MINZ:0.2
;MAXX:136.698
;MAXY:127.946
;MAXZ:13
;Generated with Cura_SteamEngine 4.7.1
M140 S60
M105
M190 S60
M104 S200
M105
M109 S200
M82 ;absolute extrusion mode
G21 ;metric values
G90 ;absolute positioning
M82 ;set extruder to absolute mode
M107 ;start with the fan off
G28 X0 Y0 ;move X/Y to min endstops
G28 Z0 ;move Z to min endstops
G1 Z15.0 F100 ;move the platform down 15mm
G92 E0 ;zero the extruded length
G1 F200 E3 ;extrude 3mm of feed stock
G92 E0 ;zero the extruded length again
G1 F100
G0 Y20 F100
M117 Printing...
G5
G92 E0
G92 E0
G1 F2400 E-6
;LAYER_COUNT:65
;LAYER:0
M106 S255
M204 S3000
M205 X10 Y10
G1 F600 Z0.275
G0 F3000 X79.559 Y87.069 Z0.275
M204 S1800
M205 X8 Y8
;TYPE:SKIRT
G1 F600 Z0.2
G1 F2400 E0
G1 X80.13 Y86.569 E0.03534
G1 X80.292 Y86.435 E0.04513
G1 X80.909 Y85.947 E0.08176
G1 X81.081 Y85.818 E0.09177
G1 X81.707 Y85.373 E0.12754
G1 X81.889 Y85.25 E0.13776
G1 X82.535 Y84.84 E0.17339
G1 X82.72 Y84.729 E0.18344
G1 X83.396 Y84.347 E0.21959
G1 X83.586 Y84.246 E0.22961
G1 X84.285 Y83.897 E0.26599
G1 X84.474 Y83.809 E0.2757
G1 X85.167 Y83.505 E0.31094
G1 X85.382 Y83.418 E0.32174
G1 X86.106 Y83.147 E0.35773
G1 X86.303 Y83.078 E0.36745
G1 X87.047 Y82.841 E0.40381
G1 X87.258 Y82.78 E0.41404
G1 X88.01 Y82.583 E0.45024
G1 X88.216 Y82.535 E0.46009
G1 X88.959 Y82.38 E0.49543
G1 X89.169 Y82.341 E0.50537
G1 X89.938 Y82.221 E0.54162
G1 X90.168 Y82.192 E0.55241
G1 X90.938 Y82.115 E0.58844
G1 X91.134 Y82.1 E0.5976
G1 X91.907 Y82.059 E0.63364
G1 X92.129 Y82.053 E0.64398
G1 X92.893 Y82.053 E0.67956
G1 X93.12 Y82.059 E0.69013
G1 X93.896 Y82.101 E0.72632
G1 X94.101 Y82.117 E0.73589
G1 X94.874 Y82.197 E0.77208
G1 X95.09 Y82.225 E0.78222
G1 X95.859 Y82.345 E0.81846
G1 X96.07 Y82.384 E0.82845
G1 X96.812 Y82.539 E0.86375
G1 X97.029 Y82.59 E0.87413
G1 X97.78 Y82.789 E0.91031
G1 X97.981 Y82.848 E0.92006
G1 X98.714 Y83.082 E0.95589
G1 X98.92 Y83.154 E0.96605
G1 X99.654 Y83.431 E1.00258
G1 X99.855 Y83.513 E1.01269
G1 X100.554 Y83.819 E1.04822
G1 X100.757 Y83.914 E1.05866
G1 X101.443 Y84.259 E1.09441
G1 X101.627 Y84.357 E1.10412
G1 X102.31 Y84.744 E1.14067
G1 X102.492 Y84.853 E1.15055
G1 X103.137 Y85.263 E1.18614
G1 X103.324 Y85.389 E1.19664
G1 X103.949 Y85.835 E1.23239
G1 X104.118 Y85.962 E1.24224
G1 X104.735 Y86.451 E1.27889
G1 X104.892 Y86.583 E1.28845
G1 X105.461 Y87.081 E1.32366
G1 X105.635 Y87.241 E1.33466
G1 X106.187 Y87.782 E1.37065
G1 X106.332 Y87.932 E1.38037
G1 X106.866 Y88.51 E1.41701
G1 X107.005 Y88.668 E1.42681
G1 X107.491 Y89.25 E1.46211
G1 X107.631 Y89.428 E1.47266
G1 X108.101 Y90.057 E1.50922
G1 X108.223 Y90.229 E1.51904
G1 X108.647 Y90.86 E1.55444
G1 X108.761 Y91.039 E1.56432
G1 X109.166 Y91.713 E1.60094
G1 X109.277 Y91.91 E1.61147
G1 X109.632 Y92.58 E1.64677
G1 X109.725 Y92.767 E1.6565
G1 X110.058 Y93.479 E1.6931
G1 X110.146 Y93.68 E1.70331
G1 X110.431 Y94.383 E1.73864
G1 X110.505 Y94.58 E1.74844
G1 X110.763 Y95.321 E1.78497
G1 X110.83 Y95.531 E1.79524
G1 X111.042 Y96.261 E1.83063
G1 X111.098 Y96.471 E1.84075
G1 X111.278 Y97.237 E1.87739
G1 X111.322 Y97.452 E1.88761
G1 X111.457 Y98.2 E1.923
G1 X111.489 Y98.406 E1.93271
G1 X111.59 Y99.185 E1.96929
G1 X111.613 Y99.403 E1.9795
G1 X111.671 Y100.157 E2.01471
G1 X111.682 Y100.376 E2.02492
G1 X111.701 Y101.149 E2.06092
G1 X111.7 Y101.365 E2.07098
G1 X111.679 Y102.143 E2.10722
G1 X111.668 Y102.354 E2.11706
G1 X111.609 Y103.117 E2.15269
G1 X111.587 Y103.332 E2.16276
G1 X111.486 Y104.113 E2.19943
G1 X111.451 Y104.337 E2.20998
G1 X111.313 Y105.084 E2.24536
G1 X111.271 Y105.284 E2.25487
G1 X111.094 Y106.035 E2.2908
G1 X111.038 Y106.248 E2.30106
G1 X110.818 Y107.002 E2.33763
G1 X110.753 Y107.206 E2.3476
G1 X110.504 Y107.922 E2.3829
G1 X110.427 Y108.126 E2.39305
G1 X110.135 Y108.843 E2.4291
G1 X110.047 Y109.043 E2.43927
G1 X109.713 Y109.755 E2.47589
G1 X109.618 Y109.945 E2.48579
G1 X109.257 Y110.623 E2.52155
G1 X109.149 Y110.815 E2.53181
G1 X108.756 Y111.468 E2.5673
G1 X108.637 Y111.654 E2.57758
G1 X108.199 Y112.302 E2.614
G1 X108.08 Y112.469 E2.62355
G1 X107.616 Y113.088 E2.65957
G1 X107.477 Y113.264 E2.67001
G1 X106.981 Y113.857 E2.70601
G1 X106.84 Y114.016 E2.71591
G1 X106.324 Y114.573 E2.75126
G1 X106.17 Y114.731 E2.76154
G1 X105.608 Y115.277 E2.79802
G1 X105.451 Y115.422 E2.80797
G1 X104.879 Y115.924 E2.84341
G1 X104.715 Y116.061 E2.85336
G1 X104.097 Y116.55 E2.89006
G1 X103.917 Y116.684 E2.90051
G1 X103.291 Y117.127 E2.93622
G1 X103.124 Y117.239 E2.94558
G1 X102.48 Y117.65 E2.98115
G1 X102.281 Y117.77 E2.99197
G1 X101.595 Y118.156 E3.02863
G1 X101.416 Y118.251 E3.03806
G1 X100.739 Y118.59 E3.07332
G1 X100.539 Y118.684 E3.08361
G1 X99.818 Y118.999 E3.12024
G1 X99.611 Y119.083 E3.13065
G1 X98.901 Y119.349 E3.16595
G1 X98.703 Y119.417 E3.1757
G1 X97.96 Y119.654 E3.21201
G1 X97.754 Y119.714 E3.22201
G1 X97.01 Y119.91 E3.25783
G1 X96.793 Y119.961 E3.26821
G1 X96.041 Y120.117 E3.30397
G1 X95.835 Y120.155 E3.31373
G1 X95.065 Y120.275 E3.35001
G1 X94.836 Y120.304 E3.36076
G1 X94.067 Y120.381 E3.39675
G1 X93.871 Y120.396 E3.4059
G1 X93.098 Y120.437 E3.44195
G1 X92.876 Y120.443 E3.45229
G1 X92.112 Y120.443 E3.48786
G1 X91.885 Y120.437 E3.49844
G1 X91.109 Y120.395 E3.53462
G1 X90.908 Y120.379 E3.54401
G1 X90.137 Y120.3 E3.5801
G1 X89.913 Y120.271 E3.59062
G1 X89.143 Y120.15 E3.62691
G1 X88.938 Y120.113 E3.63661
G1 X88.194 Y119.958 E3.672
G1 X87.975 Y119.906 E3.68248
G1 X87.224 Y119.707 E3.71866
G1 X87.019 Y119.647 E3.7286
G1 X86.285 Y119.412 E3.76449
G1 X86.084 Y119.342 E3.7744
G1 X85.363 Y119.07 E3.81028
G1 X85.162 Y118.988 E3.82039
G1 X84.444 Y118.674 E3.85688
G1 X84.24 Y118.578 E3.86738
G1 X83.562 Y118.237 E3.90272
G1 X83.379 Y118.139 E3.91239
G1 X82.694 Y117.751 E3.94904
G1 X82.505 Y117.638 E3.9593
G1 X81.856 Y117.224 E3.99514
G1 X81.685 Y117.109 E4.00474
G1 X81.059 Y116.665 E4.04048
G1 X80.875 Y116.526 E4.05121
G1 X80.274 Y116.048 E4.08697
G1 X80.117 Y115.917 E4.09649
G1 X79.535 Y115.406 E4.13256
G1 X79.369 Y115.252 E4.1431
G1 X78.811 Y114.706 E4.17945
G1 X78.67 Y114.562 E4.18884
G1 X78.151 Y114.003 E4.22435
G1 X77.997 Y113.827 E4.23524
G1 X77.504 Y113.233 E4.27119
G1 X77.373 Y113.067 E4.28104
G1 X76.904 Y112.44 E4.3175
G1 X76.783 Y112.27 E4.32721
G1 X76.358 Y111.639 E4.36264
G1 X76.24 Y111.452 E4.37293
G1 X75.836 Y110.778 E4.40952
G1 X75.727 Y110.586 E4.4198
G1 X75.373 Y109.918 E4.45501
G1 X75.279 Y109.728 E4.46488
G1 X74.946 Y109.015 E4.50152
G1 X74.858 Y108.814 E4.51174
G1 X74.573 Y108.11 E4.5471
G1 X74.5 Y107.915 E4.5568
G1 X74.242 Y107.174 E4.59333
G1 X74.174 Y106.963 E4.60366
G1 X73.962 Y106.232 E4.6391
G1 X73.908 Y106.025 E4.64906
G1 X73.728 Y105.261 E4.68561
G1 X73.683 Y105.044 E4.69593
G1 X73.548 Y104.296 E4.73132
G1 X73.516 Y104.089 E4.74107
G1 X73.415 Y103.308 E4.77774
G1 X73.392 Y103.092 E4.78786
G1 X73.334 Y102.339 E4.82302
G1 X73.323 Y102.125 E4.833
G1 X73.303 Y101.354 E4.86891
G1 X73.304 Y101.128 E4.87944
G1 X73.326 Y100.341 E4.9161
G1 X73.337 Y100.131 E4.92589
G1 X73.396 Y99.376 E4.96115
G1 X73.418 Y99.164 E4.97108
G1 X73.519 Y98.383 E5.00775
G1 X73.554 Y98.159 E5.0183
G1 X73.692 Y97.412 E5.05368
G1 X73.734 Y97.212 E5.06319
G1 X73.911 Y96.461 E5.09912
G1 X73.967 Y96.248 E5.10938
G1 X74.187 Y95.494 E5.14595
G1 X74.252 Y95.29 E5.15592
G1 X74.501 Y94.574 E5.19122
G1 X74.576 Y94.375 E5.20112
G1 X74.867 Y93.658 E5.23715
G1 X74.958 Y93.451 E5.24768
G1 X75.286 Y92.753 E5.28359
G1 X75.379 Y92.567 E5.29328
G1 X75.748 Y91.873 E5.32987
G1 X75.86 Y91.675 E5.34047
G1 X76.26 Y91.012 E5.37652
G1 X76.376 Y90.831 E5.38653
G1 X76.801 Y90.202 E5.42188
G1 X76.921 Y90.033 E5.43153
G1 X77.392 Y89.405 E5.46809
G1 X77.528 Y89.233 E5.4783
G1 X78.013 Y88.652 E5.51354
G1 X78.157 Y88.488 E5.5237
G1 X78.692 Y87.911 E5.56034
G1 X78.846 Y87.754 E5.57058
G1 X79.4 Y87.216 E5.60654
G1 X79.559 Y87.069 E5.61662
M204 S3000
M205 X10 Y10
G0 F3000 X79.928 Y87.491
M204 S1800
M205 X8 Y8
G1 F2400 X80.499 Y86.991 E5.65196
G1 X80.639 Y86.874 E5.66046
G1 X81.256 Y86.386 E5.69709
G1 X81.405 Y86.274 E5.70577
G1 X82.031 Y85.829 E5.74153
G1 X82.189 Y85.723 E5.75039
G1 X82.835 Y85.313 E5.78602
G1 X82.995 Y85.217 E5.79471
G1 X83.671 Y84.835 E5.83086
G1 X83.836 Y84.747 E5.83957
G1 X84.535 Y84.398 E5.87595
G1 X84.699 Y84.322 E5.88437
G1 X85.392 Y84.018 E5.9196
G1 X85.578 Y83.942 E5.92896
G1 X86.302 Y83.671 E5.96496
G1 X86.473 Y83.612 E5.97338
G1 X87.217 Y83.375 E6.00974
G1 X87.4 Y83.322 E6.01861
G1 X88.152 Y83.125 E6.05481
G1 X88.331 Y83.083 E6.06337
G1 X89.074 Y82.928 E6.09871
G1 X89.256 Y82.895 E6.10732
G1 X90.025 Y82.775 E6.14356
G1 X90.224 Y82.749 E6.15291
G1 X90.994 Y82.672 E6.18894
G1 X91.163 Y82.659 E6.19684
G1 X91.936 Y82.618 E6.23288
G1 X92.129 Y82.613 E6.24187
G1 X92.893 Y82.613 E6.27745
G1 X93.09 Y82.618 E6.28662
G1 X93.866 Y82.66 E6.32281
G1 X94.044 Y82.674 E6.33112
G1 X94.817 Y82.754 E6.36731
G1 X95.003 Y82.779 E6.37605
G1 X95.772 Y82.899 E6.41229
G1 X95.955 Y82.932 E6.42095
G1 X96.697 Y83.087 E6.45624
G1 X96.885 Y83.131 E6.46523
G1 X97.636 Y83.33 E6.50141
G1 X97.811 Y83.381 E6.5099
G1 X98.544 Y83.615 E6.54573
G1 X98.722 Y83.677 E6.5545
G1 X99.456 Y83.954 E6.59103
G1 X99.631 Y84.026 E6.59985
G1 X100.33 Y84.332 E6.63538
G1 X100.505 Y84.414 E6.64438
G1 X101.191 Y84.759 E6.68013
G1 X101.35 Y84.844 E6.68853
G1 X102.033 Y85.231 E6.72508
G1 X102.192 Y85.326 E6.7337
G1 X102.837 Y85.736 E6.76929
G1 X102.998 Y85.845 E6.77835
G1 X103.623 Y86.291 E6.8141
G1 X103.77 Y86.401 E6.82265
G1 X104.387 Y86.89 E6.85931
G1 X104.523 Y87.004 E6.86757
G1 X105.092 Y87.502 E6.90278
G1 X105.243 Y87.641 E6.91234
G1 X105.795 Y88.182 E6.94833
G1 X105.921 Y88.312 E6.95676
G1 X106.455 Y88.89 E6.9934
G1 X106.575 Y89.027 E7.00188
G1 X107.061 Y89.609 E7.03719
G1 X107.183 Y89.763 E7.04633
G1 X107.653 Y90.392 E7.0829
G1 X107.758 Y90.541 E7.09138
G1 X108.182 Y91.172 E7.12678
G1 X108.281 Y91.327 E7.13535
G1 X108.686 Y92.001 E7.17196
G1 X108.782 Y92.172 E7.18109
G1 X109.137 Y92.842 E7.2164
G1 X109.218 Y93.004 E7.22483
G1 X109.551 Y93.716 E7.26143
G1 X109.627 Y93.89 E7.27028
G1 X109.912 Y94.593 E7.3056
G1 X109.977 Y94.764 E7.31412
G1 X110.235 Y95.505 E7.35065
G1 X110.293 Y95.687 E7.35955
G1 X110.505 Y96.417 E7.39494
G1 X110.552 Y96.599 E7.4037
G1 X110.732 Y97.365 E7.44034
G1 X110.771 Y97.551 E7.44918
G1 X110.906 Y98.299 E7.48458
G1 X110.934 Y98.478 E7.49301
G1 X111.035 Y99.257 E7.52959
G1 X111.054 Y99.446 E7.53844
G1 X111.112 Y100.2 E7.57365
G1 X111.122 Y100.39 E7.58251
G1 X111.141 Y101.163 E7.61851
G1 X111.141 Y101.35 E7.62722
G1 X111.12 Y102.128 E7.66346
G1 X111.11 Y102.311 E7.67199
G1 X111.051 Y103.074 E7.70763
G1 X111.032 Y103.26 E7.71634
G1 X110.931 Y104.041 E7.753
G1 X110.9 Y104.235 E7.76215
G1 X110.762 Y104.982 E7.79752
G1 X110.726 Y105.156 E7.8058
G1 X110.549 Y105.907 E7.84173
G1 X110.5 Y106.092 E7.85064
G1 X110.28 Y106.846 E7.88721
G1 X110.224 Y107.022 E7.89581
G1 X109.975 Y107.738 E7.93111
G1 X109.908 Y107.915 E7.93992
G1 X109.616 Y108.632 E7.97597
G1 X109.54 Y108.805 E7.98477
G1 X109.206 Y109.517 E8.02139
G1 X109.124 Y109.682 E8.02997
G1 X108.763 Y110.36 E8.06574
G1 X108.669 Y110.526 E8.07462
G1 X108.276 Y111.179 E8.11011
G1 X108.173 Y111.34 E8.11901
G1 X107.735 Y111.988 E8.15543
G1 X107.632 Y112.133 E8.16371
G1 X107.168 Y112.752 E8.19973
G1 X107.047 Y112.904 E8.20878
G1 X106.551 Y113.497 E8.24478
G1 X106.429 Y113.636 E8.25339
G1 X105.913 Y114.193 E8.28874
G1 X105.779 Y114.33 E8.29767
G1 X105.217 Y114.876 E8.33415
G1 X105.082 Y115.001 E8.34272
G1 X104.51 Y115.503 E8.37816
G1 X104.368 Y115.621 E8.38675
G1 X103.75 Y116.11 E8.42345
G1 X103.594 Y116.227 E8.43253
G1 X102.968 Y116.67 E8.46824
G1 X102.823 Y116.767 E8.47636
G1 X102.179 Y117.178 E8.51194
G1 X102.006 Y117.282 E8.52134
G1 X101.32 Y117.668 E8.55799
G1 X101.165 Y117.751 E8.56618
G1 X100.488 Y118.09 E8.60143
G1 X100.315 Y118.171 E8.61033
G1 X99.594 Y118.486 E8.64696
G1 X99.414 Y118.559 E8.65601
G1 X98.704 Y118.825 E8.69131
G1 X98.533 Y118.884 E8.69973
G1 X97.79 Y119.121 E8.73605
G1 X97.611 Y119.173 E8.74473
G1 X96.867 Y119.369 E8.78055
G1 X96.679 Y119.413 E8.78955
G1 X95.927 Y119.569 E8.82531
G1 X95.749 Y119.602 E8.83374
G1 X94.979 Y119.722 E8.87002
G1 X94.781 Y119.747 E8.87932
G1 X94.012 Y119.824 E8.9153
G1 X93.842 Y119.837 E8.92324
G1 X93.069 Y119.878 E8.95929
G1 X92.876 Y119.883 E8.96828
G1 X92.112 Y119.883 E9.00385
G1 X91.915 Y119.878 E9.01303
G1 X91.139 Y119.836 E9.04922
G1 X90.965 Y119.822 E9.05734
G1 X90.194 Y119.743 E9.09343
G1 X90 Y119.718 E9.10254
G1 X89.23 Y119.597 E9.13884
G1 X89.053 Y119.564 E9.14722
G1 X88.309 Y119.409 E9.18261
G1 X88.119 Y119.365 E9.19169
G1 X87.368 Y119.166 E9.22786
G1 X87.19 Y119.114 E9.2365
G1 X86.456 Y118.879 E9.27239
G1 X86.281 Y118.818 E9.28102
G1 X85.56 Y118.546 E9.3169
G1 X85.387 Y118.475 E9.32561
G1 X84.669 Y118.161 E9.3621
G1 X84.491 Y118.078 E9.37124
G1 X83.813 Y117.737 E9.40658
G1 X83.655 Y117.652 E9.41493
G1 X82.97 Y117.264 E9.45159
G1 X82.806 Y117.166 E9.46049
G1 X82.157 Y116.752 E9.49633
G1 X82.009 Y116.652 E9.50465
G1 X81.383 Y116.208 E9.54039
G1 X81.223 Y116.088 E9.5497
G1 X80.622 Y115.61 E9.58546
G1 X80.486 Y115.496 E9.59372
G1 X79.904 Y114.985 E9.62978
G1 X79.76 Y114.852 E9.63891
G1 X79.202 Y114.306 E9.67526
G1 X79.08 Y114.181 E9.6834
G1 X78.561 Y113.622 E9.71892
G1 X78.428 Y113.47 E9.72832
G1 X77.935 Y112.876 E9.76427
G1 X77.821 Y112.731 E9.77285
G1 X77.352 Y112.104 E9.80931
G1 X77.248 Y111.957 E9.8177
G1 X76.823 Y111.326 E9.85312
G1 X76.72 Y111.164 E9.86206
G1 X76.316 Y110.49 E9.89865
G1 X76.222 Y110.323 E9.90758
G1 X75.868 Y109.655 E9.94278
G1 X75.786 Y109.491 E9.95132
G1 X75.453 Y108.778 E9.98796
G1 X75.377 Y108.604 E9.9968
G1 X75.092 Y107.9 E10.03217
G1 X75.028 Y107.731 E10.04058
G1 X74.77 Y106.99 E10.07712
G1 X74.712 Y106.807 E10.08606
G1 X74.5 Y106.076 E10.1215
G1 X74.453 Y105.897 E10.13012
G1 X74.273 Y105.133 E10.16666
G1 X74.234 Y104.945 E10.1756
G1 X74.099 Y104.197 E10.211
G1 X74.071 Y104.017 E10.21948
G1 X73.97 Y103.236 E10.25615
G1 X73.951 Y103.049 E10.2649
G1 X73.893 Y102.296 E10.30007
G1 X73.883 Y102.11 E10.30874
G1 X73.863 Y101.339 E10.34465
G1 X73.863 Y101.143 E10.35378
G1 X73.885 Y100.356 E10.39044
G1 X73.895 Y100.174 E10.39893
G1 X73.954 Y99.419 E10.43419
G1 X73.973 Y99.236 E10.44276
G1 X74.074 Y98.455 E10.47943
G1 X74.105 Y98.261 E10.48858
G1 X74.243 Y97.514 E10.52395
G1 X74.279 Y97.34 E10.53222
G1 X74.456 Y96.589 E10.56815
G1 X74.505 Y96.404 E10.57706
G1 X74.725 Y95.65 E10.61364
G1 X74.781 Y95.474 E10.62224
G1 X75.03 Y94.758 E10.65753
G1 X75.095 Y94.585 E10.66614
G1 X75.386 Y93.868 E10.70217
G1 X75.465 Y93.689 E10.71128
G1 X75.793 Y92.991 E10.74719
G1 X75.873 Y92.83 E10.75556
G1 X76.242 Y92.136 E10.79216
G1 X76.339 Y91.965 E10.80132
G1 X76.739 Y91.302 E10.83737
G1 X76.84 Y91.144 E10.84611
G1 X77.265 Y90.515 E10.88145
G1 X77.369 Y90.369 E10.8898
G1 X77.84 Y89.741 E10.92635
G1 X77.958 Y89.592 E10.9352
G1 X78.443 Y89.011 E10.97044
G1 X78.568 Y88.869 E10.97925
G1 X79.103 Y88.292 E11.01589
G1 X79.236 Y88.156 E11.02475
G1 X79.79 Y87.618 E11.06071
G1 X79.928 Y87.491 E11.06944
M204 S3000
M205 X10 Y10
G0 F3000 X80.297 Y87.912
M204 S1800
M205 X8 Y8
G1 F2400 X80.868 Y87.412 E11.10478
G1 X80.986 Y87.313 E11.11196
G1 X81.603 Y86.825 E11.14859
G1 X81.729 Y86.731 E11.15591
G1 X82.355 Y86.286 E11.19167
G1 X82.49 Y86.196 E11.19922
G1 X83.136 Y85.786 E11.23485
G1 X83.271 Y85.705 E11.24218
G1 X83.947 Y85.323 E11.27834
G1 X84.086 Y85.248 E11.28569
G1 X84.785 Y84.899 E11.32207
G1 X84.924 Y84.834 E11.32922
G1 X85.617 Y84.53 E11.36445
G1 X85.774 Y84.466 E11.37235
G1 X86.498 Y84.195 E11.40835
G1 X86.643 Y84.145 E11.41549
G1 X87.387 Y83.908 E11.45185
G1 X87.541 Y83.864 E11.4593
G1 X88.293 Y83.667 E11.4955
G1 X88.445 Y83.631 E11.50278
G1 X89.188 Y83.476 E11.53812
G1 X89.342 Y83.448 E11.54541
G1 X90.111 Y83.328 E11.58165
G1 X90.28 Y83.306 E11.58958
G1 X91.05 Y83.229 E11.62562
G1 X91.193 Y83.218 E11.6323
G1 X91.966 Y83.177 E11.66834
G1 X92.129 Y83.173 E11.67593
G1 X92.893 Y83.173 E11.71151
G1 X93.059 Y83.178 E11.71924
G1 X93.835 Y83.22 E11.75543
G1 X93.986 Y83.231 E11.76248
G1 X94.759 Y83.311 E11.79866
G1 X94.917 Y83.332 E11.80609
G1 X95.686 Y83.452 E11.84233
G1 X95.841 Y83.48 E11.84966
