;FLAVOR:Marlin
;TIME:2626
;Filament used: 2.77689m
;Layer height: 0.2
;MINX:91.05
;MINY:58.05
;MINZ:0.2
;MAXX:118.95
;MAXY:151.95
;MAXZ:9
;Generated with Cura_SteamEngine 4.7.1
M140 S60
M105
M190 S60
M104 S200
M105
M109 S200
M82 ;absolute extrusion mode
G21 ;metric values
G90 ;absolute positioning
M82 ;set extruder to absolute mode
M107 ;start with the fan off
G28 X0 Y0 ;move X/Y to min endstops
G28 Z0 ;move Z to min endstops
G1 Z15.0 F100 ;move the platform down 15mm
G92 E0 ;zero the extruded length
G1 F200 E3 ;extrude 3mm of feed stock
G92 E0 ;zero the extruded length again
G1 F100
G0 Y20 F100
M117 Printing...
G5
G92 E0
G92 E0
G1 F2400 E-6
;LAYER_COUNT:45
;LAYER:0
M106 S255
M204 S3000
M205 X10 Y10
G1 F600 Z0.275
G0 F3000 X99.174 Y60.211 Z0.275
M204 S1800
M205 X8 Y8
;TYPE:SKIRT
G1 F600 Z0.2
G1 F2400 E0
G1 X99.511 Y59.74 E0.02697
G1 X99.944 Y59.28 E0.05638
G1 X100.381 Y58.9 E0.08335
G1 X100.866 Y58.583 E0.11033
G1 X101.39 Y58.336 E0.1373
G1 X101.943 Y58.164 E0.16427
G1 X102.515 Y58.069 E0.19127
G1 X102.914 Y58.05 E0.20987
G1 X114.586 Y58.05 E0.75337
G1 X115.164 Y58.09 E0.78035
G1 X115.731 Y58.209 E0.80732
G1 X116.276 Y58.405 E0.83429
G1 X116.789 Y58.674 E0.86126
G1 X117.26 Y59.011 E0.88823
G1 X117.72 Y59.444 E0.91765
G1 X118.1 Y59.881 E0.94461
G1 X118.417 Y60.366 E0.97159
G1 X118.664 Y60.89 E0.99857
G1 X118.836 Y61.443 E1.02553
G1 X118.931 Y62.015 E1.05253
G1 X118.95 Y62.414 E1.07113
G1 X118.95 Y147.586 E5.0371
G1 X118.91 Y148.164 E5.06408
G1 X118.791 Y148.731 E5.09105
G1 X118.595 Y149.276 E5.11802
G1 X118.326 Y149.789 E5.145
G1 X117.989 Y150.26 E5.17196
G1 X117.556 Y150.72 E5.20138
G1 X117.119 Y151.1 E5.22835
G1 X116.634 Y151.417 E5.25532
G1 X116.11 Y151.664 E5.2823
G1 X115.557 Y151.836 E5.30927
G1 X114.985 Y151.931 E5.33627
G1 X114.586 Y151.95 E5.35487
G1 X95.414 Y151.95 E6.24759
G1 X94.836 Y151.91 E6.27457
G1 X94.269 Y151.791 E6.30155
G1 X93.724 Y151.595 E6.32852
G1 X93.211 Y151.326 E6.35549
G1 X92.74 Y150.989 E6.38246
G1 X92.28 Y150.556 E6.41187
G1 X91.9 Y150.119 E6.43884
G1 X91.583 Y149.634 E6.46582
G1 X91.336 Y149.11 E6.49279
G1 X91.164 Y148.557 E6.51976
G1 X91.069 Y147.985 E6.54676
G1 X91.05 Y147.586 E6.56536
G1 X91.05 Y141.914 E6.82947
G1 X91.09 Y141.336 E6.85645
G1 X91.209 Y140.769 E6.88343
G1 X91.405 Y140.224 E6.9104
G1 X91.674 Y139.711 E6.93737
G1 X92.011 Y139.24 E6.96434
G1 X92.444 Y138.78 E6.99375
G1 X92.478 Y138.751 E6.99583
G1 X92.28 Y138.556 E7.00877
G1 X91.9 Y138.119 E7.03574
G1 X91.583 Y137.634 E7.06272
G1 X91.336 Y137.11 E7.08969
G1 X91.164 Y136.557 E7.11666
G1 X91.069 Y135.985 E7.14366
G1 X91.05 Y135.586 E7.16226
G1 X91.05 Y129.914 E7.42637
G1 X91.09 Y129.336 E7.45335
G1 X91.209 Y128.769 E7.48033
G1 X91.405 Y128.224 E7.5073
G1 X91.674 Y127.711 E7.53427
G1 X92.011 Y127.24 E7.56124
G1 X92.444 Y126.78 E7.59065
G1 X92.478 Y126.751 E7.59273
G1 X92.28 Y126.556 E7.60567
G1 X91.9 Y126.119 E7.63264
G1 X91.583 Y125.634 E7.65962
G1 X91.336 Y125.11 E7.68659
G1 X91.164 Y124.557 E7.71356
G1 X91.069 Y123.985 E7.74056
G1 X91.05 Y123.586 E7.75916
G1 X91.05 Y117.914 E8.02327
G1 X91.09 Y117.336 E8.05025
G1 X91.209 Y116.769 E8.07723
G1 X91.405 Y116.224 E8.1042
G1 X91.674 Y115.711 E8.13117
G1 X92.011 Y115.24 E8.15814
G1 X92.444 Y114.78 E8.18755
G1 X92.478 Y114.751 E8.18963
G1 X92.28 Y114.556 E8.20257
G1 X91.9 Y114.119 E8.22954
G1 X91.583 Y113.634 E8.25652
G1 X91.336 Y113.11 E8.28349
G1 X91.164 Y112.557 E8.31046
G1 X91.069 Y111.985 E8.33746
G1 X91.05 Y111.586 E8.35606
G1 X91.05 Y105.914 E8.62017
G1 X91.09 Y105.336 E8.64715
G1 X91.209 Y104.769 E8.67413
G1 X91.405 Y104.224 E8.7011
G1 X91.674 Y103.711 E8.72807
G1 X92.011 Y103.24 E8.75504
G1 X92.444 Y102.78 E8.78445
G1 X92.881 Y102.4 E8.81142
G1 X93.366 Y102.083 E8.8384
G1 X93.89 Y101.836 E8.86537
G1 X94.443 Y101.664 E8.89234
G1 X95.015 Y101.569 E8.91934
G1 X95.414 Y101.55 E8.93794
G1 X98.55 Y101.55 E9.08397
G1 X98.55 Y62.414 E10.9063
G1 X98.59 Y61.836 E10.93328
G1 X98.709 Y61.269 E10.96026
G1 X98.905 Y60.724 E10.98723
G1 X99.174 Y60.211 E11.0142
M204 S3000
M205 X10 Y10
G0 F3000 X99.732 Y60.379
M204 S1800
M205 X8 Y8
G1 F2400 X100.176 Y59.84 E11.04671
G1 X100.34 Y59.676 E11.05751
G1 X100.749 Y59.324 E11.08264
G1 X101.205 Y59.036 E11.10775
G1 X101.698 Y58.819 E11.13284
G1 X102.218 Y58.677 E11.15794
G1 X102.914 Y58.61 E11.19049
G1 X114.586 Y58.61 E11.73399
G1 X115.124 Y58.65 E11.75911
G1 X115.65 Y58.769 E11.78422
G1 X116.152 Y58.964 E11.8093
G1 X116.621 Y59.232 E11.83445
G1 X117.16 Y59.676 E11.86697
G1 X117.324 Y59.84 E11.87777
G1 X117.676 Y60.249 E11.9029
G1 X117.964 Y60.705 E11.92801
G1 X118.181 Y61.198 E11.95309
G1 X118.323 Y61.718 E11.97819
G1 X118.39 Y62.414 E12.01075
G1 X118.39 Y147.586 E15.97672
G1 X118.35 Y148.124 E16.00184
G1 X118.231 Y148.65 E16.02695
G1 X118.036 Y149.152 E16.05203
G1 X117.768 Y149.621 E16.07718
G1 X117.324 Y150.16 E16.10969
G1 X117.16 Y150.324 E16.12049
G1 X116.751 Y150.676 E16.14562
G1 X116.295 Y150.964 E16.17073
G1 X115.802 Y151.181 E16.19582
G1 X115.282 Y151.323 E16.22092
G1 X114.586 Y151.39 E16.25347
G1 X95.414 Y151.39 E17.1462
G1 X94.876 Y151.35 E17.17132
G1 X94.35 Y151.231 E17.19644
G1 X93.848 Y151.036 E17.22151
G1 X93.379 Y150.768 E17.24667
G1 X92.84 Y150.324 E17.27918
G1 X92.676 Y150.16 E17.28998
G1 X92.324 Y149.751 E17.31511
G1 X92.036 Y149.295 E17.34022
G1 X91.819 Y148.802 E17.3653
G1 X91.677 Y148.282 E17.3904
G1 X91.61 Y147.586 E17.42296
G1 X91.61 Y141.914 E17.68707
G1 X91.65 Y141.376 E17.7122
G1 X91.769 Y140.85 E17.73731
G1 X91.964 Y140.348 E17.76238
G1 X92.232 Y139.879 E17.78754
G1 X92.676 Y139.34 E17.82005
G1 X92.84 Y139.176 E17.83085
G1 X93.249 Y138.824 E17.85598
G1 X93.361 Y138.753 E17.86215
G1 X92.84 Y138.324 E17.89358
G1 X92.676 Y138.16 E17.90438
G1 X92.324 Y137.751 E17.92951
G1 X92.036 Y137.295 E17.95462
G1 X91.819 Y136.802 E17.9797
G1 X91.677 Y136.282 E18.0048
G1 X91.61 Y135.586 E18.03736
G1 X91.61 Y129.914 E18.30147
G1 X91.65 Y129.376 E18.32659
G1 X91.769 Y128.85 E18.3517
G1 X91.964 Y128.348 E18.37678
G1 X92.232 Y127.879 E18.40193
G1 X92.676 Y127.34 E18.43445
G1 X92.84 Y127.176 E18.44525
G1 X93.249 Y126.824 E18.47038
G1 X93.361 Y126.753 E18.47655
G1 X92.84 Y126.324 E18.50798
G1 X92.676 Y126.16 E18.51878
G1 X92.324 Y125.751 E18.5439
G1 X92.036 Y125.295 E18.56902
G1 X91.819 Y124.802 E18.5941
G1 X91.677 Y124.282 E18.6192
G1 X91.61 Y123.586 E18.65176
G1 X91.61 Y117.914 E18.91587
G1 X91.65 Y117.376 E18.94099
G1 X91.769 Y116.85 E18.9661
G1 X91.964 Y116.348 E18.99118
G1 X92.232 Y115.879 E19.01633
G1 X92.676 Y115.34 E19.04885
G1 X92.84 Y115.176 E19.05965
G1 X93.249 Y114.824 E19.08478
G1 X93.361 Y114.753 E19.09095
G1 X92.84 Y114.324 E19.12238
G1 X92.676 Y114.16 E19.13318
G1 X92.324 Y113.751 E19.1583
G1 X92.036 Y113.295 E19.18342
G1 X91.819 Y112.802 E19.2085
G1 X91.677 Y112.282 E19.2336
G1 X91.61 Y111.586 E19.26616
G1 X91.61 Y105.914 E19.53027
G1 X91.65 Y105.376 E19.55539
G1 X91.769 Y104.85 E19.5805
G1 X91.964 Y104.348 E19.60558
G1 X92.232 Y103.879 E19.63073
G1 X92.676 Y103.34 E19.66325
G1 X92.84 Y103.176 E19.67405
G1 X93.249 Y102.824 E19.69917
G1 X93.705 Y102.536 E19.72429
G1 X94.198 Y102.319 E19.74937
G1 X94.718 Y102.177 E19.77447
G1 X95.414 Y102.11 E19.80703
G1 X99.11 Y102.11 E19.97913
G1 X99.11 Y62.414 E21.82754
G1 X99.15 Y61.876 E21.85266
G1 X99.269 Y61.35 E21.87777
G1 X99.464 Y60.848 E21.90285
G1 X99.732 Y60.379 E21.928
M204 S3000
M205 X10 Y10
G0 F3000 X100.023 Y60.982
M204 S1800
M205 X8 Y8
G1 F2400 X100.288 Y60.563 E21.95109
G1 X100.736 Y60.072 E21.98204
G1 X101.114 Y59.751 E22.00513
G1 X101.538 Y59.494 E22.02822
G1 X101.999 Y59.309 E22.05135
G1 X102.482 Y59.2 E22.0744
G1 X102.914 Y59.17 E22.09457
G1 X114.586 Y59.17 E22.63806
G1 X115.08 Y59.21 E22.66114
G1 X115.562 Y59.329 E22.68426
G1 X116.018 Y59.523 E22.70733
G1 X116.437 Y59.788 E22.73042
G1 X116.928 Y60.236 E22.76137
G1 X117.249 Y60.614 E22.78446
G1 X117.506 Y61.038 E22.80755
G1 X117.691 Y61.499 E22.83068
G1 X117.8 Y61.982 E22.85373
G1 X117.83 Y62.414 E22.8739
G1 X117.83 Y147.586 E26.83986
G1 X117.79 Y148.08 E26.86294
G1 X117.671 Y148.562 E26.88606
G1 X117.477 Y149.018 E26.90913
G1 X117.212 Y149.437 E26.93222
G1 X116.764 Y149.928 E26.96317
G1 X116.386 Y150.249 E26.98626
G1 X115.962 Y150.506 E27.00935
G1 X115.501 Y150.691 E27.03248
G1 X115.018 Y150.8 E27.05553
G1 X114.586 Y150.83 E27.0757
G1 X95.414 Y150.83 E27.96843
G1 X94.92 Y150.79 E27.9915
G1 X94.438 Y150.671 E28.01462
G1 X93.982 Y150.477 E28.0377
G1 X93.563 Y150.212 E28.06078
G1 X93.072 Y149.764 E28.09173
G1 X92.751 Y149.386 E28.11482
G1 X92.494 Y148.962 E28.13791
G1 X92.309 Y148.501 E28.16104
G1 X92.2 Y148.018 E28.1841
G1 X92.17 Y147.586 E28.20426
G1 X92.17 Y141.914 E28.46837
G1 X92.21 Y141.42 E28.49145
G1 X92.329 Y140.938 E28.51457
G1 X92.523 Y140.482 E28.53764
G1 X92.788 Y140.063 E28.56073
G1 X93.236 Y139.572 E28.59168
G1 X93.614 Y139.251 E28.61477
G1 X94.038 Y138.994 E28.63786
G1 X94.499 Y138.809 E28.66099
G1 X94.759 Y138.75 E28.6734
G1 X94.438 Y138.671 E28.68879
G1 X93.982 Y138.477 E28.71187
G1 X93.563 Y138.212 E28.73495
G1 X93.072 Y137.764 E28.7659
G1 X92.751 Y137.386 E28.789
G1 X92.494 Y136.962 E28.81208
G1 X92.309 Y136.501 E28.83521
G1 X92.2 Y136.018 E28.85827
G1 X92.17 Y135.586 E28.87843
G1 X92.17 Y129.914 E29.14254
G1 X92.21 Y129.42 E29.16562
G1 X92.329 Y128.938 E29.18874
G1 X92.523 Y128.482 E29.21182
G1 X92.788 Y128.063 E29.2349
G1 X93.236 Y127.572 E29.26585
G1 X93.614 Y127.251 E29.28894
G1 X94.038 Y126.994 E29.31203
G1 X94.499 Y126.809 E29.33516
G1 X94.759 Y126.75 E29.34757
G1 X94.438 Y126.671 E29.36297
G1 X93.982 Y126.477 E29.38604
G1 X93.563 Y126.212 E29.40913
G1 X93.072 Y125.764 E29.44008
G1 X92.751 Y125.386 E29.46317
G1 X92.494 Y124.962 E29.48625
G1 X92.309 Y124.501 E29.50939
G1 X92.2 Y124.018 E29.53244
G1 X92.17 Y123.586 E29.55261
G1 X92.17 Y117.914 E29.81672
G1 X92.21 Y117.42 E29.8398
G1 X92.329 Y116.938 E29.86291
G1 X92.523 Y116.482 E29.88599
G1 X92.788 Y116.063 E29.90907
G1 X93.236 Y115.572 E29.94002
G1 X93.614 Y115.251 E29.96311
G1 X94.038 Y114.994 E29.9862
G1 X94.499 Y114.809 E30.00933
G1 X94.759 Y114.75 E30.02175
G1 X94.438 Y114.671 E30.03714
G1 X93.982 Y114.477 E30.06021
G1 X93.563 Y114.212 E30.0833
G1 X93.072 Y113.764 E30.11425
G1 X92.751 Y113.386 E30.13734
G1 X92.494 Y112.962 E30.16043
G1 X92.309 Y112.501 E30.18356
G1 X92.2 Y112.018 E30.20661
G1 X92.17 Y111.586 E30.22678
G1 X92.17 Y105.914 E30.49089
G1 X92.21 Y105.42 E30.51397
G1 X92.329 Y104.938 E30.53709
G1 X92.523 Y104.482 E30.56016
G1 X92.788 Y104.063 E30.58325
G1 X93.236 Y103.572 E30.6142
G1 X93.614 Y103.251 E30.63729
G1 X94.038 Y102.994 E30.66037
G1 X94.499 Y102.809 E30.6835
G1 X94.982 Y102.7 E30.70656
G1 X95.414 Y102.67 E30.72672
G1 X99.67 Y102.67 E30.9249
G1 X99.67 Y62.414 E32.79939
G1 X99.71 Y61.92 E32.82247
G1 X99.829 Y61.438 E32.84559
G1 X100.023 Y60.982 E32.86866
M204 S3000
M205 X10 Y10
G0 F3000 X100.582 Y61.13
M204 S1800
M205 X8 Y8
G1 F2400 X100.968 Y60.632 E32.898
G1 X101.476 Y60.18 E32.92966
G1 X101.866 Y59.958 E32.95056
G1 X102.289 Y59.809 E32.97144
G1 X102.914 Y59.73 E33.00078
G1 X114.586 Y59.73 E33.54427
G1 X115.033 Y59.77 E33.56517
G1 X115.465 Y59.888 E33.58602
G1 X115.87 Y60.082 E33.60693
G1 X116.368 Y60.468 E33.63627
G1 X116.82 Y60.976 E33.66793
G1 X117.042 Y61.366 E33.68883
G1 X117.191 Y61.789 E33.70971
G1 X117.27 Y62.414 E33.73905
G1 X117.27 Y147.586 E37.70501
G1 X117.23 Y148.033 E37.72591
G1 X117.112 Y148.465 E37.74676
G1 X116.918 Y148.87 E37.76767
G1 X116.532 Y149.368 E37.79701
G1 X116.024 Y149.82 E37.82867
G1 X115.634 Y150.042 E37.84957
G1 X115.211 Y150.191 E37.87045
G1 X114.586 Y150.27 E37.89979
G1 X95.414 Y150.27 E38.79252
G1 X94.967 Y150.23 E38.81341
G1 X94.535 Y150.112 E38.83427
G1 X94.13 Y149.918 E38.85518
G1 X93.632 Y149.532 E38.88452
G1 X93.18 Y149.024 E38.91618
G1 X92.958 Y148.634 E38.93707
G1 X92.809 Y148.211 E38.95796
G1 X92.73 Y147.586 E38.98729
G1 X92.73 Y141.914 E39.2514
G1 X92.77 Y141.467 E39.2723
G1 X92.888 Y141.035 E39.29315
G1 X93.082 Y140.63 E39.31406
G1 X93.468 Y140.132 E39.3434
G1 X93.976 Y139.68 E39.37507
G1 X94.366 Y139.458 E39.39596
G1 X94.789 Y139.309 E39.41684
G1 X95.414 Y139.23 E39.44618
G1 X106.23 Y139.23 E39.94982
G1 X106.23 Y138.27 E39.99452
G1 X95.414 Y138.27 E40.49816
G1 X94.967 Y138.23 E40.51905
G1 X94.535 Y138.112 E40.53991
G1 X94.13 Y137.918 E40.56082
G1 X93.632 Y137.532 E40.59016
G1 X93.18 Y137.024 E40.62182
G1 X92.958 Y136.634 E40.64272
G1 X92.809 Y136.211 E40.6636
G1 X92.73 Y135.586 E40.69293
G1 X92.73 Y129.914 E40.95704
G1 X92.77 Y129.467 E40.97794
G1 X92.888 Y129.035 E40.99879
G1 X93.082 Y128.63 E41.01971
G1 X93.468 Y128.132 E41.04904
G1 X93.976 Y127.68 E41.08071
G1 X94.366 Y127.458 E41.1016
G1 X94.789 Y127.309 E41.12249
G1 X95.414 Y127.23 E41.15182
G1 X106.23 Y127.23 E41.65546
G1 X106.23 Y126.27 E41.70016
G1 X95.414 Y126.27 E42.2038
G1 X94.967 Y126.23 E42.2247
G1 X94.535 Y126.112 E42.24555
G1 X94.13 Y125.918 E42.26646
G1 X93.632 Y125.532 E42.2958
G1 X93.18 Y125.024 E42.32746
G1 X92.958 Y124.634 E42.34836
G1 X92.809 Y124.211 E42.36924
G1 X92.73 Y123.586 E42.39857
G1 X92.73 Y117.914 E42.66269
G1 X92.77 Y117.467 E42.68358
G1 X92.888 Y117.035 E42.70444
G1 X93.082 Y116.63 E42.72535
G1 X93.468 Y116.132 E42.75468
G1 X93.976 Y115.68 E42.78635
G1 X94.366 Y115.458 E42.80724
G1 X94.789 Y115.309 E42.82813
G1 X95.414 Y115.23 E42.85746
G1 X106.23 Y115.23 E43.3611
G1 X106.23 Y114.27 E43.4058
G1 X95.414 Y114.27 E43.90944
G1 X94.967 Y114.23 E43.93034
G1 X94.535 Y114.112 E43.95119
G1 X94.13 Y113.918 E43.9721
G1 X93.632 Y113.532 E44.00144
G1 X93.18 Y113.024 E44.0331
G1 X92.958 Y112.634 E44.054
G1 X92.809 Y112.211 E44.07488
G1 X92.73 Y111.586 E44.10421
G1 X92.73 Y105.914 E44.36833
G1 X92.77 Y105.467 E44.38922
G1 X92.888 Y105.035 E44.41008
G1 X93.082 Y104.63 E44.43099
G1 X93.468 Y104.132 E44.46033
G1 X93.976 Y103.68 E44.49199
G1 X94.366 Y103.458 E44.51288
G1 X94.789 Y103.309 E44.53377
G1 X95.414 Y103.23 E44.5631
G1 X100.23 Y103.23 E44.78735
G1 X100.23 Y62.414 E46.68792
G1 X100.27 Y61.967 E46.70882
G1 X100.388 Y61.535 E46.72967
G1 X100.582 Y61.13 E46.75058
M204 S3000
M205 X10 Y10
G0 F3000 X101.139 Y61.297
M204 S1800
M205 X8 Y8
G1 F2400 X101.528 Y60.864 E46.77768
G1 X101.834 Y60.614 E46.79608
G1 X102.185 Y60.431 E46.81451
G1 X102.565 Y60.321 E46.83293
G1 X102.914 Y60.29 E46.84925
G1 X114.586 Y60.29 E47.39275
G1 X114.979 Y60.33 E47.41114
G1 X115.357 Y60.448 E47.42958
G1 X115.703 Y60.639 E47.44798
G1 X116.136 Y61.028 E47.47509
G1 X116.386 Y61.334 E47.49349
G1 X116.569 Y61.685 E47.51192
G1 X116.679 Y62.065 E47.53034
G1 X116.71 Y62.414 E47.54665
G1 X116.71 Y147.586 E51.51262
G1 X116.67 Y147.979 E51.53101
G1 X116.552 Y148.357 E51.54945
G1 X116.361 Y148.703 E51.56786
G1 X115.972 Y149.136 E51.59496
G1 X115.666 Y149.386 E51.61336
G1 X115.315 Y149.569 E51.63179
G1 X114.935 Y149.679 E51.65021
G1 X114.586 Y149.71 E51.66653
G1 X95.414 Y149.71 E52.55926
G1 X95.021 Y149.67 E52.57765
G1 X94.643 Y149.552 E52.59609
G1 X94.297 Y149.361 E52.61449
G1 X93.864 Y148.972 E52.6416
G1 X93.614 Y148.666 E52.65999
G1 X93.431 Y148.315 E52.67843
G1 X93.321 Y147.935 E52.69685
G1 X93.29 Y147.586 E52.71316
G1 X93.29 Y141.914 E52.97727
G1 X93.33 Y141.521 E52.99567
G1 X93.448 Y141.143 E53.01411
G1 X93.639 Y140.797 E53.03251
G1 X94.028 Y140.364 E53.05961
G1 X94.334 Y140.114 E53.07801
G1 X94.685 Y139.931 E53.09645
G1 X95.065 Y139.821 E53.11487
G1 X95.414 Y139.79 E53.13118
G1 X106.79 Y139.79 E53.6609
G1 X106.79 Y137.71 E53.75775
G1 X95.414 Y137.71 E54.28746
G1 X95.021 Y137.67 E54.30586
G1 X94.643 Y137.552 E54.3243
G1 X94.297 Y137.361 E54.3427
G1 X93.864 Y136.972 E54.3698
G1 X93.614 Y136.666 E54.3882
G1 X93.431 Y136.315 E54.40663
G1 X93.321 Y135.935 E54.42506
G1 X93.29 Y135.586 E54.44137
G1 X93.29 Y129.914 E54.70548
G1 X93.33 Y129.521 E54.72388
G1 X93.448 Y129.143 E54.74232
G1 X93.639 Y128.797 E54.76072
G1 X94.028 Y128.364 E54.78782
G1 X94.334 Y128.114 E54.80622
G1 X94.685 Y127.931 E54.82465
G1 X95.065 Y127.821 E54.84307
G1 X95.414 Y127.79 E54.85939
G1 X106.79 Y127.79 E55.3891
G1 X106.79 Y125.71 E55.48596
G1 X95.414 Y125.71 E56.01567
G1 X95.021 Y125.67 E56.03407
G1 X94.643 Y125.552 E56.0525
G1 X94.297 Y125.361 E56.07091
G1 X93.864 Y124.972 E56.09801
G1 X93.614 Y124.666 E56.11641
G1 X93.431 Y124.315 E56.13484
