;FLAVOR:Marlin
;TIME:9081
;Filament used: 8.46553m
;Layer height: 0.2
;MINX:40.73
;MINY:87.886
;MINZ:0.2
;MAXX:168.869
;MAXY:122.114
;MAXZ:30.2
;Generated with Cura_SteamEngine 4.7.1
M140 S60
M105
M190 S60
M104 S200
M105
M109 S200
M82 ;absolute extrusion mode
G21 ;metric values
G90 ;absolute positioning
M82 ;set extruder to absolute mode
M107 ;start with the fan off
G28 X0 Y0 ;move X/Y to min endstops
G28 Z0 ;move Z to min endstops
G1 Z15.0 F100 ;move the platform down 15mm
G92 E0 ;zero the extruded length
G1 F200 E3 ;extrude 3mm of feed stock
G92 E0 ;zero the extruded length again
G1 F100
G0 Y20 F100
M117 Printing...
G5
G92 E0
G92 E0
G1 F2400 E-6
;LAYER_COUNT:151
;LAYER:0
M106 S255
M204 S3000
M205 X10 Y10
G1 F600 Z0.275
G0 F3000 X42.999 Y88.419 Z0.275
M204 S1800
M205 X8 Y8
;TYPE:SKIRT
G1 F600 Z0.2
G1 F2400 E0
G1 X43.523 Y88.172 E0.02697
G1 X44.076 Y88 E0.05394
G1 X44.648 Y87.905 E0.08094
G1 X45.047 Y87.886 E0.09954
G1 X108.471 Y87.886 E3.05283
G1 X109.051 Y87.915 E3.07987
G1 X109.836 Y88.015 E3.11672
G1 X110.402 Y88.137 E3.14368
G1 X111.269 Y88.47 E3.18692
G1 X111.787 Y88.73 E3.21391
G1 X112.264 Y89.058 E3.24087
G1 X112.691 Y89.45 E3.26786
G1 X113.179 Y90.069 E3.30456
G1 X113.246 Y90.173 E3.31032
G1 X113.525 Y90.681 E3.33731
G1 X113.732 Y91.222 E3.36428
G1 X113.863 Y91.786 E3.39124
G1 X113.915 Y92.434 E3.42151
G1 X113.928 Y96.295 E3.6013
G1 X164.552 Y96.295 E5.95857
G1 X165.13 Y96.335 E5.98554
G1 X165.697 Y96.454 E6.01252
G1 X166.242 Y96.65 E6.03949
G1 X166.755 Y96.919 E6.06646
G1 X167.226 Y97.256 E6.09343
G1 X167.639 Y97.642 E6.11975
G1 X168.019 Y98.079 E6.14672
G1 X168.336 Y98.564 E6.1737
G1 X168.583 Y99.088 E6.20067
G1 X168.755 Y99.641 E6.22764
G1 X168.85 Y100.213 E6.25464
G1 X168.869 Y100.612 E6.27324
G1 X168.869 Y109.388 E6.68189
G1 X168.829 Y109.966 E6.70886
G1 X168.71 Y110.533 E6.73584
G1 X168.514 Y111.078 E6.76281
G1 X168.245 Y111.591 E6.78978
G1 X167.908 Y112.062 E6.81675
G1 X167.522 Y112.475 E6.84307
G1 X167.085 Y112.855 E6.87004
G1 X166.6 Y113.172 E6.89702
G1 X166.076 Y113.419 E6.92399
G1 X165.523 Y113.591 E6.95096
G1 X164.951 Y113.686 E6.97796
G1 X164.552 Y113.705 E6.99656
G1 X114.042 Y113.705 E9.34852
G1 X113.919 Y114.043 E9.36526
G1 X113.914 Y117.571 E9.52954
G1 X113.873 Y118.149 E9.55653
G1 X113.753 Y118.716 E9.58351
G1 X113.557 Y119.261 E9.61048
G1 X113.287 Y119.773 E9.63743
G1 X112.949 Y120.244 E9.66443
G1 X112.431 Y120.768 E9.69874
G1 X112.24 Y120.93 E9.7104
G1 X111.773 Y121.273 E9.73738
G1 X111.129 Y121.608 E9.77118
G1 X110.955 Y121.68 E9.77995
G1 X110.173 Y121.917 E9.818
G1 X109.723 Y122.007 E9.83937
G1 X108.983 Y122.088 E9.87403
G1 X107.656 Y122.114 E9.93583
G1 X45.047 Y122.114 E12.85117
G1 X44.469 Y122.074 E12.87815
G1 X43.902 Y121.955 E12.90513
G1 X43.357 Y121.759 E12.9321
G1 X42.844 Y121.49 E12.95907
G1 X42.373 Y121.153 E12.98603
G1 X41.96 Y120.767 E13.01236
G1 X41.58 Y120.33 E13.03932
G1 X41.263 Y119.845 E13.0663
G1 X41.016 Y119.321 E13.09328
G1 X40.844 Y118.768 E13.12024
G1 X40.749 Y118.196 E13.14724
G1 X40.73 Y117.797 E13.16584
G1 X40.73 Y92.203 E14.35761
G1 X40.77 Y91.625 E14.38459
G1 X40.889 Y91.058 E14.41156
G1 X41.085 Y90.513 E14.43853
G1 X41.354 Y90 E14.4655
G1 X41.691 Y89.529 E14.49247
G1 X42.077 Y89.116 E14.51879
G1 X42.514 Y88.736 E14.54576
G1 X42.999 Y88.419 E14.57274
M204 S3000
M205 X10 Y10
G0 F3000 X43.338 Y88.872
M204 S1800
M205 X8 Y8
G1 F2400 X43.831 Y88.655 E14.59782
G1 X44.351 Y88.513 E14.62292
G1 X45.047 Y88.446 E14.65548
G1 X108.471 Y88.446 E17.60877
G1 X109.015 Y88.474 E17.63413
G1 X109.756 Y88.569 E17.66892
G1 X110.283 Y88.685 E17.69405
G1 X111.053 Y88.986 E17.73254
G1 X111.534 Y89.231 E17.75768
G1 X111.973 Y89.543 E17.78276
G1 X112.361 Y89.918 E17.80788
G1 X112.708 Y90.373 E17.83453
G1 X112.775 Y90.477 E17.84029
G1 X113.033 Y90.95 E17.86538
G1 X113.217 Y91.457 E17.89049
G1 X113.325 Y91.985 E17.91559
G1 X113.355 Y92.436 E17.93663
G1 X113.368 Y96.293 E18.11623
G1 X113.367 Y96.855 E18.1424
G1 X164.552 Y96.855 E20.52579
G1 X165.09 Y96.895 E20.55091
G1 X165.616 Y97.014 E20.57602
G1 X166.118 Y97.209 E20.6011
G1 X166.587 Y97.477 E20.62625
G1 X167.126 Y97.921 E20.65877
G1 X167.243 Y98.038 E20.66647
G1 X167.595 Y98.447 E20.6916
G1 X167.883 Y98.903 E20.71671
G1 X168.1 Y99.396 E20.74179
G1 X168.242 Y99.916 E20.76689
G1 X168.309 Y100.612 E20.79945
G1 X168.309 Y109.388 E21.2081
G1 X168.269 Y109.926 E21.23322
G1 X168.15 Y110.452 E21.25833
G1 X167.955 Y110.954 E21.28341
G1 X167.687 Y111.423 E21.30856
G1 X167.243 Y111.962 E21.34108
G1 X167.126 Y112.079 E21.34878
G1 X166.717 Y112.431 E21.37391
G1 X166.261 Y112.719 E21.39902
G1 X165.768 Y112.936 E21.4241
G1 X165.248 Y113.078 E21.4492
G1 X164.552 Y113.145 E21.48176
G1 X113.607 Y113.145 E23.85398
G1 X113.524 Y113.506 E23.87122
G1 X113.359 Y113.926 E23.89224
G1 X113.354 Y117.57 E24.06192
G1 X113.313 Y118.108 E24.08704
G1 X113.194 Y118.634 E24.11215
G1 X112.997 Y119.136 E24.13726
G1 X112.729 Y119.604 E24.16237
G1 X112.395 Y120.027 E24.18747
G1 X111.877 Y120.503 E24.22023
G1 X111.442 Y120.82 E24.24529
G1 X110.915 Y121.09 E24.27286
G1 X110.741 Y121.162 E24.28163
G1 X110.063 Y121.368 E24.31463
G1 X109.613 Y121.458 E24.336
G1 X108.972 Y121.528 E24.36602
G1 X107.656 Y121.554 E24.42731
G1 X45.047 Y121.554 E27.34265
G1 X44.509 Y121.514 E27.36777
G1 X43.983 Y121.395 E27.39288
G1 X43.481 Y121.2 E27.41796
G1 X43.012 Y120.932 E27.44311
G1 X42.473 Y120.488 E27.47563
G1 X42.356 Y120.371 E27.48333
G1 X42.004 Y119.962 E27.50846
G1 X41.716 Y119.506 E27.53357
G1 X41.499 Y119.013 E27.55866
G1 X41.357 Y118.493 E27.58376
G1 X41.29 Y117.797 E27.61631
G1 X41.29 Y92.203 E28.80808
G1 X41.33 Y91.665 E28.8332
G1 X41.449 Y91.139 E28.85831
G1 X41.644 Y90.637 E28.88339
G1 X41.912 Y90.168 E28.90854
G1 X42.356 Y89.629 E28.94106
G1 X42.473 Y89.512 E28.94876
G1 X42.882 Y89.16 E28.97389
G1 X43.338 Y88.872 E28.999
M204 S3000
M205 X10 Y10
G0 F3000 X43.671 Y89.33
M204 S1800
M205 X8 Y8
G1 F2400 X44.132 Y89.145 E29.02213
G1 X44.615 Y89.036 E29.04519
G1 X45.047 Y89.006 E29.06535
G1 X108.471 Y89.006 E32.01864
G1 X108.979 Y89.032 E32.04232
G1 X109.676 Y89.123 E32.07506
G1 X110.426 Y89.331 E32.1113
G1 X111.278 Y89.73 E32.1551
G1 X111.676 Y90.026 E32.1782
G1 X112.022 Y90.382 E32.20132
G1 X112.304 Y90.78 E32.22403
G1 X112.538 Y91.217 E32.24711
G1 X112.699 Y91.686 E32.2702
G1 X112.795 Y92.438 E32.3055
G1 X112.808 Y96.292 E32.48496
G1 X112.806 Y97.399 E32.53651
G1 X112.971 Y97.415 E32.54423
G1 X164.552 Y97.415 E34.94605
G1 X165.046 Y97.455 E34.96913
G1 X165.528 Y97.574 E34.99225
G1 X165.984 Y97.768 E35.01533
G1 X166.403 Y98.033 E35.03841
G1 X166.847 Y98.434 E35.06627
G1 X167.168 Y98.812 E35.08936
G1 X167.425 Y99.236 E35.11245
G1 X167.61 Y99.697 E35.13558
G1 X167.719 Y100.18 E35.15863
G1 X167.749 Y100.612 E35.1788
G1 X167.749 Y109.388 E35.58744
G1 X167.709 Y109.882 E35.61052
G1 X167.59 Y110.364 E35.63364
G1 X167.396 Y110.82 E35.65672
G1 X167.131 Y111.239 E35.6798
G1 X166.73 Y111.683 E35.70766
G1 X166.352 Y112.004 E35.73075
G1 X165.928 Y112.261 E35.75384
G1 X165.467 Y112.446 E35.77697
G1 X164.984 Y112.555 E35.80002
G1 X164.552 Y112.585 E35.82019
G1 X113.115 Y112.585 E38.21531
G1 X113.085 Y112.935 E38.23167
G1 X112.965 Y113.417 E38.2548
G1 X112.799 Y113.801 E38.27428
G1 X112.794 Y117.569 E38.44973
G1 X112.753 Y118.064 E38.47286
G1 X112.634 Y118.545 E38.49593
G1 X112.439 Y119.001 E38.51902
G1 X112.173 Y119.42 E38.54213
G1 X111.706 Y119.914 E38.57379
G1 X111.112 Y120.365 E38.60852
G1 X110.527 Y120.645 E38.63872
G1 X109.953 Y120.819 E38.66665
G1 X109.503 Y120.909 E38.68801
G1 X108.961 Y120.968 E38.7134
G1 X107.656 Y120.994 E38.77418
G1 X45.047 Y120.994 E41.68952
G1 X44.553 Y120.954 E41.71259
G1 X44.071 Y120.835 E41.73571
G1 X43.615 Y120.641 E41.75879
G1 X43.196 Y120.376 E41.78187
G1 X42.752 Y119.975 E41.80973
G1 X42.431 Y119.597 E41.83282
G1 X42.174 Y119.173 E41.85591
G1 X41.989 Y118.712 E41.87904
G1 X41.88 Y118.229 E41.9021
G1 X41.85 Y117.797 E41.92226
G1 X41.85 Y92.203 E43.11402
G1 X41.89 Y91.709 E43.1371
G1 X42.009 Y91.227 E43.16022
G1 X42.203 Y90.771 E43.18329
G1 X42.468 Y90.352 E43.20638
G1 X42.869 Y89.908 E43.23424
G1 X43.247 Y89.587 E43.25733
G1 X43.671 Y89.33 E43.28042
M204 S3000
M205 X10 Y10
G0 F3000 X43.999 Y89.794
M204 S1800
M205 X8 Y8
G1 F2400 X44.422 Y89.645 E43.3013
G1 X45.047 Y89.566 E43.33063
G1 X108.471 Y89.566 E46.28392
G1 X109.138 Y89.612 E46.31505
G1 X109.596 Y89.678 E46.3366
G1 X110.21 Y89.847 E46.36625
G1 X111.018 Y90.229 E46.40787
G1 X111.371 Y90.505 E46.42873
G1 X111.766 Y90.979 E46.45746
G1 X112.042 Y91.48 E46.4841
G1 X112.177 Y91.908 E46.505
G1 X112.235 Y92.439 E46.52987
G1 X112.248 Y96.292 E46.70928
G1 X112.246 Y97.685 E46.77415
G1 X112.336 Y97.83 E46.78209
G1 X112.702 Y97.952 E46.80006
G1 X112.938 Y97.975 E46.8111
G1 X164.552 Y97.975 E49.21446
G1 X164.999 Y98.015 E49.23536
G1 X165.431 Y98.133 E49.25621
G1 X165.836 Y98.327 E49.27712
G1 X166.334 Y98.713 E49.30646
G1 X166.739 Y99.174 E49.33504
G1 X166.961 Y99.564 E49.35593
G1 X167.11 Y99.987 E49.37681
G1 X167.189 Y100.612 E49.40615
G1 X167.189 Y109.388 E49.8148
G1 X167.149 Y109.835 E49.83569
G1 X167.031 Y110.267 E49.85655
G1 X166.837 Y110.672 E49.87746
G1 X166.451 Y111.17 E49.9068
G1 X165.99 Y111.575 E49.93537
G1 X165.6 Y111.797 E49.95626
G1 X165.177 Y111.946 E49.97715
G1 X164.552 Y112.025 E50.00648
G1 X112.943 Y112.025 E52.40961
G1 X112.593 Y112.073 E52.42606
G1 X112.525 Y112.886 E52.46405
G1 X112.405 Y113.318 E52.48493
G1 X112.24 Y113.662 E52.50269
G1 X112.234 Y117.569 E52.68462
G1 X112.193 Y118.015 E52.70548
G1 X112.074 Y118.448 E52.72639
G1 X111.88 Y118.852 E52.74725
G1 X111.618 Y119.216 E52.76814
G1 X111.153 Y119.649 E52.79772
G1 X110.786 Y119.907 E52.81861
G1 X110.313 Y120.128 E52.84292
G1 X109.393 Y120.36 E52.8871
G1 X108.95 Y120.408 E52.90785
G1 X107.656 Y120.434 E52.96812
G1 X45.047 Y120.434 E55.88346
G1 X44.6 Y120.394 E55.90435
G1 X44.168 Y120.276 E55.92521
G1 X43.763 Y120.082 E55.94612
G1 X43.265 Y119.696 E55.97546
G1 X42.86 Y119.235 E56.00403
G1 X42.638 Y118.845 E56.02493
G1 X42.489 Y118.422 E56.04581
G1 X42.41 Y117.797 E56.07514
G1 X42.41 Y92.203 E57.26691
G1 X42.45 Y91.756 E57.2878
G1 X42.568 Y91.324 E57.30866
G1 X42.762 Y90.919 E57.32957
G1 X43.148 Y90.421 E57.35891
G1 X43.609 Y90.016 E57.38748
G1 X43.999 Y89.794 E57.40838
M204 S3000
M205 X10 Y10
G0 F3000 X43.967 Y90.45
M204 S1800
M205 X8 Y8
G1 F2400 X44.318 Y90.267 E57.42681
G1 X44.698 Y90.157 E57.44523
G1 X45.047 Y90.126 E57.46154
G1 X108.471 Y90.126 E60.41483
G1 X109.059 Y90.166 E60.44227
G1 X109.517 Y90.232 E60.46382
G1 X109.994 Y90.364 E60.48687
G1 X110.752 Y90.725 E60.52596
G1 X111.055 Y90.979 E60.54437
G1 X111.363 Y91.387 E60.56817
G1 X111.542 Y91.739 E60.58656
G1 X111.647 Y92.12 E60.60496
G1 X111.675 Y92.441 E60.61997
G1 X111.688 Y96.291 E60.79924
G1 X111.686 Y97.844 E60.87156
G1 X111.955 Y98.28 E60.89541
G1 X112.411 Y98.465 E60.91832
G1 X112.916 Y98.535 E60.94206
G1 X164.552 Y98.535 E63.34645
G1 X164.945 Y98.575 E63.36485
G1 X165.323 Y98.693 E63.38329
G1 X165.669 Y98.884 E63.40169
G1 X166.055 Y99.226 E63.4257
G1 X166.305 Y99.532 E63.4441
G1 X166.488 Y99.883 E63.46253
G1 X166.598 Y100.263 E63.48096
G1 X166.629 Y100.612 E63.49727
G1 X166.629 Y109.388 E63.90592
G1 X166.589 Y109.781 E63.92431
G1 X166.471 Y110.159 E63.94275
G1 X166.28 Y110.505 E63.96115
G1 X165.938 Y110.891 E63.98517
G1 X165.632 Y111.141 E64.00357
G1 X165.281 Y111.324 E64.022
G1 X164.901 Y111.434 E64.04042
G1 X164.552 Y111.465 E64.05673
G1 X112.906 Y111.465 E66.46159
G1 X112.374 Y111.549 E66.48667
G1 X112.117 Y111.652 E66.49956
G1 X112.008 Y112.11 E66.52148
G1 X111.966 Y112.83 E66.55507
G1 X111.846 Y113.207 E66.57349
G1 X111.68 Y113.506 E66.58941
G1 X111.674 Y117.568 E66.77856
G1 X111.634 Y117.961 E66.79695
G1 X111.515 Y118.338 E66.81536
G1 X111.323 Y118.684 E66.83378
G1 X110.982 Y119.06 E66.85742
G1 X110.465 Y119.446 E66.88746
G1 X110.098 Y119.61 E66.90618
G1 X109.283 Y119.811 E66.94527
G1 X108.938 Y119.849 E66.96143
G1 X107.695 Y119.874 E67.01932
G1 X45.047 Y119.874 E69.93647
G1 X44.654 Y119.834 E69.95487
G1 X44.276 Y119.716 E69.97331
G1 X43.93 Y119.525 E69.99171
G1 X43.544 Y119.183 E70.01572
G1 X43.294 Y118.877 E70.03412
G1 X43.111 Y118.526 E70.05256
G1 X43.001 Y118.146 E70.07098
G1 X42.97 Y117.797 E70.08729
G1 X42.97 Y92.203 E71.27906
G1 X43.01 Y91.81 E71.29745
G1 X43.128 Y91.432 E71.31589
G1 X43.319 Y91.086 E71.33429
G1 X43.661 Y90.7 E71.35831
G1 X43.967 Y90.45 E71.3767
M204 S3000
M205 X10 Y10
G0 F3000 X44.32 Y90.89
M204 S1800
M205 X8 Y8
G1 F2400 X44.624 Y90.751 E71.39227
G1 X45.047 Y90.686 E71.4122
G1 X108.471 Y90.686 E74.36548
G1 X108.979 Y90.72 E74.38919
G1 X109.437 Y90.786 E74.41074
G1 X110.188 Y91.053 E74.44785
G1 X110.479 Y91.217 E74.46341
G1 X110.825 Y91.586 E74.48696
G1 X111.038 Y91.99 E74.50823
G1 X111.115 Y92.443 E74.52962
G1 X111.128 Y96.29 E74.70876
G1 X111.126 Y98.001 E74.78843
G1 X111.575 Y98.731 E74.82834
G1 X112.244 Y99.001 E74.86193
G1 X112.894 Y99.095 E74.89251
G1 X164.552 Y99.095 E77.29792
G1 X164.884 Y99.135 E77.31349
G1 X165.196 Y99.252 E77.32901
G1 X165.659 Y99.622 E77.35661
G1 X165.865 Y99.885 E77.37216
G1 X166.004 Y100.189 E77.38773
G1 X166.069 Y100.612 E77.40766
G1 X166.069 Y109.388 E77.8163
G1 X166.029 Y109.72 E77.83187
G1 X165.912 Y110.032 E77.84739
G1 X165.542 Y110.495 E77.87499
G1 X165.279 Y110.701 E77.89054
G1 X164.975 Y110.84 E77.90611
G1 X164.552 Y110.905 E77.92604
G1 X112.878 Y110.905 E80.33219
G1 X112.208 Y111.013 E80.3638
G1 X111.635 Y111.258 E80.39281
G1 X111.448 Y112.043 E80.43039
G1 X111.406 Y112.767 E80.46416
G1 X111.287 Y113.079 E80.47971
G1 X111.12 Y113.322 E80.49344
G1 X111.114 Y117.567 E80.6911
G1 X111.074 Y117.899 E80.70667
G1 X110.956 Y118.211 E80.72221
G1 X110.62 Y118.633 E80.74732
G1 X110.058 Y119.021 E80.77912
G1 X109.624 Y119.172 E80.80052
G1 X108.927 Y119.289 E80.83343
G1 X107.684 Y119.314 E80.89132
G1 X45.047 Y119.314 E83.80796
G1 X44.715 Y119.274 E83.82353
G1 X44.403 Y119.157 E83.83905
G1 X43.94 Y118.787 E83.86665
G1 X43.734 Y118.524 E83.8822
G1 X43.595 Y118.22 E83.89777
G1 X43.53 Y117.797 E83.9177
G1 X43.53 Y92.203 E85.10946
G1 X43.57 Y91.871 E85.12503
G1 X43.687 Y91.559 E85.14055
G1 X44.057 Y91.096 E85.16814
G1 X44.32 Y90.89 E85.1837
M204 S3000
M205 X10 Y10
G0 F3000 X44.662 Y91.34
M204 S1800
M205 X8 Y8
G1 F2400 X45.047 Y91.246 E85.20215
G1 X108.471 Y91.246 E88.15544
G1 X109.357 Y91.341 E88.19693
G1 X109.972 Y91.569 E88.22747
G1 X110.193 Y91.704 E88.23953
G1 X110.421 Y91.993 E88.25667
G1 X110.526 Y92.229 E88.2687
G1 X110.555 Y92.445 E88.27885
G1 X110.568 Y96.289 E88.45784
G1 X110.565 Y98.16 E88.54497
G1 X111.194 Y99.18 E88.60077
G1 X112.084 Y99.541 E88.64549
G1 X112.86 Y99.655 E88.68201
G1 X164.552 Y99.655 E91.089
G1 X164.807 Y99.695 E91.10102
G1 X165.146 Y99.901 E91.11949
G1 X165.415 Y100.227 E91.13918
G1 X165.509 Y100.612 E91.15763
G1 X165.509 Y109.388 E91.56628
G1 X165.469 Y109.643 E91.5783
G1 X165.263 Y109.982 E91.59677
G1 X164.937 Y110.251 E91.61645
G1 X164.552 Y110.345 E91.6349
G1 X112.85 Y110.345 E94.04236
G1 X112.05 Y110.475 E94.0801
G1 X111.767 Y110.58 E94.09416
G1 X111.16 Y110.86 E94.12529
G1 X111.151 Y110.87 E94.12591
G1 X110.889 Y111.976 E94.17884
G1 X110.887 Y112.433 E94.20012
G1 X110.846 Y112.688 E94.21214
G1 X110.73 Y112.919 E94.22418
G1 X110.56 Y113.092 E94.23547
G1 X110.554 Y117.566 E94.4438
G1 X110.514 Y117.822 E94.45587
G1 X110.398 Y118.053 E94.4679
G1 X110.066 Y118.368 E94.48921
G1 X109.67 Y118.575 E94.51002
G1 X109.064 Y118.713 E94.53896
G1 X108.916 Y118.729 E94.54589
G1 X107.673 Y118.754 E94.60378
G1 X45.047 Y118.754 E97.51991
G1 X44.792 Y118.714 E97.53193
G1 X44.453 Y118.508 E97.5504
G1 X44.184 Y118.182 E97.57008
G1 X44.09 Y117.797 E97.58854
G1 X44.09 Y92.203 E98.7803
G1 X44.13 Y91.948 E98.79232
G1 X44.336 Y91.609 E98.81079
G1 X44.662 Y91.34 E98.83047
M204 S3000
M205 X10 Y10
G0 F3000 X44.849 Y91.888
M204 S1800
M205 X8 Y8
G1 F2400 X45.047 Y91.806 E98.84045
G1 X108.471 Y91.806 E101.79374
G1 X109.277 Y91.895 E101.8315
G1 X109.756 Y92.086 E101.85551
G1 X109.95 Y92.296 E101.86882
G1 X109.995 Y92.447 E101.87616
G1 X110.008 Y96.288 E102.05501
G1 X110.005 Y98.319 E102.14958
G1 X110.813 Y99.63 E102.22129
G1 X111.924 Y100.08 E102.27711
G1 X112.839 Y100.215 E102.32018
